(VECTRIC POST REVISION)
(FFCFDDC6601FDE93278A86ECDC292DD1)
 (10.13.25 FIXED_1Medex_FACE_1-4-Pocket 2 [Clear 1])
(CREATED Wednesday October 15 2025)
( Material Size)
( X= 736.600, Y= 2463.800, Z= 25.400)
(Tools used in this file: )
(T8 = #RC-2250 MINI- SPOILBOARD 1-1/2" DIA 1/2"SHANK  )
(T1 = #46367-K SC MORTISE 2 FL 3/8" DIAx7/8x3/8" Shank Spektra)
(T7 = #56123 CT POINT CUTTING ROUND OVER 1/2 D)
(T1 = #46367-K SC MORTISE 2 FL 3/8" DIAx7/8x3/8" Shank Spektra)
N11 G00 G17 G71 G40 G49 G80 G90
N12 G54
N13 G53 Z0
N14 (Tool: #RC-2250 MINI- SPOILBOARD 1-1/2" DIA 1/2"SHANK  )
N15 T8 M06
N16 M03 S18000
N17 G43 H8 Z30.4800
N18 G00 X438.7592 Y834.0480
N19 G00 Z30.4800
N20 G01 Z25.4000 F3683.0
N21 G01 Y732.4480 Z23.4950 
N22 G01 Y834.0480 Z21.5900 
N23 G01 Y124.8165 F5080.0
N24 G01 X404.4692
N25 G01 Y834.0480
N26 G01 X370.1792
N27 G01 Y124.8165
N28 G01 X335.8892
N29 G01 Y834.0480
N30 G01 X301.5992
N31 G01 Y124.8165
N32 G01 X267.3092
N33 G01 Y834.0480
N34 G01 X233.0192
N35 G01 Y124.8165
N36 G01 X198.7292
N37 G01 Y834.0480
N38 G01 X164.4392
N39 G01 Y124.8165
N40 G01 X141.9628
N41 G01 Y834.0480
N42 G01 X124.8178
N43 G01 Y124.8165
N44 G00 Z30.4800
N45 G00 X445.6185 Y840.9060
N46 G01 Z25.4000 F3683.0
N47 G01 X344.0185 Z23.4950 
N48 G01 X445.6185 Z21.5900 
N49 G01 X117.9585 F5080.0
N50 G01 Y117.9585
N51 G01 X445.6185
N52 G01 Y840.9060
N53 G00 Z30.4800
N54 G00 X438.7592 Y834.0480
N55 G01 Z21.5900 F3683.0
N56 G01 Y732.4480 Z19.6850 
N57 G01 Y834.0480 Z17.7800 
N58 G01 Y124.8165 F5080.0
N59 G01 X404.4692
N60 G01 Y834.0480
N61 G01 X370.1792
N62 G01 Y124.8165
N63 G01 X335.8892
N64 G01 Y834.0480
N65 G01 X301.5992
N66 G01 Y124.8165
N67 G01 X267.3092
N68 G01 Y834.0480
N69 G01 X233.0192
N70 G01 Y124.8165
N71 G01 X198.7292
N72 G01 Y834.0480
N73 G01 X164.4392
N74 G01 Y124.8165
N75 G01 X141.9628
N76 G01 Y834.0480
N77 G01 X124.8178
N78 G01 Y124.8165
N79 G00 Z30.4800
N80 G00 X445.6185 Y840.9060
N81 G01 Z21.5900 F3683.0
N82 G01 X344.0185 Z19.6850 
N83 G01 X445.6185 Z17.7800 
N84 G01 X117.9585 F5080.0
N85 G01 Y117.9585
N86 G01 X445.6185
N87 G01 Y840.9060
N88 G00 Z30.4800
N89 G00 X374.5398 Y1642.1954
N90 G01 Z25.4000 F3683.0
N91 G01 Y1540.5953 Z23.4950 
N92 G01 Y1642.1954 Z21.5900 
N93 G01 Y1047.2639 F5080.0
N94 G01 X340.2498
N95 G01 Y1642.1954
N96 G01 X305.9598
N97 G01 Y1047.2639
N98 G01 X271.6698
N99 G01 Y1642.1954
N100 G01 X237.3798
N101 G01 Y1047.2639
N102 G01 X203.0898
N103 G01 Y1642.1954
N104 G01 X168.7998
N105 G01 Y1047.2639
N106 G01 X138.3859
N107 G01 Y1642.1954
N108 G00 Z30.4800
N109 G00 X381.3991 Y1649.0533
N110 G01 Z25.4000 F3683.0
N111 G01 X279.7991 Z23.4950 
N112 G01 X381.3991 Z21.5900 
N113 G01 X131.5266 F5080.0
N114 G01 Y1040.4060
N115 G01 X381.3991
N116 G01 Y1649.0533
N117 G00 Z30.4800
N118 G00 X374.5398 Y1642.1954
N119 G01 Z21.5900 F3683.0
N120 G01 Y1540.5953 Z19.6850 
N121 G01 Y1642.1954 Z17.7800 
N122 G01 Y1047.2639 F5080.0
N123 G01 X340.2498
N124 G01 Y1642.1954
N125 G01 X305.9598
N126 G01 Y1047.2639
N127 G01 X271.6698
N128 G01 Y1642.1954
N129 G01 X237.3798
N130 G01 Y1047.2639
N131 G01 X203.0898
N132 G01 Y1642.1954
N133 G01 X168.7998
N134 G01 Y1047.2639
N135 G01 X138.3859
N136 G01 Y1642.1954
N137 G00 Z30.4800
N138 G00 X381.3991 Y1649.0533
N139 G01 Z21.5900 F3683.0
N140 G01 X279.7991 Z19.6850 
N141 G01 X381.3991 Z17.7800 
N142 G01 X131.5266 F5080.0
N143 G01 Y1040.4060
N144 G01 X381.3991
N145 G01 Y1649.0533
N146 G00 Z30.4800
N147 G00 G53 G49 Z0
N148 M05
N149 (Tool: #46367-K SC MORTISE 2 FL 3/8" DIAx7/8x3/8" Shank Spektra)
N150 T1 M06
N151 G00 G43 H1 Z30.4800
N152 M03 S18000
N153 M03 S18000
N154 G00 X396.1628 Y1663.8173
N155 G00 Z30.4800
N156 G01 Z17.7800 F3048.0
N157 G01 X116.7629 F5080.0
N158 G01 Y1025.6421
N159 G01 X396.1628
N160 G01 Y1663.8173
N161 G00 Z30.4800
N162 G00 X460.3823 Y855.6697
N163 G01 Z17.7800 F3048.0
N164 G01 X103.1948 F5080.0
N165 G01 Y103.1948
N166 G01 X460.3823
N167 G01 Y855.6697
N168 G00 Z30.4800
N169 G00 G53 G49 Z0
N170 M05
N171 (Tool: #56123 CT POINT CUTTING ROUND OVER 1/2 D)
N172 T7 M06
N173 G00 G43 H7 Z30.4800
N174 M03 S18000
N175 M03 S18000
N176 G00 X98.4323 Y98.4323
N177 G00 Z30.4800
N178 G01 Z25.4000 F635.0
N179 G01 X136.5323 Z17.7800 
N180 G01 X465.1447 F1270.0
N181 G01 Y860.4323
N182 G01 X98.4323
N183 G01 Y98.4323
N184 G01 X136.5323
N185 G00 Z30.4800
N186 G00 X112.0004 Y1020.8796
N187 G01 Z25.4000 F635.0
N188 G01 X150.1004 Z17.7800 
N189 G01 X400.9254 F1270.0
N190 G01 Y1668.5797
N191 G01 X112.0004
N192 G01 Y1020.8796
N193 G01 X150.1004
N194 G00 Z30.4800
N195 G00 G53 G49 Z0
N196 M05
N197 (Tool: #46367-K SC MORTISE 2 FL 3/8" DIAx7/8x3/8" Shank Spektra)
N198 T1 M06
N199 G00 G43 H1 Z30.4800
N200 M03 S18000
N201 M03 S18000
N202 G00 X36.5198 Y41.2823
N203 G00 Z30.4800
N204 G01 Z25.4000 F3048.0
N205 G01 X36.5229 Y41.1083 Z25.3574 
N206 G01 X36.5326 Y40.9321 Z25.3147 
N207 G01 X36.5492 Y40.7539 Z25.2721 
N208 G01 X36.5727 Y40.5740 Z25.2295 
N209 G01 X36.6035 Y40.3930 Z25.1869 
N210 G01 X36.6418 Y40.2111 Z25.1442 
N211 G01 X36.6877 Y40.0288 Z25.1016 
N212 G01 X36.7413 Y39.8466 Z25.0590 
N213 G01 X36.8028 Y39.6648 Z25.0164 
N214 G01 X36.8722 Y39.4841 Z24.9737 
N215 G01 X36.9496 Y39.3050 Z24.9311 
N216 G01 X37.0349 Y39.1278 Z24.8885 
N217 G01 X37.1281 Y38.9532 Z24.8459 
N218 G01 X37.2291 Y38.7816 Z24.8032 
N219 G01 X37.3377 Y38.6136 Z24.7606 
N220 G01 X37.4537 Y38.4497 Z24.7180 
N221 G01 X37.5769 Y38.2903 Z24.6754 
N222 G01 X37.7071 Y38.1359 Z24.6327 
N223 G01 X37.8439 Y37.9869 Z24.5901 
N224 G01 X37.9869 Y37.8439 Z24.5475 
N225 G01 X38.1359 Y37.7071 Z24.5048 
N226 G01 X38.2903 Y37.5769 Z24.4622 
N227 G01 X38.4497 Y37.4537 Z24.4196 
N228 G01 X38.6136 Y37.3377 Z24.3770 
N229 G01 X38.7816 Y37.2291 Z24.3343 
N230 G01 X38.9532 Y37.1281 Z24.2917 
N231 G01 X39.1278 Y37.0349 Z24.2491 
N232 G01 X39.3050 Y36.9496 Z24.2065 
N233 G01 X39.4841 Y36.8722 Z24.1638 
N234 G01 X39.6648 Y36.8028 Z24.1212 
N235 G01 X39.8466 Y36.7413 Z24.0786 
N236 G01 X40.0288 Y36.6877 Z24.0360 
N237 G01 X40.2111 Y36.6418 Z23.9933 
N238 G01 X40.3930 Y36.6035 Z23.9507 
N239 G01 X40.5740 Y36.5727 Z23.9081 
N240 G01 X40.7539 Y36.5492 Z23.8655 
N241 G01 X40.9321 Y36.5326 Z23.8228 
N242 G01 X41.1083 Y36.5229 Z23.7802 
N243 G01 X41.2823 Y36.5198 Z23.7376 
N244 G01 X71.9013 Z16.9333 
N245 G01 X110.0013 F5080.0
N246 G01 X148.1013
N247 G01 X522.2947
N248 G03 X527.0573 Y41.2823 R4.7625 
N249 G01 Y917.5823 
N250 G03 X522.2947 Y922.3447 R4.7625 
N251 G01 X41.2823 
N252 G03 X36.5198 Y917.5823 R4.7625 
N253 G01 Y41.2823 
N254 G03 X41.2823 Y36.5198 R4.7625 
N255 G01 X71.9013 
N256 G01 X110.0013 Z8.4667 F3048.0
N257 G01 X148.1013 F5080.0
N258 G01 X522.2947
N259 G03 X527.0573 Y41.2823 R4.7625 
N260 G01 Y917.5823 
N261 G03 X522.2947 Y922.3447 R4.7625 
N262 G01 X41.2823 
N263 G03 X36.5198 Y917.5823 R4.7625 
N264 G01 Y41.2823 
N265 G03 X41.2823 Y36.5198 R4.7625 
N266 G01 X71.9013 
N267 G01 X110.0013
N268 G01 X148.1013 Z0.0000 F3048.0
N269 G01 X522.2947 F5080.0
N270 G03 X527.0573 Y41.2823 R4.7625 
N271 G01 Y917.5823 
N272 G03 X522.2947 Y922.3447 R4.7625 
N273 G01 X41.2823 
N274 G03 X36.5198 Y917.5823 R4.7625 
N275 G01 Y41.2823 
N276 G03 X41.2823 Y36.5198 R4.7625 
N277 G01 X71.9013 
N278 G01 X110.0013
N279 G01 X148.1013
N280 G00 Z30.4800
N281 G00 X54.8504 Y958.9671
N282 G01 Z25.4000 F3048.0
N283 G01 X92.9504 Z16.9333 
N284 G01 X131.0504 F5080.0
N285 G01 X169.1504
N286 G01 X458.0754
N287 G03 X462.8379 Y963.7296 R4.7625 
N288 G01 Y1725.7297 
N289 G03 X458.0754 Y1730.4922 R4.7625 
N290 G01 X54.8504 
N291 G03 X50.0879 Y1725.7297 R4.7625 
N292 G01 Y963.7296 
N293 G03 X54.8504 Y958.9671 R4.7625 
N294 G01 X92.9504 
N295 G01 X131.0504 Z8.4667 F3048.0
N296 G01 X169.1504 F5080.0
N297 G01 X458.0754
N298 G03 X462.8379 Y963.7296 R4.7625 
N299 G01 Y1725.7297 
N300 G03 X458.0754 Y1730.4922 R4.7625 
N301 G01 X54.8504 
N302 G03 X50.0879 Y1725.7297 R4.7625 
N303 G01 Y963.7296 
N304 G03 X54.8504 Y958.9671 R4.7625 
N305 G01 X92.9504 
N306 G01 X131.0504
N307 G01 X169.1504 Z0.0000 F3048.0
N308 G01 X458.0754 F5080.0
N309 G03 X462.8379 Y963.7296 R4.7625 
N310 G01 Y1725.7297 
N311 G03 X458.0754 Y1730.4922 R4.7625 
N312 G01 X54.8504 
N313 G03 X50.0879 Y1725.7297 R4.7625 
N314 G01 Y963.7296 
N315 G03 X54.8504 Y958.9671 R4.7625 
N316 G01 X92.9504 
N317 G01 X131.0504
N318 G01 X169.1504
N319 G00 Z30.4800
N320 G00 G53 G49 Z0
N321 G00 G53 X0.0000 Y0.0000 M05
N322 M30
