(VECTRIC POST REVISION)
(FFCFDDC6601FDE93278A86ECDC292DD1)
 (10.13.25 FIXED_1Medex_BACK_1-3-Drill 1)
(CREATED Wednesday October 15 2025)
( Material Size)
( X= 736.600, Y= 2463.800, Z= 25.400)
(Tools used in this file: )
(T4 = #46125-K SC UPCUT SPIRAL 1/8" DIA.x1/4" shank Spektra)
(T8 = #RC-2250 MINI- SPOILBOARD 1-1/2" DIA 1/2"SHANK  )
(T1 = #46367-K SC MORTISE 2 FL 3/8" DIAx7/8x3/8" Shank Spektra)
N10 G00 G17 G71 G40 G49 G80 G90
N11 G54
N12 G53 Z0
N13 (Tool: #46125-K SC UPCUT SPIRAL 1/8" DIA.x1/4" shank Spektra)
N14 T4 M06
N15 M03 S6000
N16 G43 H4 Z30.4800
N17 G00 X227.0052 Y815.9822
N18 G00 Z30.4800
N19 G01 Z22.8600 F762.0
N20 G00 Z30.4800
N21 G00 Y142.8822
N22 G01 Z22.8600 F762.0
N23 G00 Z30.4800
N24 G00 G53 G49 Z0
N25 M05
N26 (Tool: #RC-2250 MINI- SPOILBOARD 1-1/2" DIA 1/2"SHANK  )
N27 T8 M06
N28 G00 G43 H8 Z30.4800
N29 M03 S18000
N30 M03 S18000
N31 G00 X611.7822 Y834.0480
N32 G00 Z30.4800
N33 G01 Z25.4000 F3683.0
N34 G01 Y732.4480 Z22.2250 
N35 G01 Y834.0480 Z19.0500 
N36 G01 Y124.8165 F5080.0
N37 G01 X577.4922
N38 G01 Y834.0480
N39 G01 X543.2022
N40 G01 Y124.8165
N41 G01 X508.9122
N42 G01 Y834.0480
N43 G01 X474.6222
N44 G01 Y124.8165
N45 G01 X440.3322
N46 G01 Y834.0480
N47 G01 X406.0422
N48 G01 Y124.8165
N49 G01 X371.7522
N50 G01 Y834.0480
N51 G01 X337.4622
N52 G01 Y124.8165
N53 G01 X314.9857
N54 G01 Y834.0480
N55 G01 X297.8408
N56 G01 Y124.8165
N57 G00 Z30.4800
N58 G00 X618.6415 Y840.9060
N59 G01 Z25.4000 F3683.0
N60 G01 X517.0415 Z22.2250 
N61 G01 X618.6415 Z19.0500 
N62 G01 X290.9815 F5080.0
N63 G01 Y117.9585
N64 G01 X618.6415
N65 G01 Y840.9060
N66 G00 Z30.4800
N67 G00 G53 G49 Z0
N68 M05
N69 (Tool: #46367-K SC MORTISE 2 FL 3/8" DIAx7/8x3/8" Shank Spektra)
N70 T1 M06
N71 G00 G43 H1 Z30.4800
N72 M03 S18000
N73 M03 S18000
N74 G00 X633.4052 Y855.6697
N75 G00 Z30.4800
N76 G01 Z19.0500 F3048.0
N77 G01 X276.2177 F5080.0
N78 G01 Y103.1948
N79 G01 X633.4052
N80 G01 Y855.6697
N81 G00 Z30.4800
N82 G00 G53 G49 Z0
N83 G00 G53 X0.0000 Y0.0000 M05
N84 M30
