(VECTRIC POST REVISION)
(FFCFDDC6601FDE93278A86ECDC292DD1)
 (9.26.25_RiftWOPly01_1-2-Shelf Pins)
(CREATED Thursday September 25 2025)
( Material Size)
( X= 1231.900, Y= 2451.100, Z= 19.050)
(Tools used in this file: )
(T3 = #46211-K SC DOWNCUT SPIRAL 2 FL 5MMx3/4x1/4" Shank)
(T1 = #46367-K SC MORTISE 2 FL 3/8" DIAx7/8x3/8" Shank Spektra)
N9 G00 G17 G71 G40 G49 G80 G90
N10 G54
N11 G53 Z0
N12 (Tool: #46211-K SC DOWNCUT SPIRAL 2 FL 5MMx3/4x1/4" Shank)
N13 T3 M06
N14 M03 S6000
N15 G43 H3 Z24.1300
N16 G00 X662.0245 Y759.4088
N17 G00 Z24.1300
N18 G01 Z6.3500 F2540.0
N19 G00 Z24.1300
N20 G00 Y797.5088
N21 G01 Z6.3500 F2540.0
N22 G00 Z24.1300
N23 G00 Y835.6089
N24 G01 Z6.3500 F2540.0
N25 G00 Z24.1300
N26 G00 X833.4745
N27 G01 Z6.3500 F2540.0
N28 G00 Z24.1300
N29 G00 Y797.5088
N30 G01 Z6.3500 F2540.0
N31 G00 Z24.1300
N32 G00 Y759.4088
N33 G01 Z6.3500 F2540.0
N34 G00 Z24.1300
N35 G00 X945.8245
N36 G01 Z6.3500 F2540.0
N37 G00 Z24.1300
N38 G00 Y797.5088
N39 G01 Z6.3500 F2540.0
N40 G00 Z24.1300
N41 G00 Y835.6089
N42 G01 Z6.3500 F2540.0
N43 G00 Z24.1300
N44 G00 X1117.2745
N45 G01 Z6.3500 F2540.0
N46 G00 Z24.1300
N47 G00 Y797.5088
N48 G01 Z6.3500 F2540.0
N49 G00 Z24.1300
N50 G00 Y759.4088
N51 G01 Z6.3500 F2540.0
N52 G00 Z24.1300
N53 G00 Y1068.4421
N54 G01 Z6.3500 F2540.0
N55 G00 Z24.1300
N56 G00 Y1106.5421
N57 G01 Z6.3500 F2540.0
N58 G00 Z24.1300
N59 G00 Y1144.6421
N60 G01 Z6.3500 F2540.0
N61 G00 Z24.1300
N62 G00 X945.8245
N63 G01 Z6.3500 F2540.0
N64 G00 Z24.1300
N65 G00 Y1106.5421
N66 G01 Z6.3500 F2540.0
N67 G00 Z24.1300
N68 G00 Y1068.4421
N69 G01 Z6.3500 F2540.0
N70 G00 Z24.1300
N71 G00 X833.4745
N72 G01 Z6.3500 F2540.0
N73 G00 Z24.1300
N74 G00 Y1106.5421
N75 G01 Z6.3500 F2540.0
N76 G00 Z24.1300
N77 G00 Y1144.6421
N78 G01 Z6.3500 F2540.0
N79 G00 Z24.1300
N80 G00 X662.0245
N81 G01 Z6.3500 F2540.0
N82 G00 Z24.1300
N83 G00 Y1106.5421
N84 G01 Z6.3500 F2540.0
N85 G00 Z24.1300
N86 G00 Y1068.4421
N87 G01 Z6.3500 F2540.0
N88 G00 Z24.1300
N89 G00 X605.0437 Y1409.4873
N90 G01 Z6.3500 F2540.0
N91 G00 Z24.1300
N92 G00 X649.3245 Y1614.4088
N93 G01 Z6.3500 F2540.0
N94 G00 Z24.1300
N95 G00 Y1652.5088
N96 G01 Z6.3500 F2540.0
N97 G00 Z24.1300
N98 G00 Y1690.6088
N99 G01 Z6.3500 F2540.0
N100 G00 Z24.1300
N101 G00 X524.2745 Y1684.4088
N102 G01 Z6.3500 F2540.0
N103 G00 Z24.1300
N104 G00 Y1722.5088
N105 G01 Z6.3500 F2540.0
N106 G00 Z24.1300
N107 G00 Y1760.6088
N108 G01 Z6.3500 F2540.0
N109 G00 Z24.1300
N110 G00 X649.3245 Y1859.9420
N111 G01 Z6.3500 F2540.0
N112 G00 Z24.1300
N113 G00 Y1898.0421
N114 G01 Z6.3500 F2540.0
N115 G00 Z24.1300
N116 G00 Y1936.1421
N117 G01 Z6.3500 F2540.0
N118 G00 Z24.1300
N119 G00 X524.2745 Y1993.4420
N120 G01 Z6.3500 F2540.0
N121 G00 Z24.1300
N122 G00 Y2031.5420
N123 G01 Z6.3500 F2540.0
N124 G00 Z24.1300
N125 G00 Y2069.6421
N126 G01 Z6.3500 F2540.0
N127 G00 Z24.1300
N128 G00 X352.8245
N129 G01 Z6.3500 F2540.0
N130 G00 Z24.1300
N131 G00 Y2031.5420
N132 G01 Z6.3500 F2540.0
N133 G00 Z24.1300
N134 G00 Y1993.4420
N135 G01 Z6.3500 F2540.0
N136 G00 Z24.1300
N137 G00 X240.4745
N138 G01 Z6.3500 F2540.0
N139 G00 Z24.1300
N140 G00 Y2031.5420
N141 G01 Z6.3500 F2540.0
N142 G00 Z24.1300
N143 G00 Y2069.6421
N144 G01 Z6.3500 F2540.0
N145 G00 Z24.1300
N146 G00 X69.0245
N147 G01 Z6.3500 F2540.0
N148 G00 Z24.1300
N149 G00 Y2031.5420
N150 G01 Z6.3500 F2540.0
N151 G00 Z24.1300
N152 G00 Y1993.4420
N153 G01 Z6.3500 F2540.0
N154 G00 Z24.1300
N155 G00 Y1760.6088
N156 G01 Z6.3500 F2540.0
N157 G00 Z24.1300
N158 G00 Y1722.5088
N159 G01 Z6.3500 F2540.0
N160 G00 Z24.1300
N161 G00 Y1684.4088
N162 G01 Z6.3500 F2540.0
N163 G00 Z24.1300
N164 G00 X240.4745
N165 G01 Z6.3500 F2540.0
N166 G00 Z24.1300
N167 G00 Y1722.5088
N168 G01 Z6.3500 F2540.0
N169 G00 Z24.1300
N170 G00 Y1760.6088
N171 G01 Z6.3500 F2540.0
N172 G00 Z24.1300
N173 G00 X352.8245
N174 G01 Z6.3500 F2540.0
N175 G00 Z24.1300
N176 G00 Y1722.5088
N177 G01 Z6.3500 F2540.0
N178 G00 Z24.1300
N179 G00 Y1684.4088
N180 G01 Z6.3500 F2540.0
N181 G00 Z24.1300
N182 G00 X1011.2745 Y1690.6088
N183 G01 Z6.3500 F2540.0
N184 G00 Z24.1300
N185 G00 Y1652.5088
N186 G01 Z6.3500 F2540.0
N187 G00 Z24.1300
N188 G00 Y1614.4088
N189 G01 Z6.3500 F2540.0
N190 G00 Z24.1300
N191 G00 Y1859.9420
N192 G01 Z6.3500 F2540.0
N193 G00 Z24.1300
N194 G00 Y1898.0421
N195 G01 Z6.3500 F2540.0
N196 G00 Z24.1300
N197 G00 Y1936.1421
N198 G01 Z6.3500 F2540.0
N199 G00 Z24.1300
N200 G00 X1067.2491 Y2137.3486
N201 G01 Z6.3500 F2540.0
N202 G00 Z24.1300
N203 G00 X581.2552 Y2334.4873
N204 G01 Z6.3500 F2540.0
N205 G00 Z24.1300
N206 G00 X12.0438
N207 G01 Z6.3500 F2540.0
N208 G00 Z24.1300
N209 G00 X1174.2552 Y1409.4873
N210 G01 Z6.3500 F2540.0
N211 G00 Z24.1300
N212 G00 G53 G49 Z0
N213 M05
N214 (Tool: #46367-K SC MORTISE 2 FL 3/8" DIAx7/8x3/8" Shank Spektra)
N215 T1 M06
N216 G00 G43 H1 Z24.1300
N217 M03 S18000
N218 M03 S18000
N219 G00 X5.5245 Y1.4130
N220 G00 Z24.1300
N221 G01 Z19.0500 F3048.0
N222 G01 X43.6245 Z9.5250 
N223 G01 X81.7245 F5080.0
N224 G01 X481.7745
N225 G03 X486.5370 Y6.1755 R4.7625 
N226 G01 Y920.5755 
N227 G03 X481.7745 Y925.3380 R4.7625 
N228 G01 X5.5245 
N229 G03 X0.7620 Y920.5755 R4.7625 
N230 G01 Y6.1755 
N231 G03 X5.5245 Y1.4130 R4.7625 
N232 G01 X43.6245 
N233 G01 X81.7245 Z0.0000 F3048.0
N234 G01 X481.7745 F5080.0
N235 G03 X486.5370 Y6.1755 R4.7625 
N236 G01 Y920.5755 
N237 G03 X481.7745 Y925.3380 R4.7625 
N238 G01 X5.5245 
N239 G03 X0.7620 Y920.5755 R4.7625 
N240 G01 Y6.1755 
N241 G03 X5.5245 Y1.4130 R4.7625 
N242 G01 X43.6245 
N243 G01 X81.7245
N244 G00 Z24.1300
N245 G00 X5.5245 Y926.1130
N246 G01 Z19.0500 F3048.0
N247 G01 X43.6245 Z9.5250 
N248 G01 X81.7245 F5080.0
N249 G01 X291.2745
N250 G03 X296.0370 Y930.8755 R4.7625 
N251 G01 Y2340.5754 
N252 G03 X291.2745 Y2345.3379 R4.7625 
N253 G01 X5.5245 
N254 G03 X0.7620 Y2340.5754 R4.7625 
N255 G01 Y930.8755 
N256 G03 X5.5245 Y926.1130 R4.7625 
N257 G01 X43.6245 
N258 G01 X81.7245 Z0.0000 F3048.0
N259 G01 X291.2745 F5080.0
N260 G03 X296.0370 Y930.8755 R4.7625 
N261 G01 Y2340.5754 
N262 G03 X291.2745 Y2345.3379 R4.7625 
N263 G01 X5.5245 
N264 G03 X0.7620 Y2340.5754 R4.7625 
N265 G01 Y930.8755 
N266 G03 X5.5245 Y926.1130 R4.7625 
N267 G01 X43.6245 
N268 G01 X81.7245
N269 G00 Z24.1300
N270 G00 X297.2620 Y930.8755
N271 G01 Z19.0500 F3048.0
N272 G01 X297.2652 Y930.7015 Z19.0020 
N273 G01 X297.2749 Y930.5253 Z18.9541 
N274 G01 X297.2914 Y930.3470 Z18.9061 
N275 G01 X297.3149 Y930.1672 Z18.8582 
N276 G01 X297.3458 Y929.9863 Z18.8102 
N277 G01 X297.3840 Y929.8043 Z18.7623 
N278 G01 X297.4299 Y929.6220 Z18.7143 
N279 G01 X297.4836 Y929.4398 Z18.6664 
N280 G01 X297.5451 Y929.2581 Z18.6184 
N281 G01 X297.6145 Y929.0774 Z18.5705 
N282 G01 X297.6919 Y928.8983 Z18.5225 
N283 G01 X297.7772 Y928.7210 Z18.4745 
N284 G01 X297.8704 Y928.5464 Z18.4266 
N285 G01 X297.9713 Y928.3748 Z18.3786 
N286 G01 X298.0799 Y928.2068 Z18.3307 
N287 G01 X298.1960 Y928.0428 Z18.2827 
N288 G01 X298.3192 Y927.8835 Z18.2348 
N289 G01 X298.4493 Y927.7291 Z18.1868 
N290 G01 X298.5861 Y927.5802 Z18.1389 
N291 G01 X298.7292 Y927.4371 Z18.0909 
N292 G01 X298.8781 Y927.3004 Z18.0430 
N293 G01 X299.0325 Y927.1702 Z17.9950 
N294 G01 X299.1919 Y927.0469 Z17.9470 
N295 G01 X299.3559 Y926.9309 Z17.8991 
N296 G01 X299.5239 Y926.8223 Z17.8511 
N297 G01 X299.6954 Y926.7213 Z17.8032 
N298 G01 X299.8701 Y926.6281 Z17.7552 
N299 G01 X300.0472 Y926.5428 Z17.7073 
N300 G01 X300.2264 Y926.4655 Z17.6593 
N301 G01 X300.4071 Y926.3961 Z17.6114 
N302 G01 X300.5888 Y926.3345 Z17.5634 
N303 G01 X300.7710 Y926.2809 Z17.5155 
N304 G01 X300.9533 Y926.2350 Z17.4675 
N305 G01 X301.1352 Y926.1967 Z17.4195 
N306 G01 X301.3163 Y926.1660 Z17.3716 
N307 G01 X301.4961 Y926.1424 Z17.3236 
N308 G01 X301.6743 Y926.1259 Z17.2757 
N309 G01 X301.8505 Y926.1161 Z17.2277 
N310 G01 X302.0245 Y926.1130 Z17.1798 
N311 G01 X332.6436 Z9.5250 
N312 G01 X370.7436 F5080.0
N313 G01 X587.7745
N314 G03 X592.5370 Y930.8755 R4.7625 
N315 G01 Y2340.5754 
N316 G03 X587.7745 Y2345.3379 R4.7625 
N317 G01 X302.0245 
N318 G03 X297.2620 Y2340.5754 R4.7625 
N319 G01 Y930.8755 
N320 G03 X302.0245 Y926.1130 R4.7625 
N321 G01 X332.6436 
N322 G01 X370.7436 Z0.0000 F3048.0
N323 G01 X587.7745 F5080.0
N324 G03 X592.5370 Y930.8755 R4.7625 
N325 G01 Y2340.5754 
N326 G03 X587.7745 Y2345.3379 R4.7625 
N327 G01 X302.0245 
N328 G03 X297.2620 Y2340.5754 R4.7625 
N329 G01 Y930.8755 
N330 G03 X302.0245 Y926.1130 R4.7625 
N331 G01 X332.6436 
N332 G01 X370.7436
N333 G00 Z24.1300
N334 G00 X598.5245 Y1421.2629
N335 G01 Z19.0500 F3048.0
N336 G01 X636.6245 Z9.5250 
N337 G01 X674.7245 F5080.0
N338 G01 X1074.7745
N339 G03 X1079.5370 Y1426.0254 R4.7625 
N340 G01 Y2143.5754 
N341 G03 X1074.7745 Y2148.3381 R4.7625 
N342 G01 X598.5245 
N343 G03 X593.7620 Y2143.5754 R4.7625 
N344 G01 Y1426.0254 
N345 G03 X598.5245 Y1421.2629 R4.7625 
N346 G01 X636.6245 
N347 G01 X674.7245 Z0.0000 F3048.0
N348 G01 X1074.7745 F5080.0
N349 G03 X1079.5370 Y1426.0254 R4.7625 
N350 G01 Y2143.5754 
N351 G03 X1074.7745 Y2148.3381 R4.7625 
N352 G01 X598.5245 
N353 G03 X593.7620 Y2143.5754 R4.7625 
N354 G01 Y1426.0254 
N355 G03 X598.5245 Y1421.2629 R4.7625 
N356 G01 X636.6245 
N357 G01 X674.7245
N358 G00 Z24.1300
N359 G00 X890.2620 Y1415.5754
N360 G01 Z19.0500 F3048.0
N361 G01 Y1377.4755 Z9.5250 
N362 G01 Y1339.3755 F5080.0
N363 G01 Y5.8755
N364 G03 X895.0245 Y1.1130 R4.7625 
N365 G01 X1180.7745 
N366 G03 X1185.5370 Y5.8755 R4.7625 
N367 G01 Y1415.5754 
N368 G03 X1180.7745 Y1420.3380 R4.7625 
N369 G01 X895.0245 
N370 G03 X890.2620 Y1415.5754 R4.7625 
N371 G01 Y1377.4755 
N372 G01 Y1339.3755 Z0.0000 F3048.0
N373 G01 Y5.8755 F5080.0
N374 G03 X895.0245 Y1.1130 R4.7625 
N375 G01 X1180.7745 
N376 G03 X1185.5370 Y5.8755 R4.7625 
N377 G01 Y1415.5754 
N378 G03 X1180.7745 Y1420.3380 R4.7625 
N379 G01 X895.0245 
N380 G03 X890.2620 Y1415.5754 R4.7625 
N381 G01 Y1377.4755 
N382 G01 Y1339.3755
N383 G00 Z24.1300
N384 G00 X889.0370 Y1415.5754
N385 G01 Z19.0500 F3048.0
N386 G01 X889.0338 Y1415.7494 Z19.0020 
N387 G01 X889.0241 Y1415.9257 Z18.9541 
N388 G01 X889.0076 Y1416.1039 Z18.9061 
N389 G01 X888.9840 Y1416.2837 Z18.8582 
N390 G01 X888.9532 Y1416.4647 Z18.8102 
N391 G01 X888.9149 Y1416.6466 Z18.7623 
N392 G01 X888.8691 Y1416.8289 Z18.7143 
N393 G01 X888.8154 Y1417.0111 Z18.6664 
N394 G01 X888.7540 Y1417.1930 Z18.6184 
N395 G01 X888.6845 Y1417.3735 Z18.5705 
N396 G01 X888.6071 Y1417.5527 Z18.5225 
N397 G01 X888.5218 Y1417.7299 Z18.4745 
N398 G01 X888.4286 Y1417.9045 Z18.4266 
N399 G01 X888.3276 Y1418.0762 Z18.3786 
N400 G01 X888.2191 Y1418.2441 Z18.3307 
N401 G01 X888.1030 Y1418.4081 Z18.2827 
N402 G01 X887.9798 Y1418.5675 Z18.2348 
N403 G01 X887.8497 Y1418.7219 Z18.1868 
N404 G01 X887.7128 Y1418.8708 Z18.1389 
N405 G01 X887.5698 Y1419.0138 Z18.0909 
N406 G01 X887.4209 Y1419.1506 Z18.0430 
N407 G01 X887.2665 Y1419.2808 Z17.9950 
N408 G01 X887.1071 Y1419.4041 Z17.9470 
N409 G01 X886.9431 Y1419.5200 Z17.8991 
N410 G01 X886.7751 Y1419.6287 Z17.8511 
N411 G01 X886.6035 Y1419.7296 Z17.8032 
N412 G01 X886.4289 Y1419.8228 Z17.7552 
N413 G01 X886.2518 Y1419.9081 Z17.7073 
N414 G01 X886.0726 Y1419.9855 Z17.6593 
N415 G01 X885.8920 Y1420.0549 Z17.6114 
N416 G01 X885.7101 Y1420.1165 Z17.5634 
N417 G01 X885.5279 Y1420.1700 Z17.5155 
N418 G01 X885.3456 Y1420.2159 Z17.4675 
N419 G01 X885.1638 Y1420.2542 Z17.4195 
N420 G01 X884.9827 Y1420.2850 Z17.3716 
N421 G01 X884.8029 Y1420.3086 Z17.3236 
N422 G01 X884.6247 Y1420.3251 Z17.2757 
N423 G01 X884.4484 Y1420.3348 Z17.2277 
N424 G01 X884.2745 Y1420.3380 Z17.1798 
N425 G01 X853.6555 Z9.5250 
N426 G01 X815.5554 Z9.5250 F5080.0
N427 G01 X598.5245
N428 G03 X593.7620 Y1415.5754 R4.7625 
N429 G01 Y5.8755 
N430 G03 X598.5245 Y1.1130 R4.7625 
N431 G01 X884.2745 
N432 G03 X889.0370 Y5.8755 R4.7625 
N433 G01 Y1415.5754 
N434 G03 X884.2745 Y1420.3380 R4.7625 
N435 G01 X853.6555 
N436 G01 X815.5554 Z0.0000 F3048.0
N437 G01 X598.5245 F5080.0
N438 G03 X593.7620 Y1415.5754 R4.7625 
N439 G01 Y5.8755 
N440 G03 X598.5245 Y1.1130 R4.7625 
N441 G01 X884.2745 
N442 G03 X889.0370 Y5.8755 R4.7625 
N443 G01 Y1415.5754 
N444 G03 X884.2745 Y1420.3380 R4.7625 
N445 G01 X853.6555 
N446 G01 X815.5554
N447 G00 Z24.1300
N448 G00 G53 G49 Z0
N449 G00 G53 X0.0000 Y0.0000 M05
N450 M30
