(VECTRIC POST REVISION)
(FFCFDDC6601FDE93278A86ECDC292DD1)
 (9.26.25_RiftWOPly04_9-10-Pin Pocket)
(CREATED Thursday September 25 2025)
( Material Size)
( X= 1231.900, Y= 2451.100, Z= 19.050)
(Tools used in this file: )
(T1 = #46367-K SC MORTISE 2 FL 3/8" DIAx7/8x3/8" Shank Spektra)
N8 G00 G17 G71 G40 G49 G80 G90
N9 G54
N10 G53 Z0
N11 (Tool: #46367-K SC MORTISE 2 FL 3/8" DIAx7/8x3/8" Shank Spektra)
N12 T1 M06
N13 M03 S18000
N14 G43 H1 Z24.1300
N15 G00 X56.2725 Y10.6654
N16 G00 Z24.1300
N17 G01 Z19.0500 F3048.0
N18 G01 Y20.2856 Z18.2640 
N19 G01 X56.3678 Z18.2563 
N20 G01 Y10.6654 Z17.4703 
N21 G01 X56.2725 Z17.4625 
N22 G01 X56.3678 Z17.4547 
N23 G01 Y20.2856 Z16.6687 
N24 G01 X56.2725 Z16.6610 
N25 G01 Y10.6654 Z15.8750 
N26 G01 Y20.2856 F5080.0
N27 G01 X56.3678
N28 G01 Y10.6654
N29 G01 X56.2725
N30 G00 Z24.1300
N31 G00 X227.7312
N32 G01 Z19.0500 F3048.0
N33 G01 Y20.2856 Z18.2640 
N34 G01 X227.8265 Z18.2563 
N35 G01 Y10.6654 Z17.4703 
N36 G01 X227.7312 Z17.4625 
N37 G01 X227.8265 Z17.4547 
N38 G01 Y20.2856 Z16.6687 
N39 G01 X227.7312 Z16.6610 
N40 G01 Y10.6654 Z15.8750 
N41 G01 Y20.2856 F5080.0
N42 G01 X227.8265
N43 G01 Y10.6654
N44 G01 X227.7312
N45 G00 Z24.1300
N46 G00 Y610.7404
N47 G01 Z19.0500 F3048.0
N48 G01 Y620.3606 Z18.2640 
N49 G01 X227.8265 Z18.2563 
N50 G01 Y610.7404 Z17.4703 
N51 G01 X227.7312 Z17.4625 
N52 G01 X227.8265 Z17.4547 
N53 G01 Y620.3606 Z16.6687 
N54 G01 X227.7312 Z16.6610 
N55 G01 Y610.7404 Z15.8750 
N56 G01 Y620.3606 F5080.0
N57 G01 X227.8265
N58 G01 Y610.7404
N59 G01 X227.7312
N60 G00 Z24.1300
N61 G00 Y640.2529
N62 G01 Z19.0500 F3048.0
N63 G01 Y649.8731 Z18.2640 
N64 G01 X227.8265 Z18.2563 
N65 G01 Y640.2529 Z17.4703 
N66 G01 X227.7312 Z17.4625 
N67 G01 X227.8265 Z17.4547 
N68 G01 Y649.8731 Z16.6687 
N69 G01 X227.7312 Z16.6610 
N70 G01 Y640.2529 Z15.8750 
N71 G01 Y649.8731 F5080.0
N72 G01 X227.8265
N73 G01 Y640.2529
N74 G01 X227.7312
N75 G00 Z24.1300
N76 G00 X56.2725
N77 G01 Z19.0500 F3048.0
N78 G01 Y649.8731 Z18.2640 
N79 G01 X56.3678 Z18.2563 
N80 G01 Y640.2529 Z17.4703 
N81 G01 X56.2725 Z17.4625 
N82 G01 X56.3678 Z17.4547 
N83 G01 Y649.8731 Z16.6687 
N84 G01 X56.2725 Z16.6610 
N85 G01 Y640.2529 Z15.8750 
N86 G01 Y649.8731 F5080.0
N87 G01 X56.3678
N88 G01 Y640.2529
N89 G01 X56.2725
N90 G00 Z24.1300
N91 G00 Y610.7404
N92 G01 Z19.0500 F3048.0
N93 G01 Y620.3606 Z18.2640 
N94 G01 X56.3678 Z18.2563 
N95 G01 Y610.7404 Z17.4703 
N96 G01 X56.2725 Z17.4625 
N97 G01 X56.3678 Z17.4547 
N98 G01 Y620.3606 Z16.6687 
N99 G01 X56.2725 Z16.6610 
N100 G01 Y610.7404 Z15.8750 
N101 G01 Y620.3606 F5080.0
N102 G01 X56.3678
N103 G01 Y610.7404
N104 G01 X56.2725
N105 G00 Z24.1300
N106 G00 Y1048.2404
N107 G01 Z19.0500 F3048.0
N108 G01 Y1057.8606 Z18.2640 
N109 G01 X56.3678 Z18.2563 
N110 G01 Y1048.2404 Z17.4703 
N111 G01 X56.2725 Z17.4625 
N112 G01 X56.3678 Z17.4547 
N113 G01 Y1057.8606 Z16.6687 
N114 G01 X56.2725 Z16.6610 
N115 G01 Y1048.2404 Z15.8750 
N116 G01 Y1057.8606 F5080.0
N117 G01 X56.3678
N118 G01 Y1048.2404
N119 G01 X56.2725
N120 G00 Z24.1300
N121 G00 Y1077.7529
N122 G01 Z19.0500 F3048.0
N123 G01 Y1087.3732 Z18.2640 
N124 G01 X56.3678 Z18.2563 
N125 G01 Y1077.7529 Z17.4703 
N126 G01 X56.2725 Z17.4625 
N127 G01 X56.3678 Z17.4547 
N128 G01 Y1087.3732 Z16.6687 
N129 G01 X56.2725 Z16.6610 
N130 G01 Y1077.7529 Z15.8750 
N131 G01 Y1087.3732 F5080.0
N132 G01 X56.3678
N133 G01 Y1077.7529
N134 G01 X56.2725
N135 G00 Z24.1300
N136 G00 X227.7312
N137 G01 Z19.0500 F3048.0
N138 G01 Y1087.3732 Z18.2640 
N139 G01 X227.8265 Z18.2563 
N140 G01 Y1077.7529 Z17.4703 
N141 G01 X227.7312 Z17.4625 
N142 G01 X227.8265 Z17.4547 
N143 G01 Y1087.3732 Z16.6687 
N144 G01 X227.7312 Z16.6610 
N145 G01 Y1077.7529 Z15.8750 
N146 G01 Y1087.3732 F5080.0
N147 G01 X227.8265
N148 G01 Y1077.7529
N149 G01 X227.7312
N150 G00 Z24.1300
N151 G00 Y1048.2404
N152 G01 Z19.0500 F3048.0
N153 G01 Y1057.8606 Z18.2640 
N154 G01 X227.8265 Z18.2563 
N155 G01 Y1048.2404 Z17.4703 
N156 G01 X227.7312 Z17.4625 
N157 G01 X227.8265 Z17.4547 
N158 G01 Y1057.8606 Z16.6687 
N159 G01 X227.7312 Z16.6610 
N160 G01 Y1048.2404 Z15.8750 
N161 G01 Y1057.8606 F5080.0
N162 G01 X227.8265
N163 G01 Y1048.2404
N164 G01 X227.7312
N165 G00 Z24.1300
N166 G00 Y1485.7404
N167 G01 Z19.0500 F3048.0
N168 G01 Y1495.3606 Z18.2640 
N169 G01 X227.8265 Z18.2563 
N170 G01 Y1485.7404 Z17.4703 
N171 G01 X227.7312 Z17.4625 
N172 G01 X227.8265 Z17.4547 
N173 G01 Y1495.3606 Z16.6687 
N174 G01 X227.7312 Z16.6610 
N175 G01 Y1485.7404 Z15.8750 
N176 G01 Y1495.3606 F5080.0
N177 G01 X227.8265
N178 G01 Y1485.7404
N179 G01 X227.7312
N180 G00 Z24.1300
N181 G00 X56.2725
N182 G01 Z19.0500 F3048.0
N183 G01 Y1495.3606 Z18.2640 
N184 G01 X56.3678 Z18.2563 
N185 G01 Y1485.7404 Z17.4703 
N186 G01 X56.2725 Z17.4625 
N187 G01 X56.3678 Z17.4547 
N188 G01 Y1495.3606 Z16.6687 
N189 G01 X56.2725 Z16.6610 
N190 G01 Y1485.7404 Z15.8750 
N191 G01 Y1495.3606 F5080.0
N192 G01 X56.3678
N193 G01 Y1485.7404
N194 G01 X56.2725
N195 G00 Z24.1300
N196 M03 S18000
N197 G00 X5.5245 Y7.5380 Z24.1300
N198 G01 Z19.0500 F3048.0
N199 G01 X43.6245 Z9.5250 
N200 G01 X81.7245 F5080.0
N201 G01 X278.5745
N202 G03 X283.3370 Y12.3005 R4.7625 
N203 G01 Y618.7255 
N204 G03 X278.5745 Y623.4880 R4.7625 
N205 G01 X5.5245 
N206 G03 X0.7620 Y618.7255 R4.7625 
N207 G01 Y12.3005 
N208 G03 X5.5245 Y7.5380 R4.7625 
N209 G01 X43.6245 
N210 G01 X81.7245 Z0.0000 F3048.0
N211 G01 X278.5745 F5080.0
N212 G03 X283.3370 Y12.3005 R4.7625 
N213 G01 Y618.7255 
N214 G03 X278.5745 Y623.4880 R4.7625 
N215 G01 X5.5245 
N216 G03 X0.7620 Y618.7255 R4.7625 
N217 G01 Y12.3005 
N218 G03 X5.5245 Y7.5380 R4.7625 
N219 G01 X43.6245 
N220 G01 X81.7245
N221 G00 Z24.1300
N222 G00 X5.5245 Y637.1255
N223 G01 Z19.0500 F3048.0
N224 G01 X43.6245 Z9.5250 
N225 G01 X81.7245 F5080.0
N226 G01 X278.5745
N227 G03 X283.3370 Y641.8880 R4.7625 
N228 G01 Y1056.2255 
N229 G03 X278.5745 Y1060.9879 R4.7625 
N230 G01 X5.5245 
N231 G03 X0.7620 Y1056.2255 R4.7625 
N232 G01 Y641.8880 
N233 G03 X5.5245 Y637.1255 R4.7625 
N234 G01 X43.6245 
N235 G01 X81.7245 Z0.0000 F3048.0
N236 G01 X278.5745 F5080.0
N237 G03 X283.3370 Y641.8880 R4.7625 
N238 G01 Y1056.2255 
N239 G03 X278.5745 Y1060.9879 R4.7625 
N240 G01 X5.5245 
N241 G03 X0.7620 Y1056.2255 R4.7625 
N242 G01 Y641.8880 
N243 G03 X5.5245 Y637.1255 R4.7625 
N244 G01 X43.6245 
N245 G01 X81.7245
N246 G00 Z24.1300
N247 G00 X5.5245 Y1074.6255
N248 G01 Z19.0500 F3048.0
N249 G01 X43.6245 Z9.5250 
N250 G01 X81.7245 F5080.0
N251 G01 X278.5745
N252 G03 X283.3370 Y1079.3879 R4.7625 
N253 G01 Y1493.7255 
N254 G03 X278.5745 Y1498.4879 R4.7625 
N255 G01 X5.5245 
N256 G03 X0.7620 Y1493.7255 R4.7625 
N257 G01 Y1079.3879 
N258 G03 X5.5245 Y1074.6255 R4.7625 
N259 G01 X43.6245 
N260 G01 X81.7245 Z0.0000 F3048.0
N261 G01 X278.5745 F5080.0
N262 G03 X283.3370 Y1079.3879 R4.7625 
N263 G01 Y1493.7255 
N264 G03 X278.5745 Y1498.4879 R4.7625 
N265 G01 X5.5245 
N266 G03 X0.7620 Y1493.7255 R4.7625 
N267 G01 Y1079.3879 
N268 G03 X5.5245 Y1074.6255 R4.7625 
N269 G01 X43.6245 
N270 G01 X81.7245
N271 G00 Z24.1300
N272 G00 G53 G49 Z0
N273 G00 G53 X0.0000 Y0.0000 M05
N274 M30
