(VECTRIC POST REVISION)
(FFCFDDC6601FDE93278A86ECDC292DD1)
 (9.26.25_MDF_RiftWO_01_1-2-Grooves)
(CREATED Monday September 29 2025)
( Material Size)
( X= 1244.600, Y= 2463.800, Z= 19.050)
(Tools used in this file: )
(T7 = #46125-K SC UPCUT SPIRAL 1/8" DIA.x1/4" shank Spektra)
(T1 = #46367-K SC MORTISE 2 FL 3/8" DIAx7/8x3/8" Shank Spektra)
N9 G00 G17 G71 G40 G49 G80 G90
N10 G54
N11 G53 Z0
N12 (Tool: #46125-K SC UPCUT SPIRAL 1/8" DIA.x1/4" shank Spektra)
N13 T7 M06
N14 M03 S18000
N15 G43 H7 Z24.1300
N16 G00 X110.9345 Y0.1128
N17 G00 Z24.1300
N18 G01 Z15.8750 F762.0
N19 G01 Y1440.6881 F3048.0
N20 G00 Z24.1300
N21 G00 X198.8820
N22 G01 Z15.8750 F762.0
N23 G01 Y0.1128 F3048.0
N24 G00 Z24.1300
N25 G00 X286.8295
N26 G01 Z15.8750 F762.0
N27 G01 Y1440.6881 F3048.0
N28 G00 Z24.1300
N29 G00 X374.7770
N30 G01 Z15.8750 F762.0
N31 G01 Y0.1128 F3048.0
N32 G00 Z24.1300
N33 G00 X461.1370
N34 G01 Z15.8750 F762.0
N35 G01 Y1440.6881 F3048.0
N36 G00 Z24.1300
N37 G00 X550.6720
N38 G01 Z15.8750 F762.0
N39 G01 Y0.1128 F3048.0
N40 G00 Z24.1300
N41 G00 X638.6195 Y1440.6881
N42 G01 Z15.8750 F762.0
N43 G01 Y0.1128 F3048.0
N44 G00 Z24.1300
N45 G00 X726.5670
N46 G01 Z15.8750 F762.0
N47 G01 Y1440.6881 F3048.0
N48 G00 Z24.1300
N49 G00 X814.5145
N50 G01 Z15.8750 F762.0
N51 G01 Y0.1128 F3048.0
N52 G00 Z24.1300
N53 G00 X111.0395 Y1437.5599
N54 G01 Z15.8750 F762.0
N55 G01 Y2208.3411 F3048.0
N56 G00 Z24.1300
N57 G00 X198.9870
N58 G01 Z15.8750 F762.0
N59 G01 Y1437.5599 F3048.0
N60 G00 Z24.1300
N61 G00 X286.9345
N62 G01 Z15.8750 F762.0
N63 G01 Y2208.3411 F3048.0
N64 G00 Z24.1300
N65 G00 X374.8820
N66 G01 Z15.8750 F762.0
N67 G01 Y1437.5599 F3048.0
N68 G00 Z24.1300
N69 G00 X461.2420
N70 G01 Z15.8750 F762.0
N71 G01 Y2208.3411 F3048.0
N72 G00 Z24.1300
N73 G00 X550.7770
N74 G01 Z15.8750 F762.0
N75 G01 Y1437.5599 F3048.0
N76 G00 Z24.1300
N77 G00 X638.7245
N78 G01 Z15.8750 F762.0
N79 G01 Y2208.3411 F3048.0
N80 G00 Z24.1300
N81 G00 X726.6719
N82 G01 Z15.8750 F762.0
N83 G01 Y1437.5599 F3048.0
N84 G00 Z24.1300
N85 G00 X814.6194
N86 G01 Z15.8750 F762.0
N87 G01 Y2208.3411 F3048.0
N88 G00 Z24.1300
N89 G00 G53 G49 Z0
N90 M05
N91 (Tool: #46367-K SC MORTISE 2 FL 3/8" DIAx7/8x3/8" Shank Spektra)
N92 T1 M06
N93 G00 G43 H1 Z24.1300
N94 M03 S18000
N95 M03 S18000
N96 G00 X5.5245 Y1.2630
N97 G00 Z24.1300
N98 G01 Z19.0500 F3048.0
N99 G01 X43.6245 Z9.5250 
N100 G01 X81.7245 F5080.0
N101 G01 X919.9244
N102 G03 X924.6870 Y6.0255 R4.7625 
N103 G01 Y1434.7755 
N104 G03 X919.9244 Y1439.5380 R4.7625 
N105 G01 X5.5245 
N106 G03 X0.7620 Y1434.7755 R4.7625 
N107 G01 Y6.0255 
N108 G03 X5.5245 Y1.2630 R4.7625 
N109 G01 X43.6245 
N110 G01 X81.7245 Z0.0000 F3048.0
N111 G01 X919.9244 F5080.0
N112 G03 X924.6870 Y6.0255 R4.7625 
N113 G01 Y1434.7755 
N114 G03 X919.9244 Y1439.5380 R4.7625 
N115 G01 X5.5245 
N116 G03 X0.7620 Y1434.7755 R4.7625 
N117 G01 Y6.0255 
N118 G03 X5.5245 Y1.2630 R4.7625 
N119 G01 X43.6245 
N120 G01 X81.7245
N121 G00 Z24.1300
N122 G00 X5.6295 Y1440.3629
N123 G01 Z19.0500 F3048.0
N124 G01 X43.7295 Z9.5250 
N125 G01 X81.8295 F5080.0
N126 G01 X920.0295
N127 G03 X924.7920 Y1445.1255 R4.7625 
N128 G01 Y2200.7756 
N129 G03 X920.0295 Y2205.5381 R4.7625 
N130 G01 X5.6295 
N131 G03 X0.8670 Y2200.7756 R4.7625 
N132 G01 Y1445.1255 
N133 G03 X5.6295 Y1440.3629 R4.7625 
N134 G01 X43.7295 
N135 G01 X81.8295 Z0.0000 F3048.0
N136 G01 X920.0295 Z0.0000 F5080.0
N137 G03 X924.7920 Y1445.1255 R4.7625 
N138 G01 Y2200.7756 
N139 G03 X920.0295 Y2205.5381 R4.7625 
N140 G01 X5.6295 
N141 G03 X0.8670 Y2200.7756 R4.7625 
N142 G01 Y1445.1255 
N143 G03 X5.6295 Y1440.3629 R4.7625 
N144 G01 X43.7295 
N145 G01 X81.8295
N146 G00 Z24.1300
N147 G00 G53 G49 Z0
N148 G00 G53 X0.0000 Y0.0000 M05
N149 M30
