(VECTRIC POST REVISION)
(FFCFDDC6601FDE93278A86ECDC292DD1)
 (9.26.25_MDF_RiftWO_02_3-4-Grooves 2)
(CREATED Monday September 29 2025)
( Material Size)
( X= 1244.600, Y= 2463.800, Z= 19.050)
(Tools used in this file: )
(T7 = #46125-K SC UPCUT SPIRAL 1/8" DIA.x1/4" shank Spektra)
(T1 = #46367-K SC MORTISE 2 FL 3/8" DIAx7/8x3/8" Shank Spektra)
N9 G00 G17 G71 G40 G49 G80 G90
N10 G54
N11 G53 Z0
N12 (Tool: #46125-K SC UPCUT SPIRAL 1/8" DIA.x1/4" shank Spektra)
N13 T7 M06
N14 M03 S18000
N15 G43 H7 Z24.1300
N16 G00 X111.8870 Y-2.8944
N17 G00 Z24.1300
N18 G01 Z15.8750 F762.0
N19 G01 Y1443.6954 F3048.0
N20 G00 Z24.1300
N21 G00 Y1434.7689
N22 G01 Z15.8750 F762.0
N23 G01 Y2211.1321 F3048.0
N24 G00 Z24.1300
N25 G00 X200.7870
N26 G01 Z15.8750 F762.0
N27 G01 Y1434.7689 F3048.0
N28 G00 Z24.1300
N29 G00 Y1443.6954
N30 G01 Z15.8750 F762.0
N31 G01 Y-2.8944 F3048.0
N32 G00 Z24.1300
N33 G00 X289.6870
N34 G01 Z15.8750 F762.0
N35 G01 Y1443.6954 F3048.0
N36 G00 Z24.1300
N37 G00 Y1434.7689
N38 G01 Z15.8750 F762.0
N39 G01 Y2211.1321 F3048.0
N40 G00 Z24.1300
N41 G00 X378.5870
N42 G01 Z15.8750 F762.0
N43 G01 Y1434.7689 F3048.0
N44 G00 Z24.1300
N45 G00 Y1443.6954
N46 G01 Z15.8750 F762.0
N47 G01 Y-2.8944 F3048.0
N48 G00 Z24.1300
N49 G00 X467.4870
N50 G01 Z15.8750 F762.0
N51 G01 Y1443.6954 F3048.0
N52 G00 Z24.1300
N53 G00 Y1434.7689
N54 G01 Z15.8750 F762.0
N55 G01 Y2211.1321 F3048.0
N56 G00 Z24.1300
N57 G00 X556.3870
N58 G01 Z15.8750 F762.0
N59 G01 Y1434.7689 F3048.0
N60 G00 Z24.1300
N61 G00 Y1443.6954
N62 G01 Z15.8750 F762.0
N63 G01 Y-2.8944 F3048.0
N64 G00 Z24.1300
N65 G00 X645.2870
N66 G01 Z15.8750 F762.0
N67 G01 Y1443.6954 F3048.0
N68 G00 Z24.1300
N69 G00 X734.1870
N70 G01 Z15.8750 F762.0
N71 G01 Y-2.8944 F3048.0
N72 G00 Z24.1300
N73 G00 G53 G49 Z0
N74 M05
N75 (Tool: #46367-K SC MORTISE 2 FL 3/8" DIAx7/8x3/8" Shank Spektra)
N76 T1 M06
N77 G00 G43 H1 Z24.1300
N78 M03 S18000
N79 M03 S18000
N80 G00 X5.5245 Y1.2630
N81 G00 Z24.1300
N82 G01 Z19.0500 F3048.0
N83 G01 X43.6245 Z9.5250 
N84 G01 X81.7245 F5080.0
N85 G01 X840.5494
N86 G03 X845.3120 Y6.0255 R4.7625 
N87 G01 Y1434.7755 
N88 G03 X840.5494 Y1439.5380 R4.7625 
N89 G01 X5.5245 
N90 G03 X0.7620 Y1434.7755 R4.7625 
N91 G01 Y6.0255 
N92 G03 X5.5245 Y1.2630 R4.7625 
N93 G01 X43.6245 
N94 G01 X81.7245 Z0.0000 F3048.0
N95 G01 X840.5494 F5080.0
N96 G03 X845.3120 Y6.0255 R4.7625 
N97 G01 Y1434.7755 
N98 G03 X840.5494 Y1439.5380 R4.7625 
N99 G01 X5.5245 
N100 G03 X0.7620 Y1434.7755 R4.7625 
N101 G01 Y6.0255 
N102 G03 X5.5245 Y1.2630 R4.7625 
N103 G01 X43.6245 
N104 G01 X81.7245
N105 G00 Z24.1300
N106 G00 X5.5245 Y1440.3629
N107 G01 Z19.0500 F3048.0
N108 G01 X43.6245 Z9.5250 
N109 G01 X81.7245 F5080.0
N110 G01 X651.6370
N111 G03 X656.3995 Y1445.1255 R4.7625 
N112 G01 Y2200.7756 
N113 G03 X651.6370 Y2205.5381 R4.7625 
N114 G01 X5.5245 
N115 G03 X0.7620 Y2200.7756 R4.7625 
N116 G01 Y1445.1255 
N117 G03 X5.5245 Y1440.3629 R4.7625 
N118 G01 X43.6245 
N119 G01 X81.7245 Z0.0000 F3048.0
N120 G01 X651.6370 F5080.0
N121 G03 X656.3995 Y1445.1255 R4.7625 
N122 G01 Y2200.7756 
N123 G03 X651.6370 Y2205.5381 R4.7625 
N124 G01 X5.5245 
N125 G03 X0.7620 Y2200.7756 R4.7625 
N126 G01 Y1445.1255 
N127 G03 X5.5245 Y1440.3629 R4.7625 
N128 G01 X43.6245 
N129 G01 X81.7245
N130 G00 Z24.1300
N131 G00 G53 G49 Z0
N132 G00 G53 X0.0000 Y0.0000 M05
N133 M30
