(VECTRIC POST REVISION)
(FFCFDDC6601FDE93278A86ECDC292DD1)
 (9.26.25 FL__UnFin02_2-Profile 3)
(CREATED Thursday September 25 2025)
( Material Size)
( X= 1231.900, Y= 2451.100, Z= 19.050)
(Tools used in this file: )
(T1 = #46367-K SC MORTISE 2 FL 3/8" DIAx7/8x3/8" Shank Spektra)
N8 G00 G17 G71 G40 G49 G80 G90
N9 G54
N10 G53 Z0
N11 (Tool: #46367-K SC MORTISE 2 FL 3/8" DIAx7/8x3/8" Shank Spektra)
N12 T1 M06
N13 M03 S18000
N14 G43 H1 Z24.1300
N15 G00 X5.5245 Y736.0630
N16 G00 Z24.1300
N17 G01 Z19.0500 F3048.0
N18 G01 X43.6245 Z9.5250 
N19 G01 X81.7245 F5080.0
N20 G01 X596.0722
N21 G03 X600.7296 Y741.8207 R4.7625 
N22 G01 X600.8347 Y893.2222 
N23 G03 X600.5704 Y894.7900 R4.7625 
N24 G01 X421.6680 Y1409.1400 
N25 G03 X417.1698 Y1412.3380 R4.7625 
N26 G01 X5.5245 
N27 G03 X0.7620 Y1407.5754 R4.7625 
N28 G01 Y740.8255 
N29 G03 X5.5245 Y736.0630 R4.7625 
N30 G01 X43.6245 
N31 G01 X81.7245 Z0.0000 F3048.0
N32 G01 X596.0722 F5080.0
N33 G03 X600.7296 Y741.8207 R4.7625 
N34 G01 X600.8347 Y893.2222 
N35 G03 X600.5704 Y894.7900 R4.7625 
N36 G01 X421.6680 Y1409.1400 
N37 G03 X417.1698 Y1412.3380 R4.7625 
N38 G01 X5.5245 
N39 G03 X0.7620 Y1407.5754 R4.7625 
N40 G01 Y740.8255 
N41 G03 X5.5245 Y736.0630 R4.7625 
N42 G01 X43.6245 
N43 G01 X81.7245
N44 G00 Z24.1300
N45 G00 X5.5245 Y734.8380
N46 G01 Z19.0500 F3048.0
N47 G01 X5.3506 Y734.8348 Z19.0020 
N48 G01 X5.1743 Y734.8251 Z18.9541 
N49 G01 X4.9961 Y734.8086 Z18.9061 
N50 G01 X4.8163 Y734.7850 Z18.8582 
N51 G01 X4.6352 Y734.7542 Z18.8102 
N52 G01 X4.4533 Y734.7159 Z18.7623 
N53 G01 X4.2710 Y734.6700 Z18.7143 
N54 G01 X4.0888 Y734.6165 Z18.6664 
N55 G01 X3.9071 Y734.5549 Z18.6184 
N56 G01 X3.7264 Y734.4855 Z18.5705 
N57 G01 X3.5472 Y734.4081 Z18.5225 
N58 G01 X3.3701 Y734.3228 Z18.4745 
N59 G01 X3.1954 Y734.2296 Z18.4266 
N60 G01 X3.0239 Y734.1287 Z18.3786 
N61 G01 X2.8559 Y734.0201 Z18.3307 
N62 G01 X2.6919 Y733.9041 Z18.2827 
N63 G01 X2.5325 Y733.7808 Z18.2348 
N64 G01 X2.3781 Y733.6506 Z18.1868 
N65 G01 X2.2292 Y733.5139 Z18.1389 
N66 G01 X2.0861 Y733.3708 Z18.0909 
N67 G01 X1.9494 Y733.2219 Z18.0430 
N68 G01 X1.8192 Y733.0675 Z17.9950 
N69 G01 X1.6959 Y732.9081 Z17.9470 
N70 G01 X1.5799 Y732.7441 Z17.8991 
N71 G01 X1.4713 Y732.5761 Z17.8511 
N72 G01 X1.3704 Y732.4045 Z17.8032 
N73 G01 X1.2772 Y732.2299 Z17.7552 
N74 G01 X1.1919 Y732.0528 Z17.7073 
N75 G01 X1.1145 Y731.8736 Z17.6593 
N76 G01 X1.0451 Y731.6929 Z17.6114 
N77 G01 X0.9836 Y731.5112 Z17.5634 
N78 G01 X0.9299 Y731.3289 Z17.5155 
N79 G01 X0.8840 Y731.1467 Z17.4675 
N80 G01 X0.8458 Y730.9648 Z17.4195 
N81 G01 X0.8150 Y730.7838 Z17.3716 
N82 G01 X0.7914 Y730.6039 Z17.3236 
N83 G01 X0.7749 Y730.4257 Z17.2757 
N84 G01 X0.7652 Y730.2495 Z17.2277 
N85 G01 X0.7620 Y730.0755 Z17.1798 
N86 G01 Y699.4564 Z9.5250 
N87 G01 Y661.3564 Z9.5250 F5080.0
N88 G01 Y6.1755
N89 G03 X5.5245 Y1.4130 R4.7625 
N90 G01 X577.0245 
N91 G03 X581.7870 Y6.1755 R4.7625 
N92 G01 Y730.0755 
N93 G03 X577.0245 Y734.8380 R4.7625 
N94 G01 X5.5245 
N95 G03 X0.7620 Y730.0755 R4.7625 
N96 G01 Y699.4564 
N97 G01 Y661.3564 Z0.0000 F3048.0
N98 G01 Y6.1755 F5080.0
N99 G03 X5.5245 Y1.4130 R4.7625 
N100 G01 X577.0245 
N101 G03 X581.7870 Y6.1755 R4.7625 
N102 G01 Y730.0755 
N103 G03 X577.0245 Y734.8380 R4.7625 
N104 G01 X5.5245 
N105 G03 X0.7620 Y730.0755 R4.7625 
N106 G01 Y699.4564 
N107 G01 Y661.3564
N108 G00 Z24.1300
N109 G00 X5.5248 Y1413.5630
N110 G01 Z19.0500 F3048.0
N111 G01 X43.6248 Z9.5250 
N112 G01 X81.7248 F5080.0
N113 G01 X596.0724
N114 G03 X600.8350 Y1418.3256 R4.7625 
N115 G01 Y2085.0754 
N116 G03 X596.0724 Y2089.8379 R4.7625 
N117 G01 X184.4271 
N118 G03 X179.9290 Y2086.6401 R4.7625 
N119 G01 X1.0266 Y1572.2900 
N120 G03 X0.7623 Y1570.7222 R4.7625 
N121 G01 X0.8674 Y1419.3206 
N122 G03 X5.5248 Y1413.5630 R4.7625 
N123 G01 X43.6248 
N124 G01 X81.7248 Z0.0000 F3048.0
N125 G01 X596.0724 F5080.0
N126 G03 X600.8350 Y1418.3256 R4.7625 
N127 G01 Y2085.0754 
N128 G03 X596.0724 Y2089.8379 R4.7625 
N129 G01 X184.4271 
N130 G03 X179.9290 Y2086.6401 R4.7625 
N131 G01 X1.0266 Y1572.2900 
N132 G03 X0.7623 Y1570.7222 R4.7625 
N133 G01 X0.8674 Y1419.3206 
N134 G03 X5.5248 Y1413.5630 R4.7625 
N135 G01 X43.6248 
N136 G01 X81.7248
N137 G00 Z24.1300
N138 G00 G53 G49 Z0
N139 G00 G53 X0.0000 Y0.0000 M05
N140 M30
