(VECTRIC POST REVISION)
(FFCFDDC6601FDE93278A86ECDC292DD1)
 (9.26.25 FL__UnFin01_1-Profile 3)
(CREATED Thursday September 25 2025)
( Material Size)
( X= 1231.900, Y= 2451.100, Z= 19.050)
(Tools used in this file: )
(T1 = #46367-K SC MORTISE 2 FL 3/8" DIAx7/8x3/8" Shank Spektra)
N8 G00 G17 G71 G40 G49 G80 G90
N9 G54
N10 G53 Z0
N11 (Tool: #46367-K SC MORTISE 2 FL 3/8" DIAx7/8x3/8" Shank Spektra)
N12 T1 M06
N13 M03 S18000
N14 G43 H1 Z24.1300
N15 G00 X684.2620 Y6.0755
N16 G00 Z24.1300
N17 G01 Z19.0500 F3048.0
N18 G01 X684.2651 Y5.9016 Z19.0020 
N19 G01 X684.2749 Y5.7253 Z18.9541 
N20 G01 X684.2914 Y5.5471 Z18.9061 
N21 G01 X684.3149 Y5.3673 Z18.8582 
N22 G01 X684.3458 Y5.1862 Z18.8102 
N23 G01 X684.3840 Y5.0043 Z18.7623 
N24 G01 X684.4299 Y4.8220 Z18.7143 
N25 G01 X684.4835 Y4.6398 Z18.6664 
N26 G01 X684.5450 Y4.4581 Z18.6184 
N27 G01 X684.6144 Y4.2774 Z18.5705 
N28 G01 X684.6919 Y4.0982 Z18.5225 
N29 G01 X684.7772 Y3.9211 Z18.4745 
N30 G01 X684.8704 Y3.7464 Z18.4266 
N31 G01 X684.9713 Y3.5749 Z18.3786 
N32 G01 X685.0800 Y3.4069 Z18.3307 
N33 G01 X685.1960 Y3.2429 Z18.2827 
N34 G01 X685.3192 Y3.0835 Z18.2348 
N35 G01 X685.4493 Y2.9291 Z18.1868 
N36 G01 X685.5861 Y2.7802 Z18.1389 
N37 G01 X685.7292 Y2.6371 Z18.0909 
N38 G01 X685.8781 Y2.5004 Z18.0430 
N39 G01 X686.0325 Y2.3702 Z17.9950 
N40 G01 X686.1919 Y2.2469 Z17.9470 
N41 G01 X686.3559 Y2.1309 Z17.8991 
N42 G01 X686.5239 Y2.0223 Z17.8511 
N43 G01 X686.6954 Y1.9214 Z17.8032 
N44 G01 X686.8701 Y1.8282 Z17.7552 
N45 G01 X687.0472 Y1.7429 Z17.7073 
N46 G01 X687.2264 Y1.6655 Z17.6593 
N47 G01 X687.4070 Y1.5961 Z17.6114 
N48 G01 X687.5888 Y1.5346 Z17.5634 
N49 G01 X687.7711 Y1.4809 Z17.5155 
N50 G01 X687.9533 Y1.4350 Z17.4675 
N51 G01 X688.1352 Y1.3968 Z17.4195 
N52 G01 X688.3163 Y1.3660 Z17.3716 
N53 G01 X688.4961 Y1.3424 Z17.3236 
N54 G01 X688.6743 Y1.3259 Z17.2757 
N55 G01 X688.8505 Y1.3162 Z17.2277 
N56 G01 X689.0245 Y1.3130 Z17.1798 
N57 G01 X719.6436 Z9.5250 
N58 G01 X757.7436 Z9.5250 F5080.0
N59 G01 X841.4245
N60 G03 X846.1870 Y6.0755 R4.7625 
N61 G01 Y768.0755 
N62 G03 X841.4245 Y772.8380 R4.7625 
N63 G01 X689.0245 
N64 G03 X684.2620 Y768.0755 R4.7625 
N65 G01 Y6.0755 
N66 G03 X689.0245 Y1.3130 R4.7625 
N67 G01 X719.6436 
N68 G01 X757.7436 Z0.0000 F3048.0
N69 G01 X841.4245 F5080.0
N70 G03 X846.1870 Y6.0755 R4.7625 
N71 G01 Y768.0755 
N72 G03 X841.4245 Y772.8380 R4.7625 
N73 G01 X689.0245 
N74 G03 X684.2620 Y768.0755 R4.7625 
N75 G01 Y6.0755 
N76 G03 X689.0245 Y1.3130 R4.7625 
N77 G01 X719.6436 
N78 G01 X757.7436
N79 G00 Z24.1300
N80 G00 X683.3870 Y6.2255
N81 G01 Z19.0500 F3048.0
N82 G01 Y44.3255 Z9.5250 
N83 G01 Y82.4255 F5080.0
N84 G01 Y2362.0754
N85 G03 X678.6245 Y2366.8381 R4.7625 
N86 G01 X5.5245 
N87 G03 X0.7620 Y2362.0754 R4.7625 
N88 G01 Y6.2255 
N89 G03 X5.5245 Y1.4630 R4.7625 
N90 G01 X678.6245 
N91 G03 X683.3870 Y6.2255 R4.7625 
N92 G01 Y44.3255 
N93 G01 Y82.4255 Z0.0000 F3048.0
N94 G01 Y2362.0754 F5080.0
N95 G03 X678.6245 Y2366.8381 R4.7625 
N96 G01 X5.5245 
N97 G03 X0.7620 Y2362.0754 R4.7625 
N98 G01 Y6.2255 
N99 G03 X5.5245 Y1.4630 R4.7625 
N100 G01 X678.6245 
N101 G03 X683.3870 Y6.2255 R4.7625 
N102 G01 Y44.3255 
N103 G01 Y82.4255
N104 G00 Z24.1300
N105 G00 G53 G49 Z0
N106 G00 G53 X0.0000 Y0.0000 M05
N107 M30
