(VECTRIC POST REVISION)
(FFCFDDC6601FDE93278A86ECDC292DD1)
 (9.26.25_RiftWOPly03_6-8-Shelf Pins)
(CREATED Thursday September 25 2025)
( Material Size)
( X= 1231.900, Y= 2451.100, Z= 19.050)
(Tools used in this file: )
(T3 = #46211-K SC DOWNCUT SPIRAL 2 FL 5MMx3/4x1/4" Shank)
(T1 = #46367-K SC MORTISE 2 FL 3/8" DIAx7/8x3/8" Shank Spektra)
N9 G00 G17 G71 G40 G49 G80 G90
N10 G54
N11 G53 Z0
N12 (Tool: #46211-K SC DOWNCUT SPIRAL 2 FL 5MMx3/4x1/4" Shank)
N13 T3 M06
N14 M03 S6000
N15 G43 H3 Z24.1300
N16 G00 X69.0245 Y1847.4087
N17 G00 Z24.1300
N18 G01 Z6.3500 F2540.0
N19 G00 Z24.1300
N20 G00 Y1885.5087
N21 G01 Z6.3500 F2540.0
N22 G00 Z24.1300
N23 G00 Y1923.6088
N24 G01 Z6.3500 F2540.0
N25 G00 Z24.1300
N26 G00 Y2092.9421
N27 G01 Z6.3500 F2540.0
N28 G00 Z24.1300
N29 G00 Y2131.0422
N30 G01 Z6.3500 F2540.0
N31 G00 Z24.1300
N32 G00 Y2169.1421
N33 G01 Z6.3500 F2540.0
N34 G00 Z24.1300
N35 G00 X240.4745
N36 G01 Z6.3500 F2540.0
N37 G00 Z24.1300
N38 G00 Y2131.0422
N39 G01 Z6.3500 F2540.0
N40 G00 Z24.1300
N41 G00 Y2092.9421
N42 G01 Z6.3500 F2540.0
N43 G00 Z24.1300
N44 G00 X352.8245 Y2076.9421
N45 G01 Z6.3500 F2540.0
N46 G00 Z24.1300
N47 G00 Y2115.0422
N48 G01 Z6.3500 F2540.0
N49 G00 Z24.1300
N50 G00 Y2153.1421
N51 G01 Z6.3500 F2540.0
N52 G00 Z24.1300
N53 G00 X524.2745
N54 G01 Z6.3500 F2540.0
N55 G00 Z24.1300
N56 G00 Y2115.0422
N57 G01 Z6.3500 F2540.0
N58 G00 Z24.1300
N59 G00 Y2076.9421
N60 G01 Z6.3500 F2540.0
N61 G00 Z24.1300
N62 G00 Y1907.6088
N63 G01 Z6.3500 F2540.0
N64 G00 Z24.1300
N65 G00 Y1869.5087
N66 G01 Z6.3500 F2540.0
N67 G00 Z24.1300
N68 G00 Y1831.4087
N69 G01 Z6.3500 F2540.0
N70 G00 Z24.1300
N71 G00 X352.8245
N72 G01 Z6.3500 F2540.0
N73 G00 Z24.1300
N74 G00 Y1869.5087
N75 G01 Z6.3500 F2540.0
N76 G00 Z24.1300
N77 G00 Y1907.6088
N78 G01 Z6.3500 F2540.0
N79 G00 Z24.1300
N80 G00 X240.4745 Y1923.6088
N81 G01 Z6.3500 F2540.0
N82 G00 Z24.1300
N83 G00 Y1885.5087
N84 G01 Z6.3500 F2540.0
N85 G00 Z24.1300
N86 G00 Y1847.4087
N87 G01 Z6.3500 F2540.0
N88 G00 Z24.1300
N89 G00 X16.5677 Y2370.3225
N90 G01 Z6.3500 F2540.0
N91 G00 Z24.1300
N92 G00 X576.7313 Y2354.3225
N93 G01 Z6.3500 F2540.0
N94 G00 Z24.1300
N95 G00 G53 G49 Z0
N96 M05
N97 (Tool: #46367-K SC MORTISE 2 FL 3/8" DIAx7/8x3/8" Shank Spektra)
N98 T1 M06
N99 G00 G43 H1 Z24.1300
N100 M03 S18000
N101 M03 S18000
N102 G00 X352.7725 Y10.7529
N103 G00 Z24.1300
N104 G01 Z19.0500 F3048.0
N105 G01 Y20.3731 Z18.2640 
N106 G01 X352.8678 Z18.2563 
N107 G01 Y10.7529 Z17.4703 
N108 G01 X352.7725 Z17.4625 
N109 G01 X352.8678 Z17.4547 
N110 G01 Y20.3731 Z16.6687 
N111 G01 X352.7725 Z16.6610 
N112 G01 Y10.7529 Z15.8750 
N113 G01 Y20.3731 F5080.0
N114 G01 X352.8678
N115 G01 Y10.7529
N116 G01 X352.7725
N117 G00 Z24.1300
N118 G00 X524.2741 Y10.7957
N119 G01 Z19.0500 F3048.0
N120 G01 X524.2836 Z19.0499 
N121 G01 Y20.3303 Z18.9009 
N122 G01 X524.2741 Z18.9007 
N123 G01 Y10.7957 Z18.7517 
N124 G01 X524.2836 Z18.7516 
N125 G01 Y20.3303 Z18.6026 
N126 G01 X524.2741 Z18.6025 
N127 G01 Y10.7957 Z18.4535 
N128 G01 X524.2836 Z18.4533 
N129 G01 Y20.3303 Z18.3044 
N130 G01 X524.2741 Z18.3042 
N131 G01 Y10.7957 Z18.1552 
N132 G01 X524.2836 Z18.1551 
N133 G01 Y20.3303 Z18.0061 
N134 G01 X524.2741 Z18.0060 
N135 G01 Y10.7957 Z17.8570 
N136 G01 X524.2836 Z17.8568 
N137 G01 Y20.3303 Z17.7079 
N138 G01 X524.2741 Z17.7077 
N139 G01 Y10.7957 Z17.5587 
N140 G01 X524.2836 Z17.5586 
N141 G01 Y16.9457 Z17.4625 
N142 G01 Y10.7957 Z17.3664 
N143 G01 X524.2741 Z17.3663 
N144 G01 Y20.3303 Z17.2173 
N145 G01 X524.2836 Z17.2171 
N146 G01 Y10.7957 Z17.0682 
N147 G01 X524.2741 Z17.0680 
N148 G01 Y20.3303 Z16.9190 
N149 G01 X524.2836 Z16.9189 
N150 G01 Y10.7957 Z16.7699 
N151 G01 X524.2741 Z16.7698 
N152 G01 Y20.3303 Z16.6208 
N153 G01 X524.2836 Z16.6206 
N154 G01 Y10.7957 Z16.4717 
N155 G01 X524.2741 Z16.4715 
N156 G01 Y20.3303 Z16.3225 
N157 G01 X524.2836 Z16.3224 
N158 G01 Y10.7957 Z16.1734 
N159 G01 X524.2741 Z16.1733 
N160 G01 Y20.3303 Z16.0243 
N161 G01 X524.2836 Z16.0241 
N162 G01 Y10.7957 Z15.8751 
N163 G01 X524.2741 Z15.8750 
N164 G01 X524.2836 F5080.0
N165 G01 Y20.3303
N166 G01 X524.2741
N167 G01 Y10.7957
N168 G00 Z24.1300
N169 G00 X636.3154
N170 G01 Z19.0500 F3048.0
N171 G01 X636.3249 Z19.0499 
N172 G01 Y20.3303 Z18.9009 
N173 G01 X636.3154 Z18.9007 
N174 G01 Y10.7957 Z18.7517 
N175 G01 X636.3249 Z18.7516 
N176 G01 Y20.3303 Z18.6026 
N177 G01 X636.3154 Z18.6025 
N178 G01 Y10.7957 Z18.4535 
N179 G01 X636.3249 Z18.4533 
N180 G01 Y20.3303 Z18.3044 
N181 G01 X636.3154 Z18.3042 
N182 G01 Y10.7957 Z18.1552 
N183 G01 X636.3249 Z18.1551 
N184 G01 Y20.3303 Z18.0061 
N185 G01 X636.3154 Z18.0060 
N186 G01 Y10.7957 Z17.8570 
N187 G01 X636.3249 Z17.8568 
N188 G01 Y20.3303 Z17.7079 
N189 G01 X636.3154 Z17.7077 
N190 G01 Y10.7957 Z17.5587 
N191 G01 X636.3249 Z17.5586 
N192 G01 Y16.9457 Z17.4625 
N193 G01 Y10.7957 Z17.3664 
N194 G01 X636.3154 Z17.3663 
N195 G01 Y20.3303 Z17.2173 
N196 G01 X636.3249 Z17.2171 
N197 G01 Y10.7957 Z17.0682 
N198 G01 X636.3154 Z17.0680 
N199 G01 Y20.3303 Z16.9190 
N200 G01 X636.3249 Z16.9189 
N201 G01 Y10.7957 Z16.7699 
N202 G01 X636.3154 Z16.7698 
N203 G01 Y20.3303 Z16.6208 
N204 G01 X636.3249 Z16.6206 
N205 G01 Y10.7957 Z16.4717 
N206 G01 X636.3154 Z16.4715 
N207 G01 Y20.3303 Z16.3225 
N208 G01 X636.3249 Z16.3224 
N209 G01 Y10.7957 Z16.1734 
N210 G01 X636.3154 Z16.1733 
N211 G01 Y20.3303 Z16.0243 
N212 G01 X636.3249 Z16.0241 
N213 G01 Y10.7957 Z15.8751 
N214 G01 X636.3154 Z15.8750 
N215 G01 X636.3249 F5080.0
N216 G01 Y20.3303
N217 G01 X636.3154
N218 G01 Y10.7957
N219 G00 Z24.1300
N220 G00 X998.2740
N221 G01 Z19.0500 F3048.0
N222 G01 X998.2836 Z19.0499 
N223 G01 Y20.3303 Z18.9009 
N224 G01 X998.2740 Z18.9007 
N225 G01 Y10.7957 Z18.7517 
N226 G01 X998.2836 Z18.7516 
N227 G01 Y20.3303 Z18.6026 
N228 G01 X998.2740 Z18.6025 
N229 G01 Y10.7957 Z18.4535 
N230 G01 X998.2836 Z18.4533 
N231 G01 Y20.3303 Z18.3044 
N232 G01 X998.2740 Z18.3042 
N233 G01 Y10.7957 Z18.1552 
N234 G01 X998.2836 Z18.1551 
N235 G01 Y20.3303 Z18.0061 
N236 G01 X998.2740 Z18.0060 
N237 G01 Y10.7957 Z17.8570 
N238 G01 X998.2836 Z17.8568 
N239 G01 Y20.3303 Z17.7079 
N240 G01 X998.2740 Z17.7077 
N241 G01 Y10.7957 Z17.5587 
N242 G01 X998.2836 Z17.5586 
N243 G01 Y16.9457 Z17.4625 
N244 G01 Y10.7957 Z17.3664 
N245 G01 X998.2740 Z17.3663 
N246 G01 Y20.3303 Z17.2173 
N247 G01 X998.2836 Z17.2171 
N248 G01 Y10.7957 Z17.0682 
N249 G01 X998.2740 Z17.0680 
N250 G01 Y20.3303 Z16.9190 
N251 G01 X998.2836 Z16.9189 
N252 G01 Y10.7957 Z16.7699 
N253 G01 X998.2740 Z16.7698 
N254 G01 Y20.3303 Z16.6208 
N255 G01 X998.2836 Z16.6206 
N256 G01 Y10.7957 Z16.4717 
N257 G01 X998.2740 Z16.4715 
N258 G01 Y20.3303 Z16.3225 
N259 G01 X998.2836 Z16.3224 
N260 G01 Y10.7957 Z16.1734 
N261 G01 X998.2740 Z16.1733 
N262 G01 Y20.3303 Z16.0243 
N263 G01 X998.2836 Z16.0241 
N264 G01 Y10.7957 Z15.8751 
N265 G01 X998.2740 Z15.8750 
N266 G01 X998.2836 F5080.0
N267 G01 Y20.3303
N268 G01 X998.2740
N269 G01 Y10.7957
N270 G00 Z24.1300
N271 G00 X998.2312 Y418.7404
N272 G01 Z19.0500 F3048.0
N273 G01 Y428.3606 Z18.2640 
N274 G01 X998.3265 Z18.2563 
N275 G01 Y418.7404 Z17.4703 
N276 G01 X998.2312 Z17.4625 
N277 G01 X998.3265 Z17.4547 
N278 G01 Y428.3606 Z16.6687 
N279 G01 X998.2312 Z16.6610 
N280 G01 Y418.7404 Z15.8750 
N281 G01 Y428.3606 F5080.0
N282 G01 X998.3265
N283 G01 Y418.7404
N284 G01 X998.2312
N285 G00 Z24.1300
N286 G00 Y448.2529
N287 G01 Z19.0500 F3048.0
N288 G01 Y457.8731 Z18.2640 
N289 G01 X998.3265 Z18.2563 
N290 G01 Y448.2529 Z17.4703 
N291 G01 X998.2312 Z17.4625 
N292 G01 X998.3265 Z17.4547 
N293 G01 Y457.8731 Z16.6687 
N294 G01 X998.2312 Z16.6610 
N295 G01 Y448.2529 Z15.8750 
N296 G01 Y457.8731 F5080.0
N297 G01 X998.3265
N298 G01 Y448.2529
N299 G01 X998.2312
N300 G00 Z24.1300
N301 G00 X636.2725
N302 G01 Z19.0500 F3048.0
N303 G01 Y457.8731 Z18.2640 
N304 G01 X636.3678 Z18.2563 
N305 G01 Y448.2529 Z17.4703 
N306 G01 X636.2725 Z17.4625 
N307 G01 X636.3678 Z17.4547 
N308 G01 Y457.8731 Z16.6687 
N309 G01 X636.2725 Z16.6610 
N310 G01 Y448.2529 Z15.8750 
N311 G01 Y457.8731 F5080.0
N312 G01 X636.3678
N313 G01 Y448.2529
N314 G01 X636.2725
N315 G00 Z24.1300
N316 G00 Y418.7404
N317 G01 Z19.0500 F3048.0
N318 G01 Y428.3606 Z18.2640 
N319 G01 X636.3678 Z18.2563 
N320 G01 Y418.7404 Z17.4703 
N321 G01 X636.2725 Z17.4625 
N322 G01 X636.3678 Z17.4547 
N323 G01 Y428.3606 Z16.6687 
N324 G01 X636.2725 Z16.6610 
N325 G01 Y418.7404 Z15.8750 
N326 G01 Y428.3606 F5080.0
N327 G01 X636.3678
N328 G01 Y418.7404
N329 G01 X636.2725
N330 G00 Z24.1300
N331 G00 X524.2312 Y799.7404
N332 G01 Z19.0500 F3048.0
N333 G01 Y809.3606 Z18.2640 
N334 G01 X524.3265 Z18.2563 
N335 G01 Y799.7404 Z17.4703 
N336 G01 X524.2312 Z17.4625 
N337 G01 X524.3265 Z17.4547 
N338 G01 Y809.3606 Z16.6687 
N339 G01 X524.2312 Z16.6610 
N340 G01 Y799.7404 Z15.8750 
N341 G01 Y809.3606 F5080.0
N342 G01 X524.3265
N343 G01 Y799.7404
N344 G01 X524.2312
N345 G00 Z24.1300
N346 G00 Y829.2529
N347 G01 Z19.0500 F3048.0
N348 G01 Y838.8731 Z18.2640 
N349 G01 X524.3265 Z18.2563 
N350 G01 Y829.2529 Z17.4703 
N351 G01 X524.2312 Z17.4625 
N352 G01 X524.3265 Z17.4547 
N353 G01 Y838.8731 Z16.6687 
N354 G01 X524.2312 Z16.6610 
N355 G01 Y829.2529 Z15.8750 
N356 G01 Y838.8731 F5080.0
N357 G01 X524.3265
N358 G01 Y829.2529
N359 G01 X524.2312
N360 G00 Z24.1300
N361 G00 X636.2725 Y856.2404
N362 G01 Z19.0500 F3048.0
N363 G01 Y865.8606 Z18.2640 
N364 G01 X636.3678 Z18.2563 
N365 G01 Y856.2404 Z17.4703 
N366 G01 X636.2725 Z17.4625 
N367 G01 X636.3678 Z17.4547 
N368 G01 Y865.8606 Z16.6687 
N369 G01 X636.2725 Z16.6610 
N370 G01 Y856.2404 Z15.8750 
N371 G01 Y865.8606 F5080.0
N372 G01 X636.3678
N373 G01 Y856.2404
N374 G01 X636.2725
N375 G00 Z24.1300
N376 G00 Y885.7529
N377 G01 Z19.0500 F3048.0
N378 G01 Y895.3732 Z18.2640 
N379 G01 X636.3678 Z18.2563 
N380 G01 Y885.7529 Z17.4703 
N381 G01 X636.2725 Z17.4625 
N382 G01 X636.3678 Z17.4547 
N383 G01 Y895.3732 Z16.6687 
N384 G01 X636.2725 Z16.6610 
N385 G01 Y885.7529 Z15.8750 
N386 G01 Y895.3732 F5080.0
N387 G01 X636.3678
N388 G01 Y885.7529
N389 G01 X636.2725
N390 G00 Z24.1300
N391 G00 X352.7725 Y829.2529
N392 G01 Z19.0500 F3048.0
N393 G01 Y838.8731 Z18.2640 
N394 G01 X352.8678 Z18.2563 
N395 G01 Y829.2529 Z17.4703 
N396 G01 X352.7725 Z17.4625 
N397 G01 X352.8678 Z17.4547 
N398 G01 Y838.8731 Z16.6687 
N399 G01 X352.7725 Z16.6610 
N400 G01 Y829.2529 Z15.8750 
N401 G01 Y838.8731 F5080.0
N402 G01 X352.8678
N403 G01 Y829.2529
N404 G01 X352.7725
N405 G00 Z24.1300
N406 G00 Y799.7404
N407 G01 Z19.0500 F3048.0
N408 G01 Y809.3606 Z18.2640 
N409 G01 X352.8678 Z18.2563 
N410 G01 Y799.7404 Z17.4703 
N411 G01 X352.7725 Z17.4625 
N412 G01 X352.8678 Z17.4547 
N413 G01 Y809.3606 Z16.6687 
N414 G01 X352.7725 Z16.6610 
N415 G01 Y799.7404 Z15.8750 
N416 G01 Y809.3606 F5080.0
N417 G01 X352.8678
N418 G01 Y799.7404
N419 G01 X352.7725
N420 G00 Z24.1300
N421 G00 X636.2725 Y1293.7404
N422 G01 Z19.0500 F3048.0
N423 G01 Y1303.3606 Z18.2640 
N424 G01 X636.3678 Z18.2563 
N425 G01 Y1293.7404 Z17.4703 
N426 G01 X636.2725 Z17.4625 
N427 G01 X636.3678 Z17.4547 
N428 G01 Y1303.3606 Z16.6687 
N429 G01 X636.2725 Z16.6610 
N430 G01 Y1293.7404 Z15.8750 
N431 G01 Y1303.3606 F5080.0
N432 G01 X636.3678
N433 G01 Y1293.7404
N434 G01 X636.2725
N435 G00 Z24.1300
N436 G00 X945.7725 Y1317.1653
N437 G01 Z19.0500 F3048.0
N438 G01 Y1326.7855 Z18.2640 
N439 G01 X945.8677 Z18.2562 
N440 G01 Y1317.1653 Z17.4703 
N441 G01 X945.7725 Z17.4625 
N442 G01 X945.8677 Z17.4547 
N443 G01 Y1326.7855 Z16.6687 
N444 G01 X945.7725 Z16.6610 
N445 G01 Y1317.1653 Z15.8750 
N446 G01 Y1326.7855 F5080.0
N447 G01 X945.8677
N448 G01 Y1317.1653
N449 G01 X945.7725
N450 G00 Z24.1300
N451 G00 X998.2312 Y1293.7404
N452 G01 Z19.0500 F3048.0
N453 G01 Y1303.3606 Z18.2640 
N454 G01 X998.3265 Z18.2563 
N455 G01 Y1293.7404 Z17.4703 
N456 G01 X998.2312 Z17.4625 
N457 G01 X998.3265 Z17.4547 
N458 G01 Y1303.3606 Z16.6687 
N459 G01 X998.2312 Z16.6610 
N460 G01 Y1293.7404 Z15.8750 
N461 G01 Y1303.3606 F5080.0
N462 G01 X998.3265
N463 G01 Y1293.7404
N464 G01 X998.2312
N465 G00 Z24.1300
N466 G00 X1117.2312 Y1317.1653
N467 G01 Z19.0500 F3048.0
N468 G01 Y1326.7855 Z18.2640 
N469 G01 X1117.3264 Z18.2562 
N470 G01 Y1317.1653 Z17.4703 
N471 G01 X1117.2312 Z17.4625 
N472 G01 X1117.3264 Z17.4547 
N473 G01 Y1326.7855 Z16.6687 
N474 G01 X1117.2312 Z16.6610 
N475 G01 Y1317.1653 Z15.8750 
N476 G01 Y1326.7855 F5080.0
N477 G01 X1117.3264
N478 G01 Y1317.1653
N479 G01 X1117.2312
N480 G00 Z24.1300
N481 G00 X998.2312 Y885.7529
N482 G01 Z19.0500 F3048.0
N483 G01 Y895.3732 Z18.2640 
N484 G01 X998.3265 Z18.2563 
N485 G01 Y885.7529 Z17.4703 
N486 G01 X998.2312 Z17.4625 
N487 G01 X998.3265 Z17.4547 
N488 G01 Y895.3732 Z16.6687 
N489 G01 X998.2312 Z16.6610 
N490 G01 Y885.7529 Z15.8750 
N491 G01 Y895.3732 F5080.0
N492 G01 X998.3265
N493 G01 Y885.7529
N494 G01 X998.2312
N495 G00 Z24.1300
N496 G00 Y856.2404
N497 G01 Z19.0500 F3048.0
N498 G01 Y865.8606 Z18.2640 
N499 G01 X998.3265 Z18.2563 
N500 G01 Y856.2404 Z17.4703 
N501 G01 X998.2312 Z17.4625 
N502 G01 X998.3265 Z17.4547 
N503 G01 Y865.8606 Z16.6687 
N504 G01 X998.2312 Z16.6610 
N505 G01 Y856.2404 Z15.8750 
N506 G01 Y865.8606 F5080.0
N507 G01 X998.3265
N508 G01 Y856.2404
N509 G01 X998.2312
N510 G00 Z24.1300
N511 G00 X524.2312 Y1618.2404
N512 G01 Z19.0500 F3048.0
N513 G01 Y1627.8607 Z18.2640 
N514 G01 X524.3265 Z18.2563 
N515 G01 Y1618.2404 Z17.4703 
N516 G01 X524.2312 Z17.4625 
N517 G01 X524.3265 Z17.4547 
N518 G01 Y1627.8607 Z16.6687 
N519 G01 X524.2312 Z16.6610 
N520 G01 Y1618.2404 Z15.8750 
N521 G01 Y1627.8607 F5080.0
N522 G01 X524.3265
N523 G01 Y1618.2404
N524 G01 X524.2312
N525 G00 Z24.1300
N526 G00 X352.7725
N527 G01 Z19.0500 F3048.0
N528 G01 Y1627.8607 Z18.2640 
N529 G01 X352.8678 Z18.2563 
N530 G01 Y1618.2404 Z17.4703 
N531 G01 X352.7725 Z17.4625 
N532 G01 X352.8678 Z17.4547 
N533 G01 Y1627.8607 Z16.6687 
N534 G01 X352.7725 Z16.6610 
N535 G01 Y1618.2404 Z15.8750 
N536 G01 Y1627.8607 F5080.0
N537 G01 X352.8678
N538 G01 Y1618.2404
N539 G01 X352.7725
N540 G00 Z24.1300
N541 G00 X649.2725 Y1979.7528
N542 G01 Z19.0500 F3048.0
N543 G01 Y1989.3732 Z18.2640 
N544 G01 X649.3677 Z18.2562 
N545 G01 Y1979.7528 Z17.4703 
N546 G01 X649.2725 Z17.4625 
N547 G01 X649.3677 Z17.4547 
N548 G01 Y1989.3732 Z16.6687 
N549 G01 X649.2725 Z16.6610 
N550 G01 Y1979.7528 Z15.8750 
N551 G01 Y1989.3732 F5080.0
N552 G01 X649.3677
N553 G01 Y1979.7528
N554 G01 X649.2725
N555 G00 Z24.1300
N556 G00 X820.7312
N557 G01 Z19.0500 F3048.0
N558 G01 Y1989.3732 Z18.2640 
N559 G01 X820.8264 Z18.2562 
N560 G01 Y1979.7528 Z17.4703 
N561 G01 X820.7312 Z17.4625 
N562 G01 X820.8264 Z17.4547 
N563 G01 Y1989.3732 Z16.6687 
N564 G01 X820.7312 Z16.6610 
N565 G01 Y1979.7528 Z15.8750 
N566 G01 Y1989.3732 F5080.0
N567 G01 X820.8264
N568 G01 Y1979.7528
N569 G01 X820.7312
N570 G00 Z24.1300
N571 G00 X932.7725 Y1973.2528
N572 G01 Z19.0500 F3048.0
N573 G01 Y1982.8732 Z18.2640 
N574 G01 X932.8677 Z18.2562 
N575 G01 Y1973.2528 Z17.4703 
N576 G01 X932.7725 Z17.4625 
N577 G01 X932.8677 Z17.4547 
N578 G01 Y1982.8732 Z16.6687 
N579 G01 X932.7725 Z16.6610 
N580 G01 Y1973.2528 Z15.8750 
N581 G01 Y1982.8732 F5080.0
N582 G01 X932.8677
N583 G01 Y1973.2528
N584 G01 X932.7725
N585 G00 Z24.1300
N586 G00 X945.7725 Y1917.2404
N587 G01 Z19.0500 F3048.0
N588 G01 Y1926.8606 Z18.2640 
N589 G01 X945.8677 Z18.2562 
N590 G01 Y1917.2404 Z17.4703 
N591 G01 X945.7725 Z17.4625 
N592 G01 X945.8677 Z17.4547 
N593 G01 Y1926.8606 Z16.6687 
N594 G01 X945.7725 Z16.6610 
N595 G01 Y1917.2404 Z15.8750 
N596 G01 Y1926.8606 F5080.0
N597 G01 X945.8677
N598 G01 Y1917.2404
N599 G01 X945.7725
N600 G00 Z24.1300
N601 G00 X1104.2312 Y1973.2528
N602 G01 Z19.0500 F3048.0
N603 G01 Y1982.8732 Z18.2640 
N604 G01 X1104.3264 Z18.2562 
N605 G01 Y1973.2528 Z17.4703 
N606 G01 X1104.2312 Z17.4625 
N607 G01 X1104.3264 Z17.4547 
N608 G01 Y1982.8732 Z16.6687 
N609 G01 X1104.2312 Z16.6610 
N610 G01 Y1973.2528 Z15.8750 
N611 G01 Y1982.8732 F5080.0
N612 G01 X1104.3264
N613 G01 Y1973.2528
N614 G01 X1104.2312
N615 G00 Z24.1300
N616 G00 X1117.2312 Y1917.2404
N617 G01 Z19.0500 F3048.0
N618 G01 Y1926.8606 Z18.2640 
N619 G01 X1117.3264 Z18.2562 
N620 G01 Y1917.2404 Z17.4703 
N621 G01 X1117.2312 Z17.4625 
N622 G01 X1117.3264 Z17.4547 
N623 G01 Y1926.8606 Z16.6687 
N624 G01 X1117.2312 Z16.6610 
N625 G01 Y1917.2404 Z15.8750 
N626 G01 Y1926.8606 F5080.0
N627 G01 X1117.3264
N628 G01 Y1917.2404
N629 G01 X1117.2312
N630 G00 Z24.1300
N631 G00 X1104.2312 Y2381.2402
N632 G01 Z19.0500 F3048.0
N633 G01 Y2390.8606 Z18.2640 
N634 G01 X1104.3264 Z18.2562 
N635 G01 Y2381.2402 Z17.4703 
N636 G01 X1104.2312 Z17.4625 
N637 G01 X1104.3264 Z17.4547 
N638 G01 Y2390.8606 Z16.6687 
N639 G01 X1104.2312 Z16.6610 
N640 G01 Y2381.2402 Z15.8750 
N641 G01 Y2390.8606 F5080.0
N642 G01 X1104.3264
N643 G01 Y2381.2402
N644 G01 X1104.2312
N645 G00 Z24.1300
N646 G00 X932.7725
N647 G01 Z19.0500 F3048.0
N648 G01 Y2390.8606 Z18.2640 
N649 G01 X932.8677 Z18.2562 
N650 G01 Y2381.2402 Z17.4703 
N651 G01 X932.7725 Z17.4625 
N652 G01 X932.8677 Z17.4547 
N653 G01 Y2390.8606 Z16.6687 
N654 G01 X932.7725 Z16.6610 
N655 G01 Y2381.2402 Z15.8750 
N656 G01 Y2390.8606 F5080.0
N657 G01 X932.8677
N658 G01 Y2381.2402
N659 G01 X932.7725
N660 G00 Z24.1300
N661 G00 X820.7312 Y2387.7402
N662 G01 Z19.0500 F3048.0
N663 G01 Y2397.3606 Z18.2640 
N664 G01 X820.8264 Z18.2562 
N665 G01 Y2387.7402 Z17.4703 
N666 G01 X820.7312 Z17.4625 
N667 G01 X820.8264 Z17.4547 
N668 G01 Y2397.3606 Z16.6687 
N669 G01 X820.7312 Z16.6610 
N670 G01 Y2387.7402 Z15.8750 
N671 G01 Y2397.3606 F5080.0
N672 G01 X820.8264
N673 G01 Y2387.7402
N674 G01 X820.7312
N675 G00 Z24.1300
N676 G00 X649.2725
N677 G01 Z19.0500 F3048.0
N678 G01 Y2397.3606 Z18.2640 
N679 G01 X649.3677 Z18.2562 
N680 G01 Y2387.7402 Z17.4703 
N681 G01 X649.2725 Z17.4625 
N682 G01 X649.3677 Z17.4547 
N683 G01 Y2397.3606 Z16.6687 
N684 G01 X649.2725 Z16.6610 
N685 G01 Y2387.7402 Z15.8750 
N686 G01 Y2397.3606 F5080.0
N687 G01 X649.3677
N688 G01 Y2387.7402
N689 G01 X649.2725
N690 G00 Z24.1300
N691 M03 S18000
N692 G00 X297.2620 Y12.3880 Z24.1300
N693 G01 Z19.0500 F3048.0
N694 G01 X297.2652 Y12.2141 Z19.0020 
N695 G01 X297.2749 Y12.0378 Z18.9541 
N696 G01 X297.2914 Y11.8596 Z18.9061 
N697 G01 X297.3149 Y11.6798 Z18.8582 
N698 G01 X297.3458 Y11.4987 Z18.8102 
N699 G01 X297.3840 Y11.3168 Z18.7623 
N700 G01 X297.4299 Y11.1345 Z18.7143 
N701 G01 X297.4836 Y10.9523 Z18.6664 
N702 G01 X297.5451 Y10.7706 Z18.6184 
N703 G01 X297.6145 Y10.5899 Z18.5705 
N704 G01 X297.6919 Y10.4107 Z18.5225 
N705 G01 X297.7772 Y10.2336 Z18.4745 
N706 G01 X297.8704 Y10.0589 Z18.4266 
N707 G01 X297.9713 Y9.8874 Z18.3786 
N708 G01 X298.0799 Y9.7194 Z18.3307 
N709 G01 X298.1960 Y9.5554 Z18.2827 
N710 G01 X298.3192 Y9.3960 Z18.2348 
N711 G01 X298.4493 Y9.2416 Z18.1868 
N712 G01 X298.5861 Y9.0927 Z18.1389 
N713 G01 X298.7292 Y8.9496 Z18.0909 
N714 G01 X298.8781 Y8.8129 Z18.0430 
N715 G01 X299.0325 Y8.6827 Z17.9950 
N716 G01 X299.1919 Y8.5594 Z17.9470 
N717 G01 X299.3559 Y8.4434 Z17.8991 
N718 G01 X299.5239 Y8.3348 Z17.8511 
N719 G01 X299.6954 Y8.2339 Z17.8032 
N720 G01 X299.8701 Y8.1407 Z17.7552 
N721 G01 X300.0472 Y8.0554 Z17.7073 
N722 G01 X300.2264 Y7.9780 Z17.6593 
N723 G01 X300.4071 Y7.9086 Z17.6114 
N724 G01 X300.5888 Y7.8471 Z17.5634 
N725 G01 X300.7710 Y7.7934 Z17.5155 
N726 G01 X300.9533 Y7.7475 Z17.4675 
N727 G01 X301.1352 Y7.7093 Z17.4195 
N728 G01 X301.3163 Y7.6785 Z17.3716 
N729 G01 X301.4961 Y7.6549 Z17.3236 
N730 G01 X301.6743 Y7.6384 Z17.2757 
N731 G01 X301.8505 Y7.6287 Z17.2277 
N732 G01 X302.0245 Y7.6255 Z17.1798 
N733 G01 X332.6436 Z9.5250 
N734 G01 X370.7436 F5080.0
N735 G01 X575.0745
N736 G03 X579.8370 Y12.3880 R4.7625 
N737 G01 Y807.7255 
N738 G03 X575.0745 Y812.4880 R4.7625 
N739 G01 X302.0245 
N740 G03 X297.2620 Y807.7255 R4.7625 
N741 G01 Y12.3880 
N742 G03 X302.0245 Y7.6255 R4.7625 
N743 G01 X332.6436 
N744 G01 X370.7436 Z0.0000 F3048.0
N745 G01 X575.0745 F5080.0
N746 G03 X579.8370 Y12.3880 R4.7625 
N747 G01 Y807.7255 
N748 G03 X575.0745 Y812.4880 R4.7625 
N749 G01 X302.0245 
N750 G03 X297.2620 Y807.7255 R4.7625 
N751 G01 Y12.3880 
N752 G03 X302.0245 Y7.6255 R4.7625 
N753 G01 X332.6436 
N754 G01 X370.7436
N755 G00 Z24.1300
N756 G00 X302.0245 Y826.1255
N757 G01 Z19.0500 F3048.0
N758 G01 X340.1245 Z9.5250 
N759 G01 X378.2245 F5080.0
N760 G01 X575.0745
N761 G03 X579.8370 Y830.8880 R4.7625 
N762 G01 Y1626.2255 
N763 G03 X575.0745 Y1630.9880 R4.7625 
N764 G01 X302.0245 
N765 G03 X297.2620 Y1626.2255 R4.7625 
N766 G01 Y830.8880 
N767 G03 X302.0245 Y826.1255 R4.7625 
N768 G01 X340.1245 
N769 G01 X378.2245 Z0.0000 F3048.0
N770 G01 X575.0745 F5080.0
N771 G03 X579.8370 Y830.8880 R4.7625 
N772 G01 Y1626.2255 
N773 G03 X575.0745 Y1630.9880 R4.7625 
N774 G01 X302.0245 
N775 G03 X297.2620 Y1626.2255 R4.7625 
N776 G01 Y830.8880 
N777 G03 X302.0245 Y826.1255 R4.7625 
N778 G01 X340.1245 
N779 G01 X378.2245
N780 G00 Z24.1300
N781 G00 X296.0370 Y841.0755
N782 G01 Z19.0500 F3048.0
N783 G01 X296.0338 Y841.2494 Z19.0020 
N784 G01 X296.0241 Y841.4257 Z18.9541 
N785 G01 X296.0076 Y841.6038 Z18.9061 
N786 G01 X295.9840 Y841.7837 Z18.8582 
N787 G01 X295.9532 Y841.9648 Z18.8102 
N788 G01 X295.9150 Y842.1467 Z18.7623 
N789 G01 X295.8691 Y842.3290 Z18.7143 
N790 G01 X295.8154 Y842.5112 Z18.6664 
N791 G01 X295.7539 Y842.6929 Z18.6184 
N792 G01 X295.6845 Y842.8737 Z18.5705 
N793 G01 X295.6071 Y843.0528 Z18.5225 
N794 G01 X295.5218 Y843.2299 Z18.4745 
N795 G01 X295.4286 Y843.4045 Z18.4266 
N796 G01 X295.3277 Y843.5761 Z18.3786 
N797 G01 X295.2191 Y843.7441 Z18.3307 
N798 G01 X295.1031 Y843.9081 Z18.2827 
N799 G01 X294.9798 Y844.0674 Z18.2348 
N800 G01 X294.8496 Y844.2219 Z18.1868 
N801 G01 X294.7129 Y844.3708 Z18.1389 
N802 G01 X294.5698 Y844.5139 Z18.0909 
N803 G01 X294.4209 Y844.6506 Z18.0430 
N804 G01 X294.2665 Y844.7808 Z17.9950 
N805 G01 X294.1071 Y844.9041 Z17.9470 
N806 G01 X293.9431 Y845.0201 Z17.8991 
N807 G01 X293.7751 Y845.1287 Z17.8511 
N808 G01 X293.6036 Y845.2296 Z17.8032 
N809 G01 X293.4289 Y845.3228 Z17.7552 
N810 G01 X293.2518 Y845.4081 Z17.7073 
N811 G01 X293.0726 Y845.4855 Z17.6593 
N812 G01 X292.8919 Y845.5550 Z17.6114 
N813 G01 X292.7102 Y845.6164 Z17.5634 
N814 G01 X292.5280 Y845.6700 Z17.5155 
N815 G01 X292.3457 Y845.7160 Z17.4675 
N816 G01 X292.1638 Y845.7542 Z17.4195 
N817 G01 X291.9827 Y845.7850 Z17.3716 
N818 G01 X291.8029 Y845.8087 Z17.3236 
N819 G01 X291.6247 Y845.8251 Z17.2757 
N820 G01 X291.4484 Y845.8348 Z17.2277 
N821 G01 X291.2745 Y845.8380 Z17.1798 
N822 G01 X260.6554 Z9.5250 
N823 G01 X222.5554 F5080.0
N824 G01 X5.5245
N825 G03 X0.7620 Y841.0755 R4.7625 
N826 G01 Y6.0505 
N827 G03 X5.5245 Y1.2880 R4.7625 
N828 G01 X291.2745 
N829 G03 X296.0370 Y6.0505 R4.7625 
N830 G01 Y841.0755 
N831 G03 X291.2745 Y845.8380 R4.7625 
N832 G01 X260.6554 
N833 G01 X222.5554 Z0.0000 F3048.0
N834 G01 X5.5245 F5080.0
N835 G03 X0.7620 Y841.0755 R4.7625 
N836 G01 Y6.0505 
N837 G03 X5.5245 Y1.2880 R4.7625 
N838 G01 X291.2745 
N839 G03 X296.0370 Y6.0505 R4.7625 
N840 G01 Y841.0755 
N841 G03 X291.2745 Y845.8380 R4.7625 
N842 G01 X260.6554 
N843 G01 X222.5554
N844 G00 Z24.1300
N845 G00 X291.2745 Y846.8880
N846 G01 Z19.0500 F3048.0
N847 G01 X291.4484 Y846.8911 Z19.0020 
N848 G01 X291.6247 Y846.9009 Z18.9541 
N849 G01 X291.8029 Y846.9174 Z18.9061 
N850 G01 X291.9827 Y846.9409 Z18.8582 
N851 G01 X292.1638 Y846.9717 Z18.8102 
N852 G01 X292.3457 Y847.0100 Z18.7623 
N853 G01 X292.5280 Y847.0560 Z18.7143 
N854 G01 X292.7102 Y847.1095 Z18.6664 
N855 G01 X292.8919 Y847.1710 Z18.6184 
N856 G01 X293.0726 Y847.2404 Z18.5705 
N857 G01 X293.2518 Y847.3179 Z18.5225 
N858 G01 X293.4289 Y847.4032 Z18.4745 
N859 G01 X293.6036 Y847.4963 Z18.4266 
N860 G01 X293.7751 Y847.5973 Z18.3786 
N861 G01 X293.9431 Y847.7059 Z18.3307 
N862 G01 X294.1071 Y847.8220 Z18.2827 
N863 G01 X294.2665 Y847.9451 Z18.2348 
N864 G01 X294.4209 Y848.0754 Z18.1868 
N865 G01 X294.5698 Y848.2122 Z18.1389 
N866 G01 X294.7129 Y848.3552 Z18.0909 
N867 G01 X294.8496 Y848.5041 Z18.0430 
N868 G01 X294.9798 Y848.6584 Z17.9950 
N869 G01 X295.1031 Y848.8179 Z17.9470 
N870 G01 X295.2191 Y848.9819 Z17.8991 
N871 G01 X295.3277 Y849.1499 Z17.8511 
N872 G01 X295.4286 Y849.3214 Z17.8032 
N873 G01 X295.5218 Y849.4960 Z17.7552 
N874 G01 X295.6071 Y849.6732 Z17.7073 
N875 G01 X295.6845 Y849.8524 Z17.6593 
N876 G01 X295.7539 Y850.0331 Z17.6114 
N877 G01 X295.8154 Y850.2148 Z17.5634 
N878 G01 X295.8691 Y850.3970 Z17.5155 
N879 G01 X295.9150 Y850.5793 Z17.4675 
N880 G01 X295.9532 Y850.7612 Z17.4195 
N881 G01 X295.9840 Y850.9423 Z17.3716 
N882 G01 X296.0076 Y851.1221 Z17.3236 
N883 G01 X296.0241 Y851.3002 Z17.2757 
N884 G01 X296.0338 Y851.4765 Z17.2277 
N885 G01 X296.0370 Y851.6505 Z17.1798 
N886 G01 Y882.2696 Z9.5250 
N887 G01 Y920.3696 Z9.5250 F5080.0
N888 G01 Y1648.5756
N889 G03 X291.2745 Y1653.3380 R4.7625 
N890 G01 X5.5245 
N891 G03 X0.7620 Y1648.5756 R4.7625 
N892 G01 Y851.6505 
N893 G03 X5.5245 Y846.8880 R4.7625 
N894 G01 X291.2745 
N895 G03 X296.0370 Y851.6505 R4.7625 
N896 G01 Y882.2696 
N897 G01 Y920.3696 Z0.0000 F3048.0
N898 G01 Y1648.5756 F5080.0
N899 G03 X291.2745 Y1653.3380 R4.7625 
N900 G01 X5.5245 
N901 G03 X0.7620 Y1648.5756 R4.7625 
N902 G01 Y851.6505 
N903 G03 X5.5245 Y846.8880 R4.7625 
N904 G01 X291.2745 
N905 G03 X296.0370 Y851.6505 R4.7625 
N906 G01 Y882.2696 
N907 G01 Y920.3696
N908 G00 Z24.1300
N909 G00 X291.2745 Y1654.2629
N910 G01 Z19.0500 F3048.0
N911 G01 X291.4484 Y1654.2662 Z19.0020 
N912 G01 X291.6247 Y1654.2759 Z18.9541 
N913 G01 X291.8029 Y1654.2924 Z18.9061 
N914 G01 X291.9827 Y1654.3159 Z18.8582 
N915 G01 X292.1638 Y1654.3467 Z18.8102 
N916 G01 X292.3457 Y1654.3850 Z18.7623 
N917 G01 X292.5280 Y1654.4309 Z18.7143 
N918 G01 X292.7102 Y1654.4845 Z18.6664 
N919 G01 X292.8919 Y1654.5460 Z18.6184 
N920 G01 X293.0726 Y1654.6155 Z18.5705 
N921 G01 X293.2518 Y1654.6927 Z18.5225 
N922 G01 X293.4289 Y1654.7782 Z18.4745 
N923 G01 X293.6036 Y1654.8712 Z18.4266 
N924 G01 X293.7751 Y1654.9722 Z18.3786 
N925 G01 X293.9431 Y1655.0809 Z18.3307 
N926 G01 X294.1071 Y1655.1970 Z18.2827 
N927 G01 X294.2665 Y1655.3203 Z18.2348 
N928 G01 X294.4209 Y1655.4503 Z18.1868 
N929 G01 X294.5698 Y1655.5872 Z18.1389 
N930 G01 X294.7129 Y1655.7301 Z18.0909 
N931 G01 X294.8496 Y1655.8792 Z18.0430 
N932 G01 X294.9798 Y1656.0334 Z17.9950 
N933 G01 X295.1031 Y1656.1929 Z17.9470 
N934 G01 X295.2191 Y1656.3568 Z17.8991 
N935 G01 X295.3277 Y1656.5248 Z17.8511 
N936 G01 X295.4286 Y1656.6963 Z17.8032 
N937 G01 X295.5218 Y1656.8711 Z17.7552 
N938 G01 X295.6071 Y1657.0482 Z17.7073 
N939 G01 X295.6845 Y1657.2273 Z17.6593 
N940 G01 X295.7539 Y1657.4081 Z17.6114 
N941 G01 X295.8154 Y1657.5897 Z17.5634 
N942 G01 X295.8691 Y1657.7721 Z17.5155 
N943 G01 X295.9150 Y1657.9543 Z17.4675 
N944 G01 X295.9532 Y1658.1361 Z17.4195 
N945 G01 X295.9840 Y1658.3171 Z17.3716 
N946 G01 X296.0076 Y1658.4969 Z17.3236 
N947 G01 X296.0241 Y1658.6753 Z17.2757 
N948 G01 X296.0338 Y1658.8514 Z17.2277 
N949 G01 X296.0370 Y1659.0255 Z17.1798 
N950 G01 Y1689.6445 Z9.5250 
N951 G01 Y1727.7445 Z9.5250 F5080.0
N952 G01 Y2376.5754
N953 G03 X291.2745 Y2381.3379 R4.7625 
N954 G01 X5.5245 
N955 G03 X0.7620 Y2376.5754 R4.7625 
N956 G01 Y1659.0255 
N957 G03 X5.5245 Y1654.2629 R4.7625 
N958 G01 X291.2745 
N959 G03 X296.0370 Y1659.0255 R4.7625 
N960 G01 Y1689.6445 
N961 G01 Y1727.7445 Z0.0000 F3048.0
N962 G01 Y2376.5754 F5080.0
N963 G03 X291.2745 Y2381.3379 R4.7625 
N964 G01 X5.5245 
N965 G03 X0.7620 Y2376.5754 R4.7625 
N966 G01 Y1659.0255 
N967 G03 X5.5245 Y1654.2629 R4.7625 
N968 G01 X291.2745 
N969 G03 X296.0370 Y1659.0255 R4.7625 
N970 G01 Y1689.6445 
N971 G01 Y1727.7445
N972 G00 Z24.1300
N973 G00 X297.2620 Y1643.0255
N974 G01 Z19.0500 F3048.0
N975 G01 X297.2652 Y1642.8514 Z19.0020 
N976 G01 X297.2749 Y1642.6753 Z18.9541 
N977 G01 X297.2914 Y1642.4969 Z18.9061 
N978 G01 X297.3149 Y1642.3171 Z18.8582 
N979 G01 X297.3458 Y1642.1362 Z18.8102 
N980 G01 X297.3840 Y1641.9542 Z18.7623 
N981 G01 X297.4299 Y1641.7721 Z18.7143 
N982 G01 X297.4836 Y1641.5897 Z18.6664 
N983 G01 X297.5451 Y1641.4081 Z18.6184 
N984 G01 X297.6145 Y1641.2273 Z18.5705 
N985 G01 X297.6919 Y1641.0482 Z18.5225 
N986 G01 X297.7772 Y1640.8710 Z18.4745 
N987 G01 X297.8704 Y1640.6963 Z18.4266 
N988 G01 X297.9713 Y1640.5248 Z18.3786 
N989 G01 X298.0799 Y1640.3568 Z18.3307 
N990 G01 X298.1960 Y1640.1929 Z18.2827 
N991 G01 X298.3192 Y1640.0334 Z18.2348 
N992 G01 X298.4493 Y1639.8792 Z18.1868 
N993 G01 X298.5861 Y1639.7301 Z18.1389 
N994 G01 X298.7292 Y1639.5872 Z18.0909 
N995 G01 X298.8781 Y1639.4503 Z18.0430 
N996 G01 X299.0325 Y1639.3201 Z17.9950 
N997 G01 X299.1919 Y1639.1970 Z17.9470 
N998 G01 X299.3559 Y1639.0809 Z17.8991 
N999 G01 X299.5239 Y1638.9722 Z17.8511 
N1000 G01 X299.6954 Y1638.8712 Z17.8032 
N1001 G01 X299.8701 Y1638.7782 Z17.7552 
N1002 G01 X300.0472 Y1638.6927 Z17.7073 
N1003 G01 X300.2264 Y1638.6155 Z17.6593 
N1004 G01 X300.4071 Y1638.5461 Z17.6114 
N1005 G01 X300.5888 Y1638.4845 Z17.5634 
N1006 G01 X300.7710 Y1638.4310 Z17.5155 
N1007 G01 X300.9533 Y1638.3850 Z17.4675 
N1008 G01 X301.1352 Y1638.3467 Z17.4195 
N1009 G01 X301.3163 Y1638.3159 Z17.3716 
N1010 G01 X301.4961 Y1638.2924 Z17.3236 
N1011 G01 X301.6743 Y1638.2760 Z17.2757 
N1012 G01 X301.8505 Y1638.2661 Z17.2277 
N1013 G01 X302.0245 Y1638.2629 Z17.1798 
N1014 G01 X332.6436 Z9.5250 
N1015 G01 X370.7436 F5080.0
N1016 G01 X587.7745
N1017 G03 X592.5370 Y1643.0255 R4.7625 
N1018 G01 Y2360.5754 
N1019 G03 X587.7745 Y2365.3379 R4.7625 
N1020 G01 X302.0245 
N1021 G03 X297.2620 Y2360.5754 R4.7625 
N1022 G01 Y1643.0255 
N1023 G03 X302.0245 Y1638.2629 R4.7625 
N1024 G01 X332.6436 
N1025 G01 X370.7436 Z0.0000 F3048.0
N1026 G01 X587.7745 F5080.0
N1027 G03 X592.5370 Y1643.0255 R4.7625 
N1028 G01 Y2360.5754 
N1029 G03 X587.7745 Y2365.3379 R4.7625 
N1030 G01 X302.0245 
N1031 G03 X297.2620 Y2360.5754 R4.7625 
N1032 G01 Y1643.0255 
N1033 G03 X302.0245 Y1638.2629 R4.7625 
N1034 G01 X332.6436 
N1035 G01 X370.7436
N1036 G00 Z24.1300
N1037 G00 X593.7620 Y1964.5754
N1038 G01 Z19.0500 F3048.0
N1039 G01 Y1926.4755 Z9.5250 
N1040 G01 Y1888.3754 F5080.0
N1041 G01 Y1318.4630
N1042 G03 X598.5245 Y1313.7006 R4.7625 
N1043 G01 X884.2745 
N1044 G03 X889.0370 Y1318.4630 R4.7625 
N1045 G01 Y1964.5754 
N1046 G03 X884.2745 Y1969.3379 R4.7625 
N1047 G01 X598.5245 
N1048 G03 X593.7620 Y1964.5754 R4.7625 
N1049 G01 Y1926.4755 
N1050 G01 Y1888.3754 Z0.0000 F3048.0
N1051 G01 Y1318.4630 F5080.0
N1052 G03 X598.5245 Y1313.7006 R4.7625 
N1053 G01 X884.2745 
N1054 G03 X889.0370 Y1318.4630 R4.7625 
N1055 G01 Y1964.5754 
N1056 G03 X884.2745 Y1969.3379 R4.7625 
N1057 G01 X598.5245 
N1058 G03 X593.7620 Y1964.5754 R4.7625 
N1059 G01 Y1926.4755 
N1060 G01 Y1888.3754
N1061 G00 Z24.1300
N1062 G00 X598.5245 Y1976.6255
N1063 G01 Z19.0500 F3048.0
N1064 G01 X636.6245 Z9.5250 
N1065 G01 X674.7245 F5080.0
N1066 G01 X871.5745
N1067 G03 X876.3370 Y1981.3879 R4.7625 
N1068 G01 Y2395.7253 
N1069 G03 X871.5745 Y2400.4880 R4.7625 
N1070 G01 X598.5245 
N1071 G03 X593.7620 Y2395.7253 R4.7625 
N1072 G01 Y1981.3879 
N1073 G03 X598.5245 Y1976.6255 R4.7625 
N1074 G01 X636.6245 
N1075 G01 X674.7245 Z0.0000 F3048.0
N1076 G01 X871.5745 F5080.0
N1077 G03 X876.3370 Y1981.3879 R4.7625 
N1078 G01 Y2395.7253 
N1079 G03 X871.5745 Y2400.4880 R4.7625 
N1080 G01 X598.5245 
N1081 G03 X593.7620 Y2395.7253 R4.7625 
N1082 G01 Y1981.3879 
N1083 G03 X598.5245 Y1976.6255 R4.7625 
N1084 G01 X636.6245 
N1085 G01 X674.7245
N1086 G00 Z24.1300
N1087 G00 X877.2620 Y1974.8879
N1088 G01 Z19.0500 F3048.0
N1089 G01 X877.2651 Y1974.7140 Z19.0020 
N1090 G01 X877.2749 Y1974.5377 Z18.9541 
N1091 G01 X877.2914 Y1974.3595 Z18.9061 
N1092 G01 X877.3149 Y1974.1797 Z18.8582 
N1093 G01 X877.3458 Y1973.9987 Z18.8102 
N1094 G01 X877.3840 Y1973.8167 Z18.7623 
N1095 G01 X877.4299 Y1973.6345 Z18.7143 
N1096 G01 X877.4835 Y1973.4521 Z18.6664 
N1097 G01 X877.5450 Y1973.2706 Z18.6184 
N1098 G01 X877.6144 Y1973.0898 Z18.5705 
N1099 G01 X877.6918 Y1972.9108 Z18.5225 
N1100 G01 X877.7771 Y1972.7336 Z18.4745 
N1101 G01 X877.8704 Y1972.5588 Z18.4266 
N1102 G01 X877.9713 Y1972.3873 Z18.3786 
N1103 G01 X878.0799 Y1972.2194 Z18.3307 
N1104 G01 X878.1959 Y1972.0554 Z18.2827 
N1105 G01 X878.3192 Y1971.8959 Z18.2348 
N1106 G01 X878.4493 Y1971.7416 Z18.1868 
N1107 G01 X878.5861 Y1971.5927 Z18.1389 
N1108 G01 X878.7292 Y1971.4496 Z18.0909 
N1109 G01 X878.8781 Y1971.3127 Z18.0430 
N1110 G01 X879.0325 Y1971.1826 Z17.9950 
N1111 G01 X879.1919 Y1971.0594 Z17.9470 
N1112 G01 X879.3558 Y1970.9435 Z17.8991 
N1113 G01 X879.5238 Y1970.8347 Z17.8511 
N1114 G01 X879.6954 Y1970.7338 Z17.8032 
N1115 G01 X879.8700 Y1970.6407 Z17.7552 
N1116 G01 X880.0472 Y1970.5553 Z17.7073 
N1117 G01 X880.2264 Y1970.4779 Z17.6593 
N1118 G01 X880.4071 Y1970.4086 Z17.6114 
N1119 G01 X880.5887 Y1970.3469 Z17.5634 
N1120 G01 X880.7711 Y1970.2935 Z17.5155 
N1121 G01 X880.9533 Y1970.2476 Z17.4675 
N1122 G01 X881.1351 Y1970.2092 Z17.4195 
N1123 G01 X881.3162 Y1970.1783 Z17.3716 
N1124 G01 X881.4961 Y1970.1549 Z17.3236 
N1125 G01 X881.6743 Y1970.1384 Z17.2757 
N1126 G01 X881.8505 Y1970.1285 Z17.2277 
N1127 G01 X882.0244 Y1970.1255 Z17.1798 
N1128 G01 X912.6435 Z9.5250 
N1129 G01 X950.7435 Z9.5250 F5080.0
N1130 G01 X1155.0745
N1131 G03 X1159.8369 Y1974.8879 R4.7625 
N1132 G01 Y2389.2253 
N1133 G03 X1155.0745 Y2393.9880 R4.7625 
N1134 G01 X882.0244 
N1135 G03 X877.2620 Y2389.2253 R4.7625 
N1136 G01 Y1974.8879 
N1137 G03 X882.0244 Y1970.1255 R4.7625 
N1138 G01 X912.6435 
N1139 G01 X950.7435 Z0.0000 F3048.0
N1140 G01 X1155.0745 F5080.0
N1141 G03 X1159.8369 Y1974.8879 R4.7625 
N1142 G01 Y2389.2253 
N1143 G03 X1155.0745 Y2393.9880 R4.7625 
N1144 G01 X882.0244 
N1145 G03 X877.2620 Y2389.2253 R4.7625 
N1146 G01 Y1974.8879 
N1147 G03 X882.0244 Y1970.1255 R4.7625 
N1148 G01 X912.6435 
N1149 G01 X950.7435
N1150 G00 Z24.1300
N1151 G00 X895.0245 Y1929.9880
N1152 G01 Z19.0500 F3048.0
N1153 G01 X894.8505 Y1929.9849 Z19.0020 
N1154 G01 X894.6743 Y1929.9750 Z18.9541 
N1155 G01 X894.4961 Y1929.9585 Z18.9061 
N1156 G01 X894.3162 Y1929.9351 Z18.8582 
N1157 G01 X894.1353 Y1929.9043 Z18.8102 
N1158 G01 X893.9532 Y1929.8658 Z18.7623 
N1159 G01 X893.7710 Y1929.8199 Z18.7143 
N1160 G01 X893.5887 Y1929.7665 Z18.6664 
N1161 G01 X893.4071 Y1929.7048 Z18.6184 
N1162 G01 X893.2264 Y1929.6355 Z18.5705 
N1163 G01 X893.0472 Y1929.5581 Z18.5225 
N1164 G01 X892.8700 Y1929.4727 Z18.4745 
N1165 G01 X892.6954 Y1929.3796 Z18.4266 
N1166 G01 X892.5239 Y1929.2787 Z18.3786 
N1167 G01 X892.3559 Y1929.1700 Z18.3307 
N1168 G01 X892.1920 Y1929.0541 Z18.2827 
N1169 G01 X892.0325 Y1928.9309 Z18.2348 
N1170 G01 X891.8781 Y1928.8007 Z18.1868 
N1171 G01 X891.7292 Y1928.6638 Z18.1389 
N1172 G01 X891.5862 Y1928.5209 Z18.0909 
N1173 G01 X891.4493 Y1928.3718 Z18.0430 
N1174 G01 X891.3192 Y1928.2175 Z17.9950 
N1175 G01 X891.1960 Y1928.0581 Z17.9470 
N1176 G01 X891.0799 Y1927.8942 Z17.8991 
N1177 G01 X890.9713 Y1927.7261 Z17.8511 
N1178 G01 X890.8703 Y1927.5546 Z17.8032 
N1179 G01 X890.7772 Y1927.3800 Z17.7552 
N1180 G01 X890.6918 Y1927.2026 Z17.7073 
N1181 G01 X890.6145 Y1927.0237 Z17.6593 
N1182 G01 X890.5450 Y1926.8428 Z17.6114 
N1183 G01 X890.4835 Y1926.6613 Z17.5634 
N1184 G01 X890.4299 Y1926.4789 Z17.5155 
N1185 G01 X890.3840 Y1926.2968 Z17.4675 
N1186 G01 X890.3458 Y1926.1147 Z17.4195 
N1187 G01 X890.3149 Y1925.9337 Z17.3716 
N1188 G01 X890.2914 Y1925.7539 Z17.3236 
N1189 G01 X890.2749 Y1925.5757 Z17.2757 
N1190 G01 X890.2651 Y1925.3995 Z17.2277 
N1191 G01 X890.2620 Y1925.2255 Z17.1798 
N1192 G01 Y1894.6064 Z9.5250 
N1193 G01 Y1856.5065 Z9.5250 F5080.0
N1194 G01 Y1318.8005
N1195 G03 X895.0245 Y1314.0380 R4.7625 
N1196 G01 X1168.0745 
N1197 G03 X1172.8370 Y1318.8005 R4.7625 
N1198 G01 Y1925.2255 
N1199 G03 X1168.0745 Y1929.9880 R4.7625 
N1200 G01 X895.0245 
N1201 G03 X890.2620 Y1925.2255 R4.7625 
N1202 G01 Y1894.6064 
N1203 G01 Y1856.5065 Z0.0000 F3048.0
N1204 G01 Y1318.8005 F5080.0
N1205 G03 X895.0245 Y1314.0380 R4.7625 
N1206 G01 X1168.0745 
N1207 G03 X1172.8370 Y1318.8005 R4.7625 
N1208 G01 Y1925.2255 
N1209 G03 X1168.0745 Y1929.9880 R4.7625 
N1210 G01 X895.0245 
N1211 G03 X890.2620 Y1925.2255 R4.7625 
N1212 G01 Y1894.6064 
N1213 G01 Y1856.5065
N1214 G00 Z24.1300
N1215 G00 X1049.0745 Y1306.4879
N1216 G01 Z19.0500 F3048.0
N1217 G01 X1010.9745 Z9.5250 
N1218 G01 X972.8745 F5080.0
N1219 G01 X585.5245
N1220 G03 X580.7620 Y1301.7255 R4.7625 
N1221 G01 Y887.3880 
N1222 G03 X585.5245 Y882.6255 R4.7625 
N1223 G01 X1049.0745 
N1224 G03 X1053.8370 Y887.3880 R4.7625 
N1225 G01 Y1301.7255 
N1226 G03 X1049.0745 Y1306.4879 R4.7625 
N1227 G01 X1010.9745 
N1228 G01 X972.8745 Z0.0000 F3048.0
N1229 G01 X585.5245 F5080.0
N1230 G03 X580.7620 Y1301.7255 R4.7625 
N1231 G01 Y887.3880 
N1232 G03 X585.5245 Y882.6255 R4.7625 
N1233 G01 X1049.0745 
N1234 G03 X1053.8370 Y887.3880 R4.7625 
N1235 G01 Y1301.7255 
N1236 G03 X1049.0745 Y1306.4879 R4.7625 
N1237 G01 X1010.9745 
N1238 G01 X972.8745
N1239 G00 Z24.1300
N1240 G00 X1049.0745 Y868.9880
N1241 G01 Z19.0500 F3048.0
N1242 G01 X1010.9745 Z9.5250 
N1243 G01 X972.8745 F5080.0
N1244 G01 X585.5245
N1245 G03 X580.7620 Y864.2255 R4.7625 
N1246 G01 Y449.8880 
N1247 G03 X585.5245 Y445.1255 R4.7625 
N1248 G01 X1049.0745 
N1249 G03 X1053.8370 Y449.8880 R4.7625 
N1250 G01 Y864.2255 
N1251 G03 X1049.0745 Y868.9880 R4.7625 
N1252 G01 X1010.9745 
N1253 G01 X972.8745 Z0.0000 F3048.0
N1254 G01 X585.5245 F5080.0
N1255 G03 X580.7620 Y864.2255 R4.7625 
N1256 G01 Y449.8880 
N1257 G03 X585.5245 Y445.1255 R4.7625 
N1258 G01 X1049.0745 
N1259 G03 X1053.8370 Y449.8880 R4.7625 
N1260 G01 Y864.2255 
N1261 G03 X1049.0745 Y868.9880 R4.7625 
N1262 G01 X1010.9745 
N1263 G01 X972.8745
N1264 G00 Z24.1300
N1265 G00 X1049.0745 Y431.4880
N1266 G01 Z19.0500 F3048.0
N1267 G01 X1010.9745 Z9.5250 
N1268 G01 X972.8745 F5080.0
N1269 G01 X585.5245
N1270 G03 X580.7620 Y426.7255 R4.7625 
N1271 G01 Y12.3880 
N1272 G03 X585.5245 Y7.6255 R4.7625 
N1273 G01 X1049.0745 
N1274 G03 X1053.8370 Y12.3880 R4.7625 
N1275 G01 Y426.7255 
N1276 G03 X1049.0745 Y431.4880 R4.7625 
N1277 G01 X1010.9745 
N1278 G01 X972.8745 Z0.0000 F3048.0
N1279 G01 X585.5245 F5080.0
N1280 G03 X580.7620 Y426.7255 R4.7625 
N1281 G01 Y12.3880 
N1282 G03 X585.5245 Y7.6255 R4.7625 
N1283 G01 X1049.0745 
N1284 G03 X1053.8370 Y12.3880 R4.7625 
N1285 G01 Y426.7255 
N1286 G03 X1049.0745 Y431.4880 R4.7625 
N1287 G01 X1010.9745 
N1288 G01 X972.8745
N1289 G00 Z24.1300
N1290 G00 G53 G49 Z0
N1291 G00 G53 X0.0000 Y0.0000 M05
N1292 M30
