(VECTRIC POST REVISION)
(FFCFDDC6601FDE93278A86ECDC292DD1)
 (9.26.25_RiftWOPly02_3-5-Shelf Pins)
(CREATED Thursday September 25 2025)
( Material Size)
( X= 1231.900, Y= 2451.100, Z= 19.050)
(Tools used in this file: )
(T3 = #46211-K SC DOWNCUT SPIRAL 2 FL 5MMx3/4x1/4" Shank)
(T1 = #46367-K SC MORTISE 2 FL 3/8" DIAx7/8x3/8" Shank Spektra)
N9 G00 G17 G71 G40 G49 G80 G90
N10 G54
N11 G53 Z0
N12 (Tool: #46211-K SC DOWNCUT SPIRAL 2 FL 5MMx3/4x1/4" Shank)
N13 T3 M06
N14 M03 S6000
N15 G43 H3 Z24.1300
N16 G00 X69.0245 Y194.4088
N17 G00 Z24.1300
N18 G01 Z6.3500 F2540.0
N19 G00 Z24.1300
N20 G00 Y232.5088
N21 G01 Z6.3500 F2540.0
N22 G00 Z24.1300
N23 G00 Y270.6088
N24 G01 Z6.3500 F2540.0
N25 G00 Z24.1300
N26 G00 Y439.9422
N27 G01 Z6.3500 F2540.0
N28 G00 Z24.1300
N29 G00 Y478.0422
N30 G01 Z6.3500 F2540.0
N31 G00 Z24.1300
N32 G00 Y516.1422
N33 G01 Z6.3500 F2540.0
N34 G00 Z24.1300
N35 G00 X13.0498 Y717.3486
N36 G01 Z6.3500 F2540.0
N37 G00 Z24.1300
N38 G00 X69.0245 Y922.4088
N39 G01 Z6.3500 F2540.0
N40 G00 Z24.1300
N41 G00 Y960.5088
N42 G01 Z6.3500 F2540.0
N43 G00 Z24.1300
N44 G00 Y998.6088
N45 G01 Z6.3500 F2540.0
N46 G00 Z24.1300
N47 G00 Y1167.9421
N48 G01 Z6.3500 F2540.0
N49 G00 Z24.1300
N50 G00 Y1206.0421
N51 G01 Z6.3500 F2540.0
N52 G00 Z24.1300
N53 G00 Y1244.1422
N54 G01 Z6.3500 F2540.0
N55 G00 Z24.1300
N56 G00 X13.0498 Y1445.3486
N57 G01 Z6.3500 F2540.0
N58 G00 Z24.1300
N59 G00 X56.3245 Y1650.4087
N60 G01 Z6.3500 F2540.0
N61 G00 Z24.1300
N62 G00 Y1688.5088
N63 G01 Z6.3500 F2540.0
N64 G00 Z24.1300
N65 G00 Y1726.6088
N66 G01 Z6.3500 F2540.0
N67 G00 Z24.1300
N68 G00 Y1895.9421
N69 G01 Z6.3500 F2540.0
N70 G00 Z24.1300
N71 G00 Y1934.0422
N72 G01 Z6.3500 F2540.0
N73 G00 Z24.1300
N74 G00 Y1972.1422
N75 G01 Z6.3500 F2540.0
N76 G00 Z24.1300
N77 G00 X418.2745
N78 G01 Z6.3500 F2540.0
N79 G00 Z24.1300
N80 G00 Y1934.0422
N81 G01 Z6.3500 F2540.0
N82 G00 Z24.1300
N83 G00 Y1895.9421
N84 G01 Z6.3500 F2540.0
N85 G00 Z24.1300
N86 G00 Y1726.6088
N87 G01 Z6.3500 F2540.0
N88 G00 Z24.1300
N89 G00 Y1688.5088
N90 G01 Z6.3500 F2540.0
N91 G00 Z24.1300
N92 G00 Y1650.4087
N93 G01 Z6.3500 F2540.0
N94 G00 Z24.1300
N95 G00 X543.3245 Y1568.1421
N96 G01 Z6.3500 F2540.0
N97 G00 Z24.1300
N98 G00 Y1530.0421
N99 G01 Z6.3500 F2540.0
N100 G00 Z24.1300
N101 G00 Y1491.9421
N102 G01 Z6.3500 F2540.0
N103 G00 Z24.1300
N104 G00 X714.7745
N105 G01 Z6.3500 F2540.0
N106 G00 Z24.1300
N107 G00 Y1530.0421
N108 G01 Z6.3500 F2540.0
N109 G00 Z24.1300
N110 G00 Y1568.1421
N111 G01 Z6.3500 F2540.0
N112 G00 Z24.1300
N113 G00 X771.7552 Y1832.9873
N114 G01 Z6.3500 F2540.0
N115 G00 Z24.1300
N116 G00 X474.2492 Y2173.3484
N117 G01 Z6.3500 F2540.0
N118 G00 Z24.1300
N119 G00 X543.3245 Y1259.1088
N120 G01 Z6.3500 F2540.0
N121 G00 Z24.1300
N122 G00 Y1221.0088
N123 G01 Z6.3500 F2540.0
N124 G00 Z24.1300
N125 G00 Y1182.9088
N126 G01 Z6.3500 F2540.0
N127 G00 Z24.1300
N128 G00 X430.9745 Y1167.9421
N129 G01 Z6.3500 F2540.0
N130 G00 Z24.1300
N131 G00 Y1206.0421
N132 G01 Z6.3500 F2540.0
N133 G00 Z24.1300
N134 G00 Y1244.1422
N135 G01 Z6.3500 F2540.0
N136 G00 Z24.1300
N137 G00 Y998.6088
N138 G01 Z6.3500 F2540.0
N139 G00 Z24.1300
N140 G00 Y960.5088
N141 G01 Z6.3500 F2540.0
N142 G00 Z24.1300
N143 G00 Y922.4088
N144 G01 Z6.3500 F2540.0
N145 G00 Z24.1300
N146 G00 X795.5437 Y907.9873
N147 G01 Z6.3500 F2540.0
N148 G00 Z24.1300
N149 G00 X852.5245 Y643.1422
N150 G01 Z6.3500 F2540.0
N151 G00 Z24.1300
N152 G00 Y605.0422
N153 G01 Z6.3500 F2540.0
N154 G00 Z24.1300
N155 G00 Y566.9422
N156 G01 Z6.3500 F2540.0
N157 G00 Z24.1300
N158 G00 X1023.9745
N159 G01 Z6.3500 F2540.0
N160 G00 Z24.1300
N161 G00 Y605.0422
N162 G01 Z6.3500 F2540.0
N163 G00 Z24.1300
N164 G00 Y643.1422
N165 G01 Z6.3500 F2540.0
N166 G00 Z24.1300
N167 G00 Y334.1088
N168 G01 Z6.3500 F2540.0
N169 G00 Z24.1300
N170 G00 Y296.0088
N171 G01 Z6.3500 F2540.0
N172 G00 Z24.1300
N173 G00 Y257.9088
N174 G01 Z6.3500 F2540.0
N175 G00 Z24.1300
N176 G00 X852.5245
N177 G01 Z6.3500 F2540.0
N178 G00 Z24.1300
N179 G00 Y296.0088
N180 G01 Z6.3500 F2540.0
N181 G00 Z24.1300
N182 G00 Y334.1088
N183 G01 Z6.3500 F2540.0
N184 G00 Z24.1300
N185 G00 X430.9745 Y270.6088
N186 G01 Z6.3500 F2540.0
N187 G00 Z24.1300
N188 G00 Y232.5088
N189 G01 Z6.3500 F2540.0
N190 G00 Z24.1300
N191 G00 Y194.4088
N192 G01 Z6.3500 F2540.0
N193 G00 Z24.1300
N194 G00 Y439.9422
N195 G01 Z6.3500 F2540.0
N196 G00 Z24.1300
N197 G00 Y478.0422
N198 G01 Z6.3500 F2540.0
N199 G00 Z24.1300
N200 G00 Y516.1422
N201 G01 Z6.3500 F2540.0
N202 G00 Z24.1300
N203 G00 X714.7745 Y1182.9088
N204 G01 Z6.3500 F2540.0
N205 G00 Z24.1300
N206 G00 Y1221.0088
N207 G01 Z6.3500 F2540.0
N208 G00 Z24.1300
N209 G00 Y1259.1088
N210 G01 Z6.3500 F2540.0
N211 G00 Z24.1300
N212 G00 G53 G49 Z0
N213 M05
N214 (Tool: #46367-K SC MORTISE 2 FL 3/8" DIAx7/8x3/8" Shank Spektra)
N215 T1 M06
N216 G00 G43 H1 Z24.1300
N217 M03 S18000
N218 M03 S18000
N219 G00 X543.2725 Y1854.2529
N220 G00 Z24.1300
N221 G01 Z19.0500 F3048.0
N222 G01 Y1863.8730 Z18.2640 
N223 G01 X543.3677 Z18.2563 
N224 G01 Y1854.2529 Z17.4703 
N225 G01 X543.2725 Z17.4625 
N226 G01 X543.3677 Z17.4547 
N227 G01 Y1863.8730 Z16.6687 
N228 G01 X543.2725 Z16.6610 
N229 G01 Y1854.2529 Z15.8750 
N230 G01 Y1863.8730 F5080.0
N231 G01 X543.3677
N232 G01 Y1854.2529
N233 G01 X543.2725
N234 G00 Z24.1300
N235 G00 Y2262.2405
N236 G01 Z19.0500 F3048.0
N237 G01 Y2271.8606 Z18.2640 
N238 G01 X543.3677 Z18.2563 
N239 G01 Y2262.2405 Z17.4703 
N240 G01 X543.2725 Z17.4625 
N241 G01 X543.3677 Z17.4547 
N242 G01 Y2271.8606 Z16.6687 
N243 G01 X543.2725 Z16.6610 
N244 G01 Y2262.2405 Z15.8750 
N245 G01 Y2271.8606 F5080.0
N246 G01 X543.3677
N247 G01 Y2262.2405
N248 G01 X543.2725
N249 G00 Z24.1300
N250 G00 X905.2311
N251 G01 Z19.0500 F3048.0
N252 G01 Y2271.8606 Z18.2640 
N253 G01 X905.3265 Z18.2563 
N254 G01 Y2262.2405 Z17.4703 
N255 G01 X905.2311 Z17.4625 
N256 G01 X905.3265 Z17.4547 
N257 G01 Y2271.8606 Z16.6687 
N258 G01 X905.2311 Z16.6610 
N259 G01 Y2262.2405 Z15.8750 
N260 G01 Y2271.8606 F5080.0
N261 G01 X905.3265
N262 G01 Y2262.2405
N263 G01 X905.2311
N264 G00 Z24.1300
N265 G00 Y1854.2529
N266 G01 Z19.0500 F3048.0
N267 G01 Y1863.8730 Z18.2640 
N268 G01 X905.3265 Z18.2563 
N269 G01 Y1854.2529 Z17.4703 
N270 G01 X905.2311 Z17.4625 
N271 G01 X905.3265 Z17.4547 
N272 G01 Y1863.8730 Z16.6687 
N273 G01 X905.2311 Z16.6610 
N274 G01 Y1854.2529 Z15.8750 
N275 G01 Y1863.8730 F5080.0
N276 G01 X905.3265
N277 G01 Y1854.2529
N278 G01 X905.2311
N279 G00 Z24.1300
N280 M03 S18000
N281 G00 X5.5245 Y1.2630 Z24.1300
N282 G01 Z19.0500 F3048.0
N283 G01 X43.6245 Z9.5250 
N284 G01 X81.7245 F5080.0
N285 G01 X481.7745
N286 G03 X486.5370 Y6.0255 R4.7625 
N287 G01 Y723.5755 
N288 G03 X481.7745 Y728.3380 R4.7625 
N289 G01 X5.5245 
N290 G03 X0.7620 Y723.5755 R4.7625 
N291 G01 Y6.0255 
N292 G03 X5.5245 Y1.2630 R4.7625 
N293 G01 X43.6245 
N294 G01 X81.7245 Z0.0000 F3048.0
N295 G01 X481.7745 F5080.0
N296 G03 X486.5370 Y6.0255 R4.7625 
N297 G01 Y723.5755 
N298 G03 X481.7745 Y728.3380 R4.7625 
N299 G01 X5.5245 
N300 G03 X0.7620 Y723.5755 R4.7625 
N301 G01 Y6.0255 
N302 G03 X5.5245 Y1.2630 R4.7625 
N303 G01 X43.6245 
N304 G01 X81.7245
N305 G00 Z24.1300
N306 G00 X5.5245 Y729.2630
N307 G01 Z19.0500 F3048.0
N308 G01 X43.6245 Z9.5250 
N309 G01 X81.7245 F5080.0
N310 G01 X481.7745
N311 G03 X486.5370 Y734.0255 R4.7625 
N312 G01 Y1451.5756 
N313 G03 X481.7745 Y1456.3380 R4.7625 
N314 G01 X5.5245 
N315 G03 X0.7620 Y1451.5756 R4.7625 
N316 G01 Y734.0255 
N317 G03 X5.5245 Y729.2630 R4.7625 
N318 G01 X43.6245 
N319 G01 X81.7245 Z0.0000 F3048.0
N320 G01 X481.7745 F5080.0
N321 G03 X486.5370 Y734.0255 R4.7625 
N322 G01 Y1451.5756 
N323 G03 X481.7745 Y1456.3380 R4.7625 
N324 G01 X5.5245 
N325 G03 X0.7620 Y1451.5756 R4.7625 
N326 G01 Y734.0255 
N327 G03 X5.5245 Y729.2630 R4.7625 
N328 G01 X43.6245 
N329 G01 X81.7245
N330 G00 Z24.1300
N331 G00 X487.7620 Y920.5755
N332 G01 Z19.0500 F3048.0
N333 G01 Y882.4755 Z9.5250 
N334 G01 Y844.3755 F5080.0
N335 G01 Y6.1755
N336 G03 X492.5245 Y1.4130 R4.7625 
N337 G01 X778.2745 
N338 G03 X783.0370 Y6.1755 R4.7625 
N339 G01 Y920.5755 
N340 G03 X778.2745 Y925.3380 R4.7625 
N341 G01 X492.5245 
N342 G03 X487.7620 Y920.5755 R4.7625 
N343 G01 Y882.4755 
N344 G01 Y844.3755 Z0.0000 F3048.0
N345 G01 Y6.1755 F5080.0
N346 G03 X492.5245 Y1.4130 R4.7625 
N347 G01 X778.2745 
N348 G03 X783.0370 Y6.1755 R4.7625 
N349 G01 Y920.5755 
N350 G03 X778.2745 Y925.3380 R4.7625 
N351 G01 X492.5245 
N352 G03 X487.7620 Y920.5755 R4.7625 
N353 G01 Y882.4755 
N354 G01 Y844.3755
N355 G00 Z24.1300
N356 G00 X481.7745 Y1457.2629
N357 G01 Z19.0500 F3048.0
N358 G01 X481.9484 Y1457.2661 Z19.0020 
N359 G01 X482.1247 Y1457.2759 Z18.9541 
N360 G01 X482.3029 Y1457.2925 Z18.9061 
N361 G01 X482.4827 Y1457.3159 Z18.8582 
N362 G01 X482.6638 Y1457.3468 Z18.8102 
N363 G01 X482.8457 Y1457.3850 Z18.7623 
N364 G01 X483.0280 Y1457.4309 Z18.7143 
N365 G01 X483.2102 Y1457.4846 Z18.6664 
N366 G01 X483.3919 Y1457.5460 Z18.6184 
N367 G01 X483.5726 Y1457.6155 Z18.5705 
N368 G01 X483.7518 Y1457.6929 Z18.5225 
N369 G01 X483.9289 Y1457.7782 Z18.4745 
N370 G01 X484.1035 Y1457.8713 Z18.4266 
N371 G01 X484.2751 Y1457.9723 Z18.3786 
N372 G01 X484.4431 Y1458.0809 Z18.3307 
N373 G01 X484.6071 Y1458.1969 Z18.2827 
N374 G01 X484.7665 Y1458.3202 Z18.2348 
N375 G01 X484.9209 Y1458.4503 Z18.1868 
N376 G01 X485.0698 Y1458.5872 Z18.1389 
N377 G01 X485.2129 Y1458.7301 Z18.0909 
N378 G01 X485.3496 Y1458.8790 Z18.0430 
N379 G01 X485.4798 Y1459.0334 Z17.9950 
N380 G01 X485.6031 Y1459.1929 Z17.9470 
N381 G01 X485.7191 Y1459.3568 Z17.8991 
N382 G01 X485.8277 Y1459.5249 Z17.8511 
N383 G01 X485.9286 Y1459.6964 Z17.8032 
N384 G01 X486.0218 Y1459.8711 Z17.7552 
N385 G01 X486.1071 Y1460.0482 Z17.7073 
N386 G01 X486.1845 Y1460.2274 Z17.6593 
N387 G01 X486.2539 Y1460.4081 Z17.6114 
N388 G01 X486.3154 Y1460.5898 Z17.5634 
N389 G01 X486.3691 Y1460.7721 Z17.5155 
N390 G01 X486.4150 Y1460.9543 Z17.4675 
N391 G01 X486.4532 Y1461.1362 Z17.4195 
N392 G01 X486.4841 Y1461.3173 Z17.3716 
N393 G01 X486.5076 Y1461.4971 Z17.3236 
N394 G01 X486.5241 Y1461.6753 Z17.2757 
N395 G01 X486.5338 Y1461.8516 Z17.2277 
N396 G01 X486.5370 Y1462.0255 Z17.1798 
N397 G01 Y1492.6445 Z9.5250 
N398 G01 Y1530.7445 Z9.5250 F5080.0
N399 G01 Y2179.5754
N400 G03 X481.7745 Y2184.3379 R4.7625 
N401 G01 X5.5245 
N402 G03 X0.7620 Y2179.5754 R4.7625 
N403 G01 Y1462.0255 
N404 G03 X5.5245 Y1457.2629 R4.7625 
N405 G01 X481.7745 
N406 G03 X486.5370 Y1462.0255 R4.7625 
N407 G01 Y1492.6445 
N408 G01 Y1530.7445 Z0.0000 F3048.0
N409 G01 Y2179.5754 F5080.0
N410 G03 X481.7745 Y2184.3379 R4.7625 
N411 G01 X5.5245 
N412 G03 X0.7620 Y2179.5754 R4.7625 
N413 G01 Y1462.0255 
N414 G03 X5.5245 Y1457.2629 R4.7625 
N415 G01 X481.7745 
N416 G03 X486.5370 Y1462.0255 R4.7625 
N417 G01 Y1492.6445 
N418 G01 Y1530.7445
N419 G00 Z24.1300
N420 G00 X487.7620 Y1839.0756
N421 G01 Z19.0500 F3048.0
N422 G01 Y1800.9755 Z9.5250 
N423 G01 Y1762.8755 F5080.0
N424 G01 Y931.0255
N425 G03 X492.5245 Y926.2630 R4.7625 
N426 G01 X778.2745 
N427 G03 X783.0370 Y931.0255 R4.7625 
N428 G01 Y1839.0756 
N429 G03 X778.2745 Y1843.8380 R4.7625 
N430 G01 X492.5245 
N431 G03 X487.7620 Y1839.0756 R4.7625 
N432 G01 Y1800.9755 
N433 G01 Y1762.8755 Z0.0000 F3048.0
N434 G01 Y931.0255 F5080.0
N435 G03 X492.5245 Y926.2630 R4.7625 
N436 G01 X778.2745 
N437 G03 X783.0370 Y931.0255 R4.7625 
N438 G01 Y1839.0756 
N439 G03 X778.2745 Y1843.8380 R4.7625 
N440 G01 X492.5245 
N441 G03 X487.7620 Y1839.0756 R4.7625 
N442 G01 Y1800.9755 
N443 G01 Y1762.8755
N444 G00 Z24.1300
N445 G00 X784.2620 Y1801.0756
N446 G01 Z19.0500 F3048.0
N447 G01 Y1762.9755 Z9.5250 
N448 G01 Y1724.8755 F5080.0
N449 G01 Y924.7755
N450 G03 X789.0245 Y920.0130 R4.7625 
N451 G01 X1074.7745 
N452 G03 X1079.5370 Y924.7755 R4.7625 
N453 G01 Y1801.0756 
N454 G03 X1074.7745 Y1805.8380 R4.7625 
N455 G01 X789.0245 
N456 G03 X784.2620 Y1801.0756 R4.7625 
N457 G01 Y1762.9755 
N458 G01 Y1724.8755 Z0.0000 F3048.0
N459 G01 Y924.7755 F5080.0
N460 G03 X789.0245 Y920.0130 R4.7625 
N461 G01 X1074.7745 
N462 G03 X1079.5370 Y924.7755 R4.7625 
N463 G01 Y1801.0756 
N464 G03 X1074.7745 Y1805.8380 R4.7625 
N465 G01 X789.0245 
N466 G03 X784.2620 Y1801.0756 R4.7625 
N467 G01 Y1762.9755 
N468 G01 Y1724.8755
N469 G00 Z24.1300
N470 G00 X956.0745 Y1851.1255
N471 G01 Z19.0500 F3048.0
N472 G01 X956.2484 Y1851.1287 Z19.0020 
N473 G01 X956.4246 Y1851.1383 Z18.9541 
N474 G01 X956.6028 Y1851.1548 Z18.9061 
N475 G01 X956.7827 Y1851.1785 Z18.8582 
N476 G01 X956.9637 Y1851.2092 Z18.8102 
N477 G01 X957.1456 Y1851.2474 Z18.7623 
N478 G01 X957.3280 Y1851.2933 Z18.7143 
N479 G01 X957.5101 Y1851.3470 Z18.6664 
N480 G01 X957.6919 Y1851.4084 Z18.6184 
N481 G01 X957.8726 Y1851.4780 Z18.5705 
N482 G01 X958.0518 Y1851.5554 Z18.5225 
N483 G01 X958.2289 Y1851.6406 Z18.4745 
N484 G01 X958.4035 Y1851.7339 Z18.4266 
N485 G01 X958.5751 Y1851.8348 Z18.3786 
N486 G01 X958.7431 Y1851.9434 Z18.3307 
N487 G01 X958.9070 Y1852.0594 Z18.2827 
N488 G01 X959.0665 Y1852.1826 Z18.2348 
N489 G01 X959.2209 Y1852.3129 Z18.1868 
N490 G01 X959.3698 Y1852.4497 Z18.1389 
N491 G01 X959.5128 Y1852.5927 Z18.0909 
N492 G01 X959.6497 Y1852.7416 Z18.0430 
N493 G01 X959.7798 Y1852.8960 Z17.9950 
N494 G01 X959.9030 Y1853.0554 Z17.9470 
N495 G01 X960.0191 Y1853.2194 Z17.8991 
N496 G01 X960.1276 Y1853.3875 Z17.8511 
N497 G01 X960.2286 Y1853.5590 Z17.8032 
N498 G01 X960.3218 Y1853.7335 Z17.7552 
N499 G01 X960.4072 Y1853.9106 Z17.7073 
N500 G01 X960.4845 Y1854.0898 Z17.6593 
N501 G01 X960.5540 Y1854.2705 Z17.6114 
N502 G01 X960.6154 Y1854.4523 Z17.5634 
N503 G01 X960.6691 Y1854.6344 Z17.5155 
N504 G01 X960.7150 Y1854.8168 Z17.4675 
N505 G01 X960.7532 Y1854.9988 Z17.4195 
N506 G01 X960.7841 Y1855.1798 Z17.3716 
N507 G01 X960.8076 Y1855.3596 Z17.3236 
N508 G01 X960.8241 Y1855.5378 Z17.2757 
N509 G01 X960.8338 Y1855.7140 Z17.2277 
N510 G01 X960.8370 Y1855.8881 Z17.1798 
N511 G01 Y1886.5071 Z9.5250 
N512 G01 Y1924.6071 Z9.5250 F5080.0
N513 G01 Y2270.2256
N514 G03 X956.0745 Y2274.9880 R4.7625 
N515 G01 X492.5245 
N516 G03 X487.7620 Y2270.2256 R4.7625 
N517 G01 Y1855.8881 
N518 G03 X492.5245 Y1851.1255 R4.7625 
N519 G01 X956.0745 
N520 G03 X960.8370 Y1855.8881 R4.7625 
N521 G01 Y1886.5071 
N522 G01 Y1924.6071 Z0.0000 F3048.0
N523 G01 Y2270.2256 F5080.0
N524 G03 X956.0745 Y2274.9880 R4.7625 
N525 G01 X492.5245 
N526 G03 X487.7620 Y2270.2256 R4.7625 
N527 G01 Y1855.8881 
N528 G03 X492.5245 Y1851.1255 R4.7625 
N529 G01 X956.0745 
N530 G03 X960.8370 Y1855.8881 R4.7625 
N531 G01 Y1886.5071 
N532 G01 Y1924.6071
N533 G00 Z24.1300
N534 G00 X1074.7745 Y918.8380
N535 G01 Z19.0500 F3048.0
N536 G01 X1036.6744 Z9.5250 
N537 G01 X998.5745 F5080.0
N538 G01 X789.0245
N539 G03 X784.2620 Y914.0755 R4.7625 
N540 G01 Y6.0255 
N541 G03 X789.0245 Y1.2630 R4.7625 
N542 G01 X1074.7745 
N543 G03 X1079.5370 Y6.0255 R4.7625 
N544 G01 Y914.0755 
N545 G03 X1074.7745 Y918.8380 R4.7625 
N546 G01 X1036.6744 
N547 G01 X998.5745 Z0.0000 F3048.0
N548 G01 X789.0245 F5080.0
N549 G03 X784.2620 Y914.0755 R4.7625 
N550 G01 Y6.0255 
N551 G03 X789.0245 Y1.2630 R4.7625 
N552 G01 X1074.7745 
N553 G03 X1079.5370 Y6.0255 R4.7625 
N554 G01 Y914.0755 
N555 G03 X1074.7745 Y918.8380 R4.7625 
N556 G01 X1036.6744 
N557 G01 X998.5745
N558 G00 Z24.1300
N559 G00 G53 G49 Z0
N560 G00 G53 X0.0000 Y0.0000 M05
N561 M30
