(VECTRIC POST REVISION)
(FFCFDDC6601FDE93278A86ECDC292DD1)
 (9.29.25_PreFin07_14-16-Slide Holes)
(CREATED Monday September 29 2025)
( Material Size)
( X= 1231.900, Y= 2451.100, Z= 19.050)
(Tools used in this file: )
(T4 = #46125-K SC UPCUT SPIRAL 1/8" DIA.x1/4" shank Spektra)
(T3 = #46211-K SC DOWNCUT SPIRAL 2 FL 5MMx3/4x1/4" Shank)
(T1 = #46367-K SC MORTISE 2 FL 3/8" DIAx7/8x3/8" Shank Spektra)
N10 G00 G17 G71 G40 G49 G80 G90
N11 G54
N12 G53 Z0
N13 (Tool: #46125-K SC UPCUT SPIRAL 1/8" DIA.x1/4" shank Spektra)
N14 T4 M06
N15 M03 S6000
N16 G43 H4 Z24.1300
N17 G00 X13.3920 Y712.7787
N18 G00 Z24.1300
N19 G01 Z17.0180 F762.0
N20 G00 Z24.1300
N21 G00 X58.7057 Y764.6818
N22 G01 Z17.0180 F762.0
N23 G00 Z24.1300
N24 G00 Y1047.2567
N25 G01 Z17.0180 F762.0
N26 G00 Z24.1300
N27 G00 Y1329.8317
N28 G01 Z17.0180 F762.0
N29 G00 Z24.1300
N30 G00 X520.6683
N31 G01 Z17.0180 F762.0
N32 G00 Z24.1300
N33 G00 X621.7057
N34 G01 Z17.0180 F762.0
N35 G00 Z24.1300
N36 G00 X553.6704 Y1433.6078
N37 G01 Z17.0180 F762.0
N38 G00 Z24.1300
N39 G00 X605.8307 Y1486.1818
N40 G01 Z17.0180 F762.0
N41 G00 Z24.1300
N42 G00 Y1851.3068
N43 G01 Z17.0180 F762.0
N44 G00 Z24.1300
N45 G00 X520.6683 Y2051.3318
N46 G01 Z17.0180 F762.0
N47 G00 Z24.1300
N48 G00 X550.1070 Y2155.7786
N49 G01 Z17.0180 F762.0
N50 G00 Z24.1300
N51 G00 X575.1959 Y2154.6292
N52 G01 Z17.0180 F762.0
N53 G00 Z24.1300
N54 G00 X58.7057 Y2051.3318
N55 G01 Z17.0180 F762.0
N56 G00 Z24.1300
N57 G00 X1067.7932 Y1851.3068
N58 G01 Z17.0180 F762.0
N59 G00 Z24.1300
N60 G00 Y1486.1818
N61 G01 Z17.0180 F762.0
N62 G00 Z24.1300
N63 G00 X1113.1069 Y1434.2787
N64 G01 Z17.0180 F762.0
N65 G00 Z24.1300
N66 G00 X1083.6682 Y1329.8317
N67 G01 Z17.0180 F762.0
N68 G00 Z24.1300
N69 G00 X520.6683 Y1047.2567
N70 G01 Z17.0180 F762.0
N71 G00 Z24.1300
N72 G00 Y764.6818
N73 G01 Z17.0180 F762.0
N74 G00 Z24.1300
N75 G00 X576.3920 Y712.7787
N76 G01 Z17.0180 F762.0
N77 G00 Z24.1300
N78 G00 X605.8307 Y608.3317
N79 G01 Z17.0180 F762.0
N80 G00 Z24.1300
N81 G00 X1067.7932
N82 G01 Z17.0180 F762.0
N83 G00 Z24.1300
N84 G00 G53 G49 Z0
N85 M05
N86 (Tool: #46211-K SC DOWNCUT SPIRAL 2 FL 5MMx3/4x1/4" Shank)
N87 T3 M06
N88 G00 G43 H3 Z24.1300
N89 M03 S6000
N90 M03 S6000
N91 G00 X1083.6682 Y816.1506
N92 G00 Z24.1300
N93 G01 Z6.3500 F2540.0
N94 G00 Z24.1300
N95 G00 Y848.1505
N96 G01 Z6.3500 F2540.0
N97 G00 Z24.1300
N98 G00 Y1133.6505
N99 G01 Z6.3500 F2540.0
N100 G00 Z24.1300
N101 G00 Y1165.6504
N102 G01 Z6.3500 F2540.0
N103 G00 Z24.1300
N104 G00 G53 G49 Z0
N105 M05
N106 (Tool: #46367-K SC MORTISE 2 FL 3/8" DIAx7/8x3/8" Shank Spektra)
N107 T1 M06
N108 G00 G43 H1 Z24.1300
N109 M03 S18000
N110 M03 S18000
N111 G00 X5.5245 Y1.1130
N112 G00 Z24.1300
N113 G01 Z19.0500 F3048.0
N114 G01 X43.6245 Z9.5250 
N115 G01 X81.7245 F5080.0
N116 G01 X557.9745
N117 G03 X562.7370 Y5.8755 R4.7625 
N118 G01 Y717.0755 
N119 G03 X557.9745 Y721.8380 R4.7625 
N120 G01 X5.5245 
N121 G03 X0.7620 Y717.0755 R4.7625 
N122 G01 Y5.8755 
N123 G03 X5.5245 Y1.1130 R4.7625 
N124 G01 X43.6245 
N125 G01 X81.7245 Z0.0000 F3048.0
N126 G01 X557.9745 F5080.0
N127 G03 X562.7370 Y5.8755 R4.7625 
N128 G01 Y717.0755 
N129 G03 X557.9745 Y721.8380 R4.7625 
N130 G01 X5.5245 
N131 G03 X0.7620 Y717.0755 R4.7625 
N132 G01 Y5.8755 
N133 G03 X5.5245 Y1.1130 R4.7625 
N134 G01 X43.6245 
N135 G01 X81.7245
N136 G00 Z24.1300
N137 G00 X563.7620 Y5.8755
N138 G01 Z19.0500 F3048.0
N139 G01 X563.7652 Y5.7016 Z19.0020 
N140 G01 X563.7749 Y5.5253 Z18.9541 
N141 G01 X563.7914 Y5.3471 Z18.9061 
N142 G01 X563.8149 Y5.1673 Z18.8582 
N143 G01 X563.8458 Y4.9862 Z18.8102 
N144 G01 X563.8840 Y4.8043 Z18.7623 
N145 G01 X563.9299 Y4.6220 Z18.7143 
N146 G01 X563.9835 Y4.4398 Z18.6664 
N147 G01 X564.0450 Y4.2581 Z18.6184 
N148 G01 X564.1145 Y4.0774 Z18.5705 
N149 G01 X564.1918 Y3.8982 Z18.5225 
N150 G01 X564.2772 Y3.7211 Z18.4745 
N151 G01 X564.3704 Y3.5464 Z18.4266 
N152 G01 X564.4713 Y3.3749 Z18.3786 
N153 G01 X564.5799 Y3.2069 Z18.3307 
N154 G01 X564.6959 Y3.0429 Z18.2827 
N155 G01 X564.8192 Y2.8835 Z18.2348 
N156 G01 X564.9493 Y2.7291 Z18.1868 
N157 G01 X565.0861 Y2.5802 Z18.1389 
N158 G01 X565.2292 Y2.4371 Z18.0909 
N159 G01 X565.3781 Y2.3004 Z18.0430 
N160 G01 X565.5325 Y2.1702 Z17.9950 
N161 G01 X565.6919 Y2.0469 Z17.9470 
N162 G01 X565.8558 Y1.9309 Z17.8991 
N163 G01 X566.0239 Y1.8223 Z17.8511 
N164 G01 X566.1954 Y1.7214 Z17.8032 
N165 G01 X566.3701 Y1.6282 Z17.7552 
N166 G01 X566.5472 Y1.5429 Z17.7073 
N167 G01 X566.7264 Y1.4655 Z17.6593 
N168 G01 X566.9071 Y1.3961 Z17.6114 
N169 G01 X567.0888 Y1.3346 Z17.5634 
N170 G01 X567.2711 Y1.2809 Z17.5155 
N171 G01 X567.4534 Y1.2350 Z17.4675 
N172 G01 X567.6352 Y1.1968 Z17.4195 
N173 G01 X567.8162 Y1.1660 Z17.3716 
N174 G01 X567.9961 Y1.1424 Z17.3236 
N175 G01 X568.1743 Y1.1259 Z17.2757 
N176 G01 X568.3505 Y1.1162 Z17.2277 
N177 G01 X568.5245 Y1.1130 Z17.1798 
N178 G01 X599.1436 Z9.5250 
N179 G01 X637.2435 Z9.5250 F5080.0
N180 G01 X1120.9745
N181 G03 X1125.7369 Y5.8755 R4.7625 
N182 G01 Y717.0755 
N183 G03 X1120.9745 Y721.8380 R4.7625 
N184 G01 X568.5245 
N185 G03 X563.7620 Y717.0755 R4.7625 
N186 G01 Y5.8755 
N187 G03 X568.5245 Y1.1130 R4.7625 
N188 G01 X599.1436 
N189 G01 X637.2435 Z0.0000 F3048.0
N190 G01 X1120.9745 F5080.0
N191 G03 X1125.7369 Y5.8755 R4.7625 
N192 G01 Y717.0755 
N193 G03 X1120.9745 Y721.8380 R4.7625 
N194 G01 X568.5245 
N195 G03 X563.7620 Y717.0755 R4.7625 
N196 G01 Y5.8755 
N197 G03 X568.5245 Y1.1130 R4.7625 
N198 G01 X599.1436 
N199 G01 X637.2435
N200 G00 Z24.1300
N201 G00 X568.5245 Y722.6130
N202 G01 Z19.0500 F3048.0
N203 G01 X606.6245 Z9.5250 
N204 G01 X644.7245 F5080.0
N205 G01 X1120.9745
N206 G03 X1125.7369 Y727.3755 R4.7625 
N207 G01 Y1438.5754 
N208 G03 X1120.9745 Y1443.3379 R4.7625 
N209 G01 X568.5245 
N210 G03 X563.7620 Y1438.5754 R4.7625 
N211 G01 Y727.3755 
N212 G03 X568.5245 Y722.6130 R4.7625 
N213 G01 X606.6245 
N214 G01 X644.7245 Z0.0000 F3048.0
N215 G01 X1120.9745 F5080.0
N216 G03 X1125.7369 Y727.3755 R4.7625 
N217 G01 Y1438.5754 
N218 G03 X1120.9745 Y1443.3379 R4.7625 
N219 G01 X568.5245 
N220 G03 X563.7620 Y1438.5754 R4.7625 
N221 G01 Y727.3755 
N222 G03 X568.5245 Y722.6130 R4.7625 
N223 G01 X606.6245 
N224 G01 X644.7245
N225 G00 Z24.1300
N226 G00 X562.7370 Y727.3755
N227 G01 Z19.0500 F3048.0
N228 G01 Y765.4755 Z9.5250 
N229 G01 Y803.5755 F5080.0
N230 G01 Y1438.5754
N231 G03 X557.9745 Y1443.3379 R4.7625 
N232 G01 X5.5245 
N233 G03 X0.7620 Y1438.5754 R4.7625 
N234 G01 Y727.3755 
N235 G03 X5.5245 Y722.6130 R4.7625 
N236 G01 X557.9745 
N237 G03 X562.7370 Y727.3755 R4.7625 
N238 G01 Y765.4755 
N239 G01 Y803.5755 Z0.0000 F3048.0
N240 G01 Y1438.5754 F5080.0
N241 G03 X557.9745 Y1443.3379 R4.7625 
N242 G01 X5.5245 
N243 G03 X0.7620 Y1438.5754 R4.7625 
N244 G01 Y727.3755 
N245 G03 X5.5245 Y722.6130 R4.7625 
N246 G01 X557.9745 
N247 G03 X562.7370 Y727.3755 R4.7625 
N248 G01 Y765.4755 
N249 G01 Y803.5755
N250 G00 Z24.1300
N251 G00 X557.9745 Y1444.1130
N252 G01 Z19.0500 F3048.0
N253 G01 X558.1484 Y1444.1162 Z19.0020 
N254 G01 X558.3247 Y1444.1259 Z18.9541 
N255 G01 X558.5029 Y1444.1423 Z18.9061 
N256 G01 X558.6827 Y1444.1659 Z18.8582 
N257 G01 X558.8638 Y1444.1967 Z18.8102 
N258 G01 X559.0457 Y1444.2350 Z18.7623 
N259 G01 X559.2280 Y1444.2809 Z18.7143 
N260 G01 X559.4102 Y1444.3345 Z18.6664 
N261 G01 X559.5919 Y1444.3960 Z18.6184 
N262 G01 X559.7726 Y1444.4655 Z18.5705 
N263 G01 X559.9518 Y1444.5428 Z18.5225 
N264 G01 X560.1289 Y1444.6282 Z18.4745 
N265 G01 X560.3035 Y1444.7213 Z18.4266 
N266 G01 X560.4752 Y1444.8223 Z18.3786 
N267 G01 X560.6431 Y1444.9309 Z18.3307 
N268 G01 X560.8071 Y1445.0470 Z18.2827 
N269 G01 X560.9665 Y1445.1702 Z18.2348 
N270 G01 X561.1208 Y1445.3003 Z18.1868 
N271 G01 X561.2698 Y1445.4371 Z18.1389 
N272 G01 X561.4128 Y1445.5802 Z18.0909 
N273 G01 X561.5496 Y1445.7291 Z18.0430 
N274 G01 X561.6798 Y1445.8835 Z17.9950 
N275 G01 X561.8030 Y1446.0430 Z17.9470 
N276 G01 X561.9191 Y1446.2069 Z17.8991 
N277 G01 X562.0276 Y1446.3749 Z17.8511 
N278 G01 X562.1286 Y1446.5464 Z17.8032 
N279 G01 X562.2218 Y1446.7211 Z17.7552 
N280 G01 X562.3071 Y1446.8982 Z17.7073 
N281 G01 X562.3845 Y1447.0774 Z17.6593 
N282 G01 X562.4539 Y1447.2581 Z17.6114 
N283 G01 X562.5154 Y1447.4398 Z17.5634 
N284 G01 X562.5691 Y1447.6219 Z17.5155 
N285 G01 X562.6150 Y1447.8043 Z17.4675 
N286 G01 X562.6533 Y1447.9862 Z17.4195 
N287 G01 X562.6841 Y1448.1674 Z17.3716 
N288 G01 X562.7076 Y1448.3470 Z17.3236 
N289 G01 X562.7241 Y1448.5253 Z17.2757 
N290 G01 X562.7338 Y1448.7015 Z17.2277 
N291 G01 X562.7370 Y1448.8755 Z17.1798 
N292 G01 Y1479.4945 Z9.5250 
N293 G01 Y1517.5946 Z9.5250 F5080.0
N294 G01 Y2160.0754
N295 G03 X557.9745 Y2164.8379 R4.7625 
N296 G01 X5.5245 
N297 G03 X0.7620 Y2160.0754 R4.7625 
N298 G01 Y1448.8755 
N299 G03 X5.5245 Y1444.1130 R4.7625 
N300 G01 X557.9745 
N301 G03 X562.7370 Y1448.8755 R4.7625 
N302 G01 Y1479.4945 
N303 G01 Y1517.5946 Z0.0000 F3048.0
N304 G01 Y2160.0754 F5080.0
N305 G03 X557.9745 Y2164.8379 R4.7625 
N306 G01 X5.5245 
N307 G03 X0.7620 Y2160.0754 R4.7625 
N308 G01 Y1448.8755 
N309 G03 X5.5245 Y1444.1130 R4.7625 
N310 G01 X557.9745 
N311 G03 X562.7370 Y1448.8755 R4.7625 
N312 G01 Y1479.4945 
N313 G01 Y1517.5946
N314 G00 Z24.1300
N315 G00 X563.7620 Y1448.8755
N316 G01 Z19.0500 F3048.0
N317 G01 X563.7652 Y1448.7015 Z19.0020 
N318 G01 X563.7749 Y1448.5253 Z18.9541 
N319 G01 X563.7914 Y1448.3470 Z18.9061 
N320 G01 X563.8149 Y1448.1674 Z18.8582 
N321 G01 X563.8458 Y1447.9862 Z18.8102 
N322 G01 X563.8840 Y1447.8043 Z18.7623 
N323 G01 X563.9299 Y1447.6219 Z18.7143 
N324 G01 X563.9835 Y1447.4398 Z18.6664 
N325 G01 X564.0450 Y1447.2581 Z18.6184 
N326 G01 X564.1145 Y1447.0774 Z18.5705 
N327 G01 X564.1918 Y1446.8982 Z18.5225 
N328 G01 X564.2772 Y1446.7211 Z18.4745 
N329 G01 X564.3704 Y1446.5464 Z18.4266 
N330 G01 X564.4713 Y1446.3749 Z18.3786 
N331 G01 X564.5799 Y1446.2069 Z18.3307 
N332 G01 X564.6959 Y1446.0430 Z18.2827 
N333 G01 X564.8192 Y1445.8835 Z18.2348 
N334 G01 X564.9493 Y1445.7291 Z18.1868 
N335 G01 X565.0861 Y1445.5802 Z18.1389 
N336 G01 X565.2292 Y1445.4371 Z18.0909 
N337 G01 X565.3781 Y1445.3003 Z18.0430 
N338 G01 X565.5325 Y1445.1702 Z17.9950 
N339 G01 X565.6919 Y1445.0470 Z17.9470 
N340 G01 X565.8558 Y1444.9309 Z17.8991 
N341 G01 X566.0239 Y1444.8223 Z17.8511 
N342 G01 X566.1954 Y1444.7213 Z17.8032 
N343 G01 X566.3701 Y1444.6282 Z17.7552 
N344 G01 X566.5472 Y1444.5428 Z17.7073 
N345 G01 X566.7264 Y1444.4655 Z17.6593 
N346 G01 X566.9071 Y1444.3960 Z17.6114 
N347 G01 X567.0888 Y1444.3345 Z17.5634 
N348 G01 X567.2711 Y1444.2809 Z17.5155 
N349 G01 X567.4534 Y1444.2350 Z17.4675 
N350 G01 X567.6352 Y1444.1967 Z17.4195 
N351 G01 X567.8162 Y1444.1659 Z17.3716 
N352 G01 X567.9961 Y1444.1423 Z17.3236 
N353 G01 X568.1743 Y1444.1259 Z17.2757 
N354 G01 X568.3505 Y1444.1162 Z17.2277 
N355 G01 X568.5245 Y1444.1130 Z17.1798 
N356 G01 X599.1436 Z9.5250 
N357 G01 X637.2435 Z9.5250 F5080.0
N358 G01 X1120.9745
N359 G03 X1125.7369 Y1448.8755 R4.7625 
N360 G01 Y2160.0754 
N361 G03 X1120.9745 Y2164.8379 R4.7625 
N362 G01 X568.5245 
N363 G03 X563.7620 Y2160.0754 R4.7625 
N364 G01 Y1448.8755 
N365 G03 X568.5245 Y1444.1130 R4.7625 
N366 G01 X599.1436 
N367 G01 X637.2435 Z0.0000 F3048.0
N368 G01 X1120.9745 F5080.0
N369 G03 X1125.7369 Y1448.8755 R4.7625 
N370 G01 Y2160.0754 
N371 G03 X1120.9745 Y2164.8379 R4.7625 
N372 G01 X568.5245 
N373 G03 X563.7620 Y2160.0754 R4.7625 
N374 G01 Y1448.8755 
N375 G03 X568.5245 Y1444.1130 R4.7625 
N376 G01 X599.1436 
N377 G01 X637.2435
N378 G00 Z24.1300
N379 G00 G53 G49 Z0
N380 G00 G53 X0.0000 Y0.0000 M05
N381 M30
