(VECTRIC POST REVISION)
(FFCFDDC6601FDE93278A86ECDC292DD1)
 (9.29.25_PreFin06_10-13-Slide Holes)
(CREATED Monday September 29 2025)
( Material Size)
( X= 1231.900, Y= 2451.100, Z= 19.050)
(Tools used in this file: )
(T4 = #46125-K SC UPCUT SPIRAL 1/8" DIA.x1/4" shank Spektra)
(T3 = #46211-K SC DOWNCUT SPIRAL 2 FL 5MMx3/4x1/4" Shank)
(T1 = #46367-K SC MORTISE 2 FL 3/8" DIAx7/8x3/8" Shank Spektra)
N10 G00 G17 G71 G40 G49 G80 G90
N11 G54
N12 G53 Z0
N13 (Tool: #46125-K SC UPCUT SPIRAL 1/8" DIA.x1/4" shank Spektra)
N14 T4 M06
N15 M03 S6000
N16 G43 H4 Z24.1300
N17 G00 X605.8307 Y43.1818
N18 G00 Z24.1300
N19 G01 Z17.0180 F762.0
N20 G00 Z24.1300
N21 G00 Y325.7567
N22 G01 Z17.0180 F762.0
N23 G00 Z24.1300
N24 G00 Y608.3317
N25 G01 Z17.0180 F762.0
N26 G00 Z24.1300
N27 G00 X520.6683
N28 G01 Z17.0180 F762.0
N29 G00 Z24.1300
N30 G00 X550.1070 Y712.7787
N31 G01 Z17.0180 F762.0
N32 G00 Z24.1300
N33 G00 X572.8286 Y712.1078
N34 G01 Z17.0180 F762.0
N35 G00 Z24.1300
N36 G00 X621.7057 Y764.6818
N37 G01 Z17.0180 F762.0
N38 G00 Z24.1300
N39 G00 X520.6683
N40 G01 Z17.0180 F762.0
N41 G00 Z24.1300
N42 G00 Y1047.2567
N43 G01 Z17.0180 F762.0
N44 G00 Z24.1300
N45 G00 X621.7057
N46 G01 Z17.0180 F762.0
N47 G00 Z24.1300
N48 G00 Y1329.8317
N49 G01 Z17.0180 F762.0
N50 G00 Z24.1300
N51 G00 X520.6683
N52 G01 Z17.0180 F762.0
N53 G00 Z24.1300
N54 G00 X553.6704 Y1433.6078
N55 G01 Z17.0180 F762.0
N56 G00 Z24.1300
N57 G00 X520.6683 Y1486.1818
N58 G01 Z17.0180 F762.0
N59 G00 Z24.1300
N60 G00 Y1851.3068
N61 G01 Z17.0180 F762.0
N62 G00 Z24.1300
N63 G00 X605.8307 Y2051.3318
N64 G01 Z17.0180 F762.0
N65 G00 Z24.1300
N66 G00 X576.3920 Y2155.7786
N67 G01 Z17.0180 F762.0
N68 G00 Z24.1300
N69 G00 X551.3030 Y2154.6292
N70 G01 Z17.0180 F762.0
N71 G00 Z24.1300
N72 G00 X1067.7932 Y2051.3318
N73 G01 Z17.0180 F762.0
N74 G00 Z24.1300
N75 G00 X1116.6704 Y1433.6078
N76 G01 Z17.0180 F762.0
N77 G00 Z24.1300
N78 G00 X1083.6682 Y1329.8317
N79 G01 Z17.0180 F762.0
N80 G00 Z24.1300
N81 G00 Y1047.2567
N82 G01 Z17.0180 F762.0
N83 G00 Z24.1300
N84 G00 Y764.6818
N85 G01 Z17.0180 F762.0
N86 G00 Z24.1300
N87 G00 X1067.7932 Y608.3317
N88 G01 Z17.0180 F762.0
N89 G00 Z24.1300
N90 G00 Y325.7567
N91 G01 Z17.0180 F762.0
N92 G00 Z24.1300
N93 G00 Y43.1818
N94 G01 Z17.0180 F762.0
N95 G00 Z24.1300
N96 G00 X58.7057 Y608.3317
N97 G01 Z17.0180 F762.0
N98 G00 Z24.1300
N99 G00 Y764.6818
N100 G01 Z17.0180 F762.0
N101 G00 Z24.1300
N102 G00 Y1047.2567
N103 G01 Z17.0180 F762.0
N104 G00 Z24.1300
N105 G00 Y1329.8317
N106 G01 Z17.0180 F762.0
N107 G00 Z24.1300
N108 G00 Y1486.1818
N109 G01 Z17.0180 F762.0
N110 G00 Z24.1300
N111 G00 Y1851.3068
N112 G01 Z17.0180 F762.0
N113 G00 Z24.1300
N114 G00 G53 G49 Z0
N115 M05
N116 (Tool: #46211-K SC DOWNCUT SPIRAL 2 FL 5MMx3/4x1/4" Shank)
N117 T3 M06
N118 G00 G43 H3 Z24.1300
N119 M03 S6000
N120 M03 S6000
N121 G00 X605.8307 Y1537.6505
N122 G00 Z24.1300
N123 G01 Z6.3500 F2540.0
N124 G00 Z24.1300
N125 G00 Y1569.6505
N126 G01 Z6.3500 F2540.0
N127 G00 Z24.1300
N128 G00 X619.3245 Y1658.4255
N129 G01 Z6.3500 F2540.0
N130 G00 Z24.1300
N131 G00 Y1696.5255
N132 G01 Z6.3500 F2540.0
N133 G00 Z24.1300
N134 G00 Y1734.6255
N135 G01 Z6.3500 F2540.0
N136 G00 Z24.1300
N137 G00 X605.8307 Y1855.1505
N138 G01 Z6.3500 F2540.0
N139 G00 Z24.1300
N140 G00 Y1887.1505
N141 G01 Z6.3500 F2540.0
N142 G00 Z24.1300
N143 G00 X1070.1744 Y1734.6255
N144 G01 Z6.3500 F2540.0
N145 G00 Z24.1300
N146 G00 Y1696.5255
N147 G01 Z6.3500 F2540.0
N148 G00 Z24.1300
N149 G00 Y1658.4255
N150 G01 Z6.3500 F2540.0
N151 G00 Z24.1300
N152 G00 G53 G49 Z0
N153 M05
N154 (Tool: #46367-K SC MORTISE 2 FL 3/8" DIAx7/8x3/8" Shank Spektra)
N155 T1 M06
N156 G00 G43 H1 Z24.1300
N157 M03 S18000
N158 M03 S18000
N159 G00 X55.5429 Y2175.4905
N160 G00 Z24.1300
N161 G01 Z19.0500 F3048.0
N162 G01 Y2185.1106 Z18.2640 
N163 G01 X55.6382 Z18.2563 
N164 G01 Y2175.4905 Z17.4703 
N165 G01 X55.5429 Z17.4625 
N166 G01 X55.6382 Z17.4547 
N167 G01 Y2185.1106 Z16.6687 
N168 G01 X55.5429 Z16.6610 
N169 G01 Y2175.4905 Z15.8750 
N170 G01 Y2185.1106 F5080.0
N171 G01 X55.6382
N172 G01 Y2175.4905
N173 G01 X55.5429
N174 G00 Z24.1300
N175 G00 Y2397.7405
N176 G01 Z19.0500 F3048.0
N177 G01 Y2407.3606 Z18.2640 
N178 G01 X55.6382 Z18.2563 
N179 G01 Y2397.7405 Z17.4703 
N180 G01 X55.5429 Z17.4625 
N181 G01 X55.6382 Z17.4547 
N182 G01 Y2407.3606 Z16.6687 
N183 G01 X55.5429 Z16.6610 
N184 G01 Y2397.7405 Z15.8750 
N185 G01 Y2407.3606 F5080.0
N186 G01 X55.6382
N187 G01 Y2397.7405
N188 G01 X55.5429
N189 G00 Z24.1300
N190 G00 X506.2733
N191 G01 Z19.0500 F3048.0
N192 G01 Y2407.3606 Z18.2640 
N193 G01 X506.3686 Z18.2563 
N194 G01 Y2397.7405 Z17.4703 
N195 G01 X506.2733 Z17.4625 
N196 G01 X506.3686 Z17.4547 
N197 G01 Y2407.3606 Z16.6687 
N198 G01 X506.2733 Z16.6610 
N199 G01 Y2397.7405 Z15.8750 
N200 G01 Y2407.3606 F5080.0
N201 G01 X506.3686
N202 G01 Y2397.7405
N203 G01 X506.2733
N204 G00 Z24.1300
N205 G00 Y2175.4905
N206 G01 Z19.0500 F3048.0
N207 G01 Y2185.1106 Z18.2640 
N208 G01 X506.3686 Z18.2563 
N209 G01 Y2175.4905 Z17.4703 
N210 G01 X506.2733 Z17.4625 
N211 G01 X506.3686 Z17.4547 
N212 G01 Y2185.1106 Z16.6687 
N213 G01 X506.2733 Z16.6610 
N214 G01 Y2175.4905 Z15.8750 
N215 G01 Y2185.1106 F5080.0
N216 G01 X506.3686
N217 G01 Y2175.4905
N218 G01 X506.2733
N219 G00 Z24.1300
N220 M03 S18000
N221 G00 X5.5245 Y1.1130 Z24.1300
N222 G01 Z19.0500 F3048.0
N223 G01 X43.6245 Z9.5250 
N224 G01 X81.7245 F5080.0
N225 G01 X557.9745
N226 G03 X562.7370 Y5.8755 R4.7625 
N227 G01 Y717.0755 
N228 G03 X557.9745 Y721.8380 R4.7625 
N229 G01 X5.5245 
N230 G03 X0.7620 Y717.0755 R4.7625 
N231 G01 Y5.8755 
N232 G03 X5.5245 Y1.1130 R4.7625 
N233 G01 X43.6245 
N234 G01 X81.7245 Z0.0000 F3048.0
N235 G01 X557.9745 F5080.0
N236 G03 X562.7370 Y5.8755 R4.7625 
N237 G01 Y717.0755 
N238 G03 X557.9745 Y721.8380 R4.7625 
N239 G01 X5.5245 
N240 G03 X0.7620 Y717.0755 R4.7625 
N241 G01 Y5.8755 
N242 G03 X5.5245 Y1.1130 R4.7625 
N243 G01 X43.6245 
N244 G01 X81.7245
N245 G00 Z24.1300
N246 G00 X563.7620 Y5.8755
N247 G01 Z19.0500 F3048.0
N248 G01 X563.7652 Y5.7016 Z19.0020 
N249 G01 X563.7749 Y5.5253 Z18.9541 
N250 G01 X563.7914 Y5.3471 Z18.9061 
N251 G01 X563.8149 Y5.1673 Z18.8582 
N252 G01 X563.8458 Y4.9862 Z18.8102 
N253 G01 X563.8840 Y4.8043 Z18.7623 
N254 G01 X563.9299 Y4.6220 Z18.7143 
N255 G01 X563.9835 Y4.4398 Z18.6664 
N256 G01 X564.0450 Y4.2581 Z18.6184 
N257 G01 X564.1145 Y4.0774 Z18.5705 
N258 G01 X564.1918 Y3.8982 Z18.5225 
N259 G01 X564.2772 Y3.7211 Z18.4745 
N260 G01 X564.3704 Y3.5464 Z18.4266 
N261 G01 X564.4713 Y3.3749 Z18.3786 
N262 G01 X564.5799 Y3.2069 Z18.3307 
N263 G01 X564.6959 Y3.0429 Z18.2827 
N264 G01 X564.8192 Y2.8835 Z18.2348 
N265 G01 X564.9493 Y2.7291 Z18.1868 
N266 G01 X565.0861 Y2.5802 Z18.1389 
N267 G01 X565.2292 Y2.4371 Z18.0909 
N268 G01 X565.3781 Y2.3004 Z18.0430 
N269 G01 X565.5325 Y2.1702 Z17.9950 
N270 G01 X565.6919 Y2.0469 Z17.9470 
N271 G01 X565.8558 Y1.9309 Z17.8991 
N272 G01 X566.0239 Y1.8223 Z17.8511 
N273 G01 X566.1954 Y1.7214 Z17.8032 
N274 G01 X566.3701 Y1.6282 Z17.7552 
N275 G01 X566.5472 Y1.5429 Z17.7073 
N276 G01 X566.7264 Y1.4655 Z17.6593 
N277 G01 X566.9071 Y1.3961 Z17.6114 
N278 G01 X567.0888 Y1.3346 Z17.5634 
N279 G01 X567.2711 Y1.2809 Z17.5155 
N280 G01 X567.4534 Y1.2350 Z17.4675 
N281 G01 X567.6352 Y1.1968 Z17.4195 
N282 G01 X567.8162 Y1.1660 Z17.3716 
N283 G01 X567.9961 Y1.1424 Z17.3236 
N284 G01 X568.1743 Y1.1259 Z17.2757 
N285 G01 X568.3505 Y1.1162 Z17.2277 
N286 G01 X568.5245 Y1.1130 Z17.1798 
N287 G01 X599.1436 Z9.5250 
N288 G01 X637.2435 Z9.5250 F5080.0
N289 G01 X1120.9745
N290 G03 X1125.7369 Y5.8755 R4.7625 
N291 G01 Y717.0755 
N292 G03 X1120.9745 Y721.8380 R4.7625 
N293 G01 X568.5245 
N294 G03 X563.7620 Y717.0755 R4.7625 
N295 G01 Y5.8755 
N296 G03 X568.5245 Y1.1130 R4.7625 
N297 G01 X599.1436 
N298 G01 X637.2435 Z0.0000 F3048.0
N299 G01 X1120.9745 F5080.0
N300 G03 X1125.7369 Y5.8755 R4.7625 
N301 G01 Y717.0755 
N302 G03 X1120.9745 Y721.8380 R4.7625 
N303 G01 X568.5245 
N304 G03 X563.7620 Y717.0755 R4.7625 
N305 G01 Y5.8755 
N306 G03 X568.5245 Y1.1130 R4.7625 
N307 G01 X599.1436 
N308 G01 X637.2435
N309 G00 Z24.1300
N310 G00 X568.5245 Y1444.1130
N311 G01 Z19.0500 F3048.0
N312 G01 X606.6245 Z9.5250 
N313 G01 X644.7245 F5080.0
N314 G01 X1120.9745
N315 G03 X1125.7369 Y1448.8755 R4.7625 
N316 G01 Y2160.0754 
N317 G03 X1120.9745 Y2164.8379 R4.7625 
N318 G01 X568.5245 
N319 G03 X563.7620 Y2160.0754 R4.7625 
N320 G01 Y1448.8755 
N321 G03 X568.5245 Y1444.1130 R4.7625 
N322 G01 X606.6245 
N323 G01 X644.7245 Z0.0000 F3048.0
N324 G01 X1120.9745 F5080.0
N325 G03 X1125.7369 Y1448.8755 R4.7625 
N326 G01 Y2160.0754 
N327 G03 X1120.9745 Y2164.8379 R4.7625 
N328 G01 X568.5245 
N329 G03 X563.7620 Y2160.0754 R4.7625 
N330 G01 Y1448.8755 
N331 G03 X568.5245 Y1444.1130 R4.7625 
N332 G01 X606.6245 
N333 G01 X644.7245
N334 G00 Z24.1300
N335 G00 X568.5245 Y1443.3379
N336 G01 Z19.0500 F3048.0
N337 G01 X568.3505 Y1443.3348 Z19.0020 
N338 G01 X568.1743 Y1443.3251 Z18.9541 
N339 G01 X567.9961 Y1443.3086 Z18.9061 
N340 G01 X567.8162 Y1443.2850 Z18.8582 
N341 G01 X567.6352 Y1443.2543 Z18.8102 
N342 G01 X567.4534 Y1443.2159 Z18.7623 
N343 G01 X567.2711 Y1443.1700 Z18.7143 
N344 G01 X567.0888 Y1443.1165 Z18.6664 
N345 G01 X566.9071 Y1443.0549 Z18.6184 
N346 G01 X566.7264 Y1442.9855 Z18.5705 
N347 G01 X566.5472 Y1442.9081 Z18.5225 
N348 G01 X566.3701 Y1442.8228 Z18.4745 
N349 G01 X566.1954 Y1442.7296 Z18.4266 
N350 G01 X566.0239 Y1442.6287 Z18.3786 
N351 G01 X565.8558 Y1442.5200 Z18.3307 
N352 G01 X565.6919 Y1442.4039 Z18.2827 
N353 G01 X565.5325 Y1442.2809 Z18.2348 
N354 G01 X565.3781 Y1442.1506 Z18.1868 
N355 G01 X565.2292 Y1442.0138 Z18.1389 
N356 G01 X565.0861 Y1441.8707 Z18.0909 
N357 G01 X564.9493 Y1441.7218 Z18.0430 
N358 G01 X564.8192 Y1441.5675 Z17.9950 
N359 G01 X564.6959 Y1441.4081 Z17.9470 
N360 G01 X564.5799 Y1441.2441 Z17.8991 
N361 G01 X564.4713 Y1441.0760 Z17.8511 
N362 G01 X564.3704 Y1440.9045 Z17.8032 
N363 G01 X564.2772 Y1440.7300 Z17.7552 
N364 G01 X564.1918 Y1440.5527 Z17.7073 
N365 G01 X564.1145 Y1440.3735 Z17.6593 
N366 G01 X564.0450 Y1440.1929 Z17.6114 
N367 G01 X563.9835 Y1440.0112 Z17.5634 
N368 G01 X563.9299 Y1439.8290 Z17.5155 
N369 G01 X563.8840 Y1439.6467 Z17.4675 
N370 G01 X563.8458 Y1439.4647 Z17.4195 
N371 G01 X563.8149 Y1439.2837 Z17.3716 
N372 G01 X563.7914 Y1439.1039 Z17.3236 
N373 G01 X563.7749 Y1438.9257 Z17.2757 
N374 G01 X563.7652 Y1438.7495 Z17.2277 
N375 G01 X563.7620 Y1438.5754 Z17.1798 
N376 G01 Y1407.9564 Z9.5250 
N377 G01 Y1369.8564 Z9.5250 F5080.0
N378 G01 Y727.3755
N379 G03 X568.5245 Y722.6130 R4.7625 
N380 G01 X1120.9745 
N381 G03 X1125.7369 Y727.3755 R4.7625 
N382 G01 Y1438.5754 
N383 G03 X1120.9745 Y1443.3379 R4.7625 
N384 G01 X568.5245 
N385 G03 X563.7620 Y1438.5754 R4.7625 
N386 G01 Y1407.9564 
N387 G01 Y1369.8564 Z0.0000 F3048.0
N388 G01 Y727.3755 F5080.0
N389 G03 X568.5245 Y722.6130 R4.7625 
N390 G01 X1120.9745 
N391 G03 X1125.7369 Y727.3755 R4.7625 
N392 G01 Y1438.5754 
N393 G03 X1120.9745 Y1443.3379 R4.7625 
N394 G01 X568.5245 
N395 G03 X563.7620 Y1438.5754 R4.7625 
N396 G01 Y1407.9564 
N397 G01 Y1369.8564
N398 G00 Z24.1300
N399 G00 X562.7370 Y1438.5754
N400 G01 Z19.0500 F3048.0
N401 G01 X562.7338 Y1438.7495 Z19.0020 
N402 G01 X562.7241 Y1438.9257 Z18.9541 
N403 G01 X562.7076 Y1439.1039 Z18.9061 
N404 G01 X562.6841 Y1439.2837 Z18.8582 
N405 G01 X562.6533 Y1439.4647 Z18.8102 
N406 G01 X562.6150 Y1439.6467 Z18.7623 
N407 G01 X562.5691 Y1439.8290 Z18.7143 
N408 G01 X562.5154 Y1440.0112 Z18.6664 
N409 G01 X562.4539 Y1440.1929 Z18.6184 
N410 G01 X562.3845 Y1440.3735 Z18.5705 
N411 G01 X562.3071 Y1440.5527 Z18.5225 
N412 G01 X562.2218 Y1440.7300 Z18.4745 
N413 G01 X562.1286 Y1440.9045 Z18.4266 
N414 G01 X562.0276 Y1441.0760 Z18.3786 
N415 G01 X561.9191 Y1441.2441 Z18.3307 
N416 G01 X561.8030 Y1441.4081 Z18.2827 
N417 G01 X561.6798 Y1441.5675 Z18.2348 
N418 G01 X561.5496 Y1441.7218 Z18.1868 
N419 G01 X561.4128 Y1441.8707 Z18.1389 
N420 G01 X561.2698 Y1442.0138 Z18.0909 
N421 G01 X561.1208 Y1442.1506 Z18.0430 
N422 G01 X560.9665 Y1442.2809 Z17.9950 
N423 G01 X560.8071 Y1442.4039 Z17.9470 
N424 G01 X560.6431 Y1442.5200 Z17.8991 
N425 G01 X560.4752 Y1442.6287 Z17.8511 
N426 G01 X560.3035 Y1442.7296 Z17.8032 
N427 G01 X560.1289 Y1442.8228 Z17.7552 
N428 G01 X559.9518 Y1442.9081 Z17.7073 
N429 G01 X559.7726 Y1442.9855 Z17.6593 
N430 G01 X559.5919 Y1443.0549 Z17.6114 
N431 G01 X559.4102 Y1443.1165 Z17.5634 
N432 G01 X559.2280 Y1443.1700 Z17.5155 
N433 G01 X559.0457 Y1443.2159 Z17.4675 
N434 G01 X558.8638 Y1443.2543 Z17.4195 
N435 G01 X558.6827 Y1443.2850 Z17.3716 
N436 G01 X558.5029 Y1443.3086 Z17.3236 
N437 G01 X558.3247 Y1443.3251 Z17.2757 
N438 G01 X558.1484 Y1443.3348 Z17.2277 
N439 G01 X557.9745 Y1443.3379 Z17.1798 
N440 G01 X527.3555 Z9.5250 
N441 G01 X489.2555 Z9.5250 F5080.0
N442 G01 X5.5245
N443 G03 X0.7620 Y1438.5754 R4.7625 
N444 G01 Y727.3755 
N445 G03 X5.5245 Y722.6130 R4.7625 
N446 G01 X557.9745 
N447 G03 X562.7370 Y727.3755 R4.7625 
N448 G01 Y1438.5754 
N449 G03 X557.9745 Y1443.3379 R4.7625 
N450 G01 X527.3555 
N451 G01 X489.2555 Z0.0000 F3048.0
N452 G01 X5.5245 F5080.0
N453 G03 X0.7620 Y1438.5754 R4.7625 
N454 G01 Y727.3755 
N455 G03 X5.5245 Y722.6130 R4.7625 
N456 G01 X557.9745 
N457 G03 X562.7370 Y727.3755 R4.7625 
N458 G01 Y1438.5754 
N459 G03 X557.9745 Y1443.3379 R4.7625 
N460 G01 X527.3555 
N461 G01 X489.2555
N462 G00 Z24.1300
N463 G00 X557.9745 Y1444.1130
N464 G01 Z19.0500 F3048.0
N465 G01 X558.1484 Y1444.1162 Z19.0020 
N466 G01 X558.3247 Y1444.1259 Z18.9541 
N467 G01 X558.5029 Y1444.1423 Z18.9061 
N468 G01 X558.6827 Y1444.1659 Z18.8582 
N469 G01 X558.8638 Y1444.1967 Z18.8102 
N470 G01 X559.0457 Y1444.2350 Z18.7623 
N471 G01 X559.2280 Y1444.2809 Z18.7143 
N472 G01 X559.4102 Y1444.3345 Z18.6664 
N473 G01 X559.5919 Y1444.3960 Z18.6184 
N474 G01 X559.7726 Y1444.4655 Z18.5705 
N475 G01 X559.9518 Y1444.5428 Z18.5225 
N476 G01 X560.1289 Y1444.6282 Z18.4745 
N477 G01 X560.3035 Y1444.7213 Z18.4266 
N478 G01 X560.4752 Y1444.8223 Z18.3786 
N479 G01 X560.6431 Y1444.9309 Z18.3307 
N480 G01 X560.8071 Y1445.0470 Z18.2827 
N481 G01 X560.9665 Y1445.1702 Z18.2348 
N482 G01 X561.1208 Y1445.3003 Z18.1868 
N483 G01 X561.2698 Y1445.4371 Z18.1389 
N484 G01 X561.4128 Y1445.5802 Z18.0909 
N485 G01 X561.5496 Y1445.7291 Z18.0430 
N486 G01 X561.6798 Y1445.8835 Z17.9950 
N487 G01 X561.8030 Y1446.0430 Z17.9470 
N488 G01 X561.9191 Y1446.2069 Z17.8991 
N489 G01 X562.0276 Y1446.3749 Z17.8511 
N490 G01 X562.1286 Y1446.5464 Z17.8032 
N491 G01 X562.2218 Y1446.7211 Z17.7552 
N492 G01 X562.3071 Y1446.8982 Z17.7073 
N493 G01 X562.3845 Y1447.0774 Z17.6593 
N494 G01 X562.4539 Y1447.2581 Z17.6114 
N495 G01 X562.5154 Y1447.4398 Z17.5634 
N496 G01 X562.5691 Y1447.6219 Z17.5155 
N497 G01 X562.6150 Y1447.8043 Z17.4675 
N498 G01 X562.6533 Y1447.9862 Z17.4195 
N499 G01 X562.6841 Y1448.1674 Z17.3716 
N500 G01 X562.7076 Y1448.3470 Z17.3236 
N501 G01 X562.7241 Y1448.5253 Z17.2757 
N502 G01 X562.7338 Y1448.7015 Z17.2277 
N503 G01 X562.7370 Y1448.8755 Z17.1798 
N504 G01 Y1479.4945 Z9.5250 
N505 G01 Y1517.5946 Z9.5250 F5080.0
N506 G01 Y2160.0754
N507 G03 X557.9745 Y2164.8379 R4.7625 
N508 G01 X5.5245 
N509 G03 X0.7620 Y2160.0754 R4.7625 
N510 G01 Y1448.8755 
N511 G03 X5.5245 Y1444.1130 R4.7625 
N512 G01 X557.9745 
N513 G03 X562.7370 Y1448.8755 R4.7625 
N514 G01 Y1479.4945 
N515 G01 Y1517.5946 Z0.0000 F3048.0
N516 G01 Y2160.0754 F5080.0
N517 G03 X557.9745 Y2164.8379 R4.7625 
N518 G01 X5.5245 
N519 G03 X0.7620 Y2160.0754 R4.7625 
N520 G01 Y1448.8755 
N521 G03 X5.5245 Y1444.1130 R4.7625 
N522 G01 X557.9745 
N523 G03 X562.7370 Y1448.8755 R4.7625 
N524 G01 Y1479.4945 
N525 G01 Y1517.5946
N526 G00 Z24.1300
N527 G00 X556.3870 Y2173.1567
N528 G01 Z19.0500 F3048.0
N529 G01 X556.5609 Y2173.1599 Z19.0020 
N530 G01 X556.7372 Y2173.1697 Z18.9541 
N531 G01 X556.9153 Y2173.1860 Z18.9061 
N532 G01 X557.0952 Y2173.2097 Z18.8582 
N533 G01 X557.2763 Y2173.2405 Z18.8102 
N534 G01 X557.4582 Y2173.2788 Z18.7623 
N535 G01 X557.6404 Y2173.3247 Z18.7143 
N536 G01 X557.8227 Y2173.3784 Z18.6664 
N537 G01 X558.0044 Y2173.4397 Z18.6184 
N538 G01 X558.1851 Y2173.5093 Z18.5705 
N539 G01 X558.3643 Y2173.5867 Z18.5225 
N540 G01 X558.5414 Y2173.6719 Z18.4745 
N541 G01 X558.7160 Y2173.7651 Z18.4266 
N542 G01 X558.8876 Y2173.8662 Z18.3786 
N543 G01 X559.0557 Y2173.9746 Z18.3307 
N544 G01 X559.2196 Y2174.0908 Z18.2827 
N545 G01 X559.3790 Y2174.2139 Z18.2348 
N546 G01 X559.5334 Y2174.3440 Z18.1868 
N547 G01 X559.6823 Y2174.4807 Z18.1389 
N548 G01 X559.8254 Y2174.6238 Z18.0909 
N549 G01 X559.9622 Y2174.7729 Z18.0430 
N550 G01 X560.0923 Y2174.9272 Z17.9950 
N551 G01 X560.2156 Y2175.0867 Z17.9470 
N552 G01 X560.3316 Y2175.2505 Z17.8991 
N553 G01 X560.4401 Y2175.4185 Z17.8511 
N554 G01 X560.5411 Y2175.5903 Z17.8032 
N555 G01 X560.6343 Y2175.7649 Z17.7552 
N556 G01 X560.7197 Y2175.9419 Z17.7073 
N557 G01 X560.7970 Y2176.1211 Z17.6593 
N558 G01 X560.8665 Y2176.3018 Z17.6114 
N559 G01 X560.9279 Y2176.4836 Z17.5634 
N560 G01 X560.9816 Y2176.6658 Z17.5155 
N561 G01 X561.0275 Y2176.8481 Z17.4675 
N562 G01 X561.0657 Y2177.0298 Z17.4195 
N563 G01 X561.0966 Y2177.2112 Z17.3716 
N564 G01 X561.1201 Y2177.3909 Z17.3236 
N565 G01 X561.1366 Y2177.5691 Z17.2757 
N566 G01 X561.1463 Y2177.7454 Z17.2277 
N567 G01 X561.1495 Y2177.9192 Z17.1798 
N568 G01 Y2208.5383 Z9.5250 
N569 G01 Y2246.6382 Z9.5250 F5080.0
N570 G01 Y2404.9316
N571 G03 X556.3870 Y2409.6941 R4.7625 
N572 G01 X5.5245 
N573 G03 X0.7620 Y2404.9316 R4.7625 
N574 G01 Y2177.9192 
N575 G03 X5.5245 Y2173.1567 R4.7625 
N576 G01 X556.3870 
N577 G03 X561.1495 Y2177.9192 R4.7625 
N578 G01 Y2208.5383 
N579 G01 Y2246.6382 Z0.0000 F3048.0
N580 G01 Y2404.9316 F5080.0
N581 G03 X556.3870 Y2409.6941 R4.7625 
N582 G01 X5.5245 
N583 G03 X0.7620 Y2404.9316 R4.7625 
N584 G01 Y2177.9192 
N585 G03 X5.5245 Y2173.1567 R4.7625 
N586 G01 X556.3870 
N587 G03 X561.1495 Y2177.9192 R4.7625 
N588 G01 Y2208.5383 
N589 G01 Y2246.6382
N590 G00 Z24.1300
N591 G00 G53 G49 Z0
N592 G00 G53 X0.0000 Y0.0000 M05
N593 M30
