(VECTRIC POST REVISION)
(FFCFDDC6601FDE93278A86ECDC292DD1)
 (9.29.25_PreFin04_5-6-Slide Holes)
(CREATED Monday September 29 2025)
( Material Size)
( X= 1231.900, Y= 2451.100, Z= 19.050)
(Tools used in this file: )
(T4 = #46125-K SC UPCUT SPIRAL 1/8" DIA.x1/4" shank Spektra)
(T1 = #46367-K SC MORTISE 2 FL 3/8" DIAx7/8x3/8" Shank Spektra)
N9 G00 G17 G71 G40 G49 G80 G90
N10 G54
N11 G53 Z0
N12 (Tool: #46125-K SC UPCUT SPIRAL 1/8" DIA.x1/4" shank Spektra)
N13 T4 M06
N14 M03 S6000
N15 G43 H4 Z24.1300
N16 G00 X42.8307 Y2270.8318
N17 G00 Z24.1300
N18 G01 Z17.0180 F762.0
N19 G00 Z24.1300
N20 G00 X13.3920 Y2375.2786
N21 G01 Z17.0180 F762.0
N22 G00 Z24.1300
N23 G00 X504.7933 Y2270.8318
N24 G01 Z17.0180 F762.0
N25 G00 Z24.1300
N26 G00 G53 G49 Z0
N27 M05
N28 (Tool: #46367-K SC MORTISE 2 FL 3/8" DIAx7/8x3/8" Shank Spektra)
N29 T1 M06
N30 G00 G43 H1 Z24.1300
N31 M03 S18000
N32 M03 S18000
N33 G00 X5.5245 Y1.1630
N34 G00 Z24.1300
N35 G01 Z19.0500 F3048.0
N36 G01 X43.6245 Z9.5250 
N37 G01 X81.7245 F5080.0
N38 G01 X1062.7994
N39 G03 X1067.5620 Y5.9255 R4.7625 
N40 G01 Y952.0755 
N41 G03 X1062.7994 Y956.8380 R4.7625 
N42 G01 X5.5245 
N43 G03 X0.7620 Y952.0755 R4.7625 
N44 G01 Y5.9255 
N45 G03 X5.5245 Y1.1630 R4.7625 
N46 G01 X43.6245 
N47 G01 X81.7245 Z0.0000 F3048.0
N48 G01 X1062.7994 F5080.0
N49 G03 X1067.5620 Y5.9255 R4.7625 
N50 G01 Y952.0755 
N51 G03 X1062.7994 Y956.8380 R4.7625 
N52 G01 X5.5245 
N53 G03 X0.7620 Y952.0755 R4.7625 
N54 G01 Y5.9255 
N55 G03 X5.5245 Y1.1630 R4.7625 
N56 G01 X43.6245 
N57 G01 X81.7245
N58 G00 Z24.1300
N59 G00 X765.5245 Y958.0380
N60 G01 Z19.0500 F3048.0
N61 G01 X803.6245 Z9.5250 
N62 G01 X841.7245 F5080.0
N63 G01 X1076.6744
N64 G03 X1081.4370 Y962.8005 R4.7625 
N65 G01 Y2020.0756 
N66 G03 X1076.6744 Y2024.8380 R4.7625 
N67 G01 X765.5245 
N68 G03 X760.7620 Y2020.0756 R4.7625 
N69 G01 Y962.8005 
N70 G03 X765.5245 Y958.0380 R4.7625 
N71 G01 X803.6245 
N72 G01 X841.7245 Z0.0000 F3048.0
N73 G01 X1076.6744 F5080.0
N74 G03 X1081.4370 Y962.8005 R4.7625 
N75 G01 Y2020.0756 
N76 G03 X1076.6744 Y2024.8380 R4.7625 
N77 G01 X765.5245 
N78 G03 X760.7620 Y2020.0756 R4.7625 
N79 G01 Y962.8005 
N80 G03 X765.5245 Y958.0380 R4.7625 
N81 G01 X803.6245 
N82 G01 X841.7245
N83 G00 Z24.1300
N84 G00 X557.9745 Y2228.7629
N85 G01 Z19.0500 F3048.0
N86 G01 X558.1484 Y2228.7661 Z19.0020 
N87 G01 X558.3247 Y2228.7759 Z18.9541 
N88 G01 X558.5029 Y2228.7925 Z18.9061 
N89 G01 X558.6827 Y2228.8159 Z18.8582 
N90 G01 X558.8638 Y2228.8467 Z18.8102 
N91 G01 X559.0457 Y2228.8850 Z18.7623 
N92 G01 X559.2280 Y2228.9309 Z18.7143 
N93 G01 X559.4102 Y2228.9844 Z18.6664 
N94 G01 X559.5919 Y2229.0461 Z18.6184 
N95 G01 X559.7726 Y2229.1155 Z18.5705 
N96 G01 X559.9518 Y2229.1929 Z18.5225 
N97 G01 X560.1289 Y2229.2783 Z18.4745 
N98 G01 X560.3035 Y2229.3713 Z18.4266 
N99 G01 X560.4752 Y2229.4722 Z18.3786 
N100 G01 X560.6431 Y2229.5808 Z18.3307 
N101 G01 X560.8071 Y2229.6970 Z18.2827 
N102 G01 X560.9665 Y2229.8201 Z18.2348 
N103 G01 X561.1208 Y2229.9502 Z18.1868 
N104 G01 X561.2698 Y2230.0872 Z18.1389 
N105 G01 X561.4128 Y2230.2302 Z18.0909 
N106 G01 X561.5496 Y2230.3792 Z18.0430 
N107 G01 X561.6798 Y2230.5334 Z17.9950 
N108 G01 X561.8030 Y2230.6929 Z17.9470 
N109 G01 X561.9191 Y2230.8569 Z17.8991 
N110 G01 X562.0276 Y2231.0249 Z17.8511 
N111 G01 X562.1286 Y2231.1963 Z17.8032 
N112 G01 X562.2218 Y2231.3708 Z17.7552 
N113 G01 X562.3071 Y2231.5483 Z17.7073 
N114 G01 X562.3845 Y2231.7273 Z17.6593 
N115 G01 X562.4539 Y2231.9082 Z17.6114 
N116 G01 X562.5154 Y2232.0896 Z17.5634 
N117 G01 X562.5691 Y2232.2720 Z17.5155 
N118 G01 X562.6150 Y2232.4541 Z17.4675 
N119 G01 X562.6533 Y2232.6362 Z17.4195 
N120 G01 X562.6841 Y2232.8171 Z17.3716 
N121 G01 X562.7076 Y2232.9971 Z17.3236 
N122 G01 X562.7241 Y2233.1753 Z17.2757 
N123 G01 X562.7338 Y2233.3513 Z17.2277 
N124 G01 X562.7370 Y2233.5254 Z17.1798 
N125 G01 Y2264.1445 Z9.5250 
N126 G01 Y2267.6570 Z9.5250 F5080.0
N127 G01 Y2283.5320
N128 G01 Y2302.2446
N129 G01 Y2379.5754
N130 G03 X557.9745 Y2384.3379 R4.7625 
N131 G01 X64.6522 
N132 G01 X48.7772
N133 G01 X5.5245
N134 G03 X0.7620 Y2379.5754 R4.7625 
N135 G01 Y2233.5254 
N136 G03 X5.5245 Y2228.7629 R4.7625 
N137 G01 X557.9745 
N138 G03 X562.7370 Y2233.5254 R4.7625 
N139 G01 Y2264.1445 
N140 G01 Y2267.6570 Z8.6469 F3048.0
N141 G01 Y2283.5320 Z4.6781 
N142 G01 Y2302.2446 Z0.0000 
N143 G01 Y2379.5754 F5080.0
N144 G03 X557.9745 Y2384.3379 R4.7625 
N145 G01 X64.6522 
N146 G01 Z1.1430
N147 G01 X48.7772
N148 G01 Z0.0000 F3048.0
N149 G01 X5.5245 F5080.0
N150 G03 X0.7620 Y2379.5754 R4.7625 
N151 G01 Y2233.5254 
N152 G03 X5.5245 Y2228.7629 R4.7625 
N153 G01 X557.9745 
N154 G03 X562.7370 Y2233.5254 R4.7625 
N155 G01 Y2264.1445 
N156 G01 Y2267.6570
N157 G01 Z1.1430
N158 G01 Y2283.5320
N159 G01 Z0.0000 F3048.0
N160 G01 Y2302.2446 F5080.0
N161 G00 Z24.1300
N162 G00 X754.8245 Y2227.8381
N163 G01 Z19.0500 F3048.0
N164 G01 X716.7245 Z9.5250 
N165 G01 X678.6245 F5080.0
N166 G01 X5.5245
N167 G03 X0.7620 Y2223.0754 R4.7625 
N168 G01 Y962.6005 
N169 G03 X5.5245 Y957.8380 R4.7625 
N170 G01 X754.8245 
N171 G03 X759.5870 Y962.6005 R4.7625 
N172 G01 Y2223.0754 
N173 G03 X754.8245 Y2227.8381 R4.7625 
N174 G01 X716.7245 
N175 G01 X678.6245 Z0.0000 F3048.0
N176 G01 X5.5245 F5080.0
N177 G03 X0.7620 Y2223.0754 R4.7625 
N178 G01 Y962.6005 
N179 G03 X5.5245 Y957.8380 R4.7625 
N180 G01 X754.8245 
N181 G03 X759.5870 Y962.6005 R4.7625 
N182 G01 Y2223.0754 
N183 G03 X754.8245 Y2227.8381 R4.7625 
N184 G01 X716.7245 
N185 G01 X678.6245
N186 G00 Z24.1300
N187 G00 G53 G49 Z0
N188 G00 G53 X0.0000 Y0.0000 M05
N189 M30
