(VECTRIC POST REVISION)
(FFCFDDC6601FDE93278A86ECDC292DD1)
 (9.29.25_PreFin10_23-24-Pin Pocket)
(CREATED Monday September 29 2025)
( Material Size)
( X= 1231.900, Y= 2451.100, Z= 19.050)
(Tools used in this file: )
(T1 = #46367-K SC MORTISE 2 FL 3/8" DIAx7/8x3/8" Shank Spektra)
N8 G00 G17 G71 G40 G49 G80 G90
N9 G54
N10 G53 Z0
N11 (Tool: #46367-K SC MORTISE 2 FL 3/8" DIAx7/8x3/8" Shank Spektra)
N12 T1 M06
N13 M03 S18000
N14 G43 H1 Z24.1300
N15 G00 X55.3886 Y10.7279
N16 G00 Z24.1300
N17 G01 Z19.0500 F3048.0
N18 G01 Y20.3481 Z18.2640 
N19 G01 X55.4839 Z18.2563 
N20 G01 Y10.7279 Z17.4703 
N21 G01 X55.3886 Z17.4625 
N22 G01 X55.4839 Z17.4547 
N23 G01 Y20.3481 Z16.6687 
N24 G01 X55.3886 Z16.6610 
N25 G01 Y10.7279 Z15.8750 
N26 G01 Y20.3481 F5080.0
N27 G01 X55.4839
N28 G01 Y10.7279
N29 G01 X55.3886
N30 G00 Z24.1300
N31 G00 X265.1276
N32 G01 Z19.0500 F3048.0
N33 G01 Y20.3481 Z18.2640 
N34 G01 X265.2229 Z18.2563 
N35 G01 Y10.7279 Z17.4703 
N36 G01 X265.1276 Z17.4625 
N37 G01 X265.2229 Z17.4547 
N38 G01 Y20.3481 Z16.6687 
N39 G01 X265.1276 Z16.6610 
N40 G01 Y10.7279 Z15.8750 
N41 G01 Y20.3481 F5080.0
N42 G01 X265.2229
N43 G01 Y10.7279
N44 G01 X265.1276
N45 G00 Z24.1300
N46 G00 Y491.7404
N47 G01 Z19.0500 F3048.0
N48 G01 Y501.3606 Z18.2640 
N49 G01 X265.2229 Z18.2563 
N50 G01 Y491.7404 Z17.4703 
N51 G01 X265.1276 Z17.4625 
N52 G01 X265.2229 Z17.4547 
N53 G01 Y501.3606 Z16.6687 
N54 G01 X265.1276 Z16.6610 
N55 G01 Y491.7404 Z15.8750 
N56 G01 Y501.3606 F5080.0
N57 G01 X265.2229
N58 G01 Y491.7404
N59 G01 X265.1276
N60 G00 Z24.1300
N61 G00 X264.9230 Y521.2278
N62 G01 Z19.0500 F3048.0
N63 G01 Y530.8481 Z18.2640 
N64 G01 X265.0182 Z18.2563 
N65 G01 Y521.2278 Z17.4703 
N66 G01 X264.9230 Z17.4625 
N67 G01 X265.0182 Z17.4547 
N68 G01 Y530.8481 Z16.6687 
N69 G01 X264.9230 Z16.6610 
N70 G01 Y521.2278 Z15.8750 
N71 G01 Y530.8481 F5080.0
N72 G01 X265.0182
N73 G01 Y521.2278
N74 G01 X264.9230
N75 G00 Z24.1300
N76 G00 X55.5933
N77 G01 Z19.0500 F3048.0
N78 G01 Y530.8481 Z18.2640 
N79 G01 X55.6885 Z18.2563 
N80 G01 Y521.2278 Z17.4703 
N81 G01 X55.5933 Z17.4625 
N82 G01 X55.6885 Z17.4547 
N83 G01 Y530.8481 Z16.6687 
N84 G01 X55.5933 Z16.6610 
N85 G01 Y521.2278 Z15.8750 
N86 G01 Y530.8481 F5080.0
N87 G01 X55.6885
N88 G01 Y521.2278
N89 G01 X55.5933
N90 G00 Z24.1300
N91 G00 X55.3886 Y491.7404
N92 G01 Z19.0500 F3048.0
N93 G01 Y501.3606 Z18.2640 
N94 G01 X55.4839 Z18.2563 
N95 G01 Y491.7404 Z17.4703 
N96 G01 X55.3886 Z17.4625 
N97 G01 X55.4839 Z17.4547 
N98 G01 Y501.3606 Z16.6687 
N99 G01 X55.3886 Z16.6610 
N100 G01 Y491.7404 Z15.8750 
N101 G01 Y501.3606 F5080.0
N102 G01 X55.4839
N103 G01 Y491.7404
N104 G01 X55.3886
N105 G00 Z24.1300
N106 G00 X55.5933 Y1002.2404
N107 G01 Z19.0500 F3048.0
N108 G01 Y1011.8606 Z18.2640 
N109 G01 X55.6885 Z18.2563 
N110 G01 Y1002.2404 Z17.4703 
N111 G01 X55.5933 Z17.4625 
N112 G01 X55.6885 Z17.4547 
N113 G01 Y1011.8606 Z16.6687 
N114 G01 X55.5933 Z16.6610 
N115 G01 Y1002.2404 Z15.8750 
N116 G01 Y1011.8606 F5080.0
N117 G01 X55.6885
N118 G01 Y1002.2404
N119 G01 X55.5933
N120 G00 Z24.1300
N121 G00 Y1031.7279
N122 G01 Z19.0500 F3048.0
N123 G01 Y1041.3481 Z18.2640 
N124 G01 X55.6885 Z18.2563 
N125 G01 Y1031.7279 Z17.4703 
N126 G01 X55.5933 Z17.4625 
N127 G01 X55.6885 Z17.4547 
N128 G01 Y1041.3481 Z16.6687 
N129 G01 X55.5933 Z16.6610 
N130 G01 Y1031.7279 Z15.8750 
N131 G01 Y1041.3481 F5080.0
N132 G01 X55.6885
N133 G01 Y1031.7279
N134 G01 X55.5933
N135 G00 Z24.1300
N136 G00 X264.9230
N137 G01 Z19.0500 F3048.0
N138 G01 Y1041.3481 Z18.2640 
N139 G01 X265.0182 Z18.2563 
N140 G01 Y1031.7279 Z17.4703 
N141 G01 X264.9230 Z17.4625 
N142 G01 X265.0182 Z17.4547 
N143 G01 Y1041.3481 Z16.6687 
N144 G01 X264.9230 Z16.6610 
N145 G01 Y1031.7279 Z15.8750 
N146 G01 Y1041.3481 F5080.0
N147 G01 X265.0182
N148 G01 Y1031.7279
N149 G01 X264.9230
N150 G00 Z24.1300
N151 G00 Y1002.2404
N152 G01 Z19.0500 F3048.0
N153 G01 Y1011.8606 Z18.2640 
N154 G01 X265.0182 Z18.2563 
N155 G01 Y1002.2404 Z17.4703 
N156 G01 X264.9230 Z17.4625 
N157 G01 X265.0182 Z17.4547 
N158 G01 Y1011.8606 Z16.6687 
N159 G01 X264.9230 Z16.6610 
N160 G01 Y1002.2404 Z15.8750 
N161 G01 Y1011.8606 F5080.0
N162 G01 X265.0182
N163 G01 Y1002.2404
N164 G01 X264.9230
N165 G00 Z24.1300
N166 G00 Y1512.7404
N167 G01 Z19.0500 F3048.0
N168 G01 Y1522.3606 Z18.2640 
N169 G01 X265.0182 Z18.2563 
N170 G01 Y1512.7404 Z17.4703 
N171 G01 X264.9230 Z17.4625 
N172 G01 X265.0182 Z17.4547 
N173 G01 Y1522.3606 Z16.6687 
N174 G01 X264.9230 Z16.6610 
N175 G01 Y1512.7404 Z15.8750 
N176 G01 Y1522.3606 F5080.0
N177 G01 X265.0182
N178 G01 Y1512.7404
N179 G01 X264.9230
N180 G00 Z24.1300
N181 G00 X265.1276 Y1542.2278
N182 G01 Z19.0500 F3048.0
N183 G01 Y1551.8480 Z18.2640 
N184 G01 X265.2229 Z18.2562 
N185 G01 Y1542.2278 Z17.4703 
N186 G01 X265.1276 Z17.4625 
N187 G01 X265.2229 Z17.4547 
N188 G01 Y1551.8480 Z16.6687 
N189 G01 X265.1276 Z16.6610 
N190 G01 Y1542.2278 Z15.8750 
N191 G01 Y1551.8480 F5080.0
N192 G01 X265.2229
N193 G01 Y1542.2278
N194 G01 X265.1276
N195 G00 Z24.1300
N196 G00 X55.3886
N197 G01 Z19.0500 F3048.0
N198 G01 Y1551.8480 Z18.2640 
N199 G01 X55.4839 Z18.2562 
N200 G01 Y1542.2278 Z17.4703 
N201 G01 X55.3886 Z17.4625 
N202 G01 X55.4839 Z17.4547 
N203 G01 Y1551.8480 Z16.6687 
N204 G01 X55.3886 Z16.6610 
N205 G01 Y1542.2278 Z15.8750 
N206 G01 Y1551.8480 F5080.0
N207 G01 X55.4839
N208 G01 Y1542.2278
N209 G01 X55.3886
N210 G00 Z24.1300
N211 G00 X55.5933 Y1512.7404
N212 G01 Z19.0500 F3048.0
N213 G01 Y1522.3606 Z18.2640 
N214 G01 X55.6885 Z18.2563 
N215 G01 Y1512.7404 Z17.4703 
N216 G01 X55.5933 Z17.4625 
N217 G01 X55.6885 Z17.4547 
N218 G01 Y1522.3606 Z16.6687 
N219 G01 X55.5933 Z16.6610 
N220 G01 Y1512.7404 Z15.8750 
N221 G01 Y1522.3606 F5080.0
N222 G01 X55.6885
N223 G01 Y1512.7404
N224 G01 X55.5933
N225 G00 Z24.1300
N226 G00 X55.3886 Y2023.2405
N227 G01 Z19.0500 F3048.0
N228 G01 Y2032.8606 Z18.2640 
N229 G01 X55.4839 Z18.2563 
N230 G01 Y2023.2405 Z17.4703 
N231 G01 X55.3886 Z17.4625 
N232 G01 X55.4839 Z17.4547 
N233 G01 Y2032.8606 Z16.6687 
N234 G01 X55.3886 Z16.6610 
N235 G01 Y2023.2405 Z15.8750 
N236 G01 Y2032.8606 F5080.0
N237 G01 X55.4839
N238 G01 Y2023.2405
N239 G01 X55.3886
N240 G00 Z24.1300
N241 G00 X265.1276
N242 G01 Z19.0500 F3048.0
N243 G01 Y2032.8606 Z18.2640 
N244 G01 X265.2229 Z18.2563 
N245 G01 Y2023.2405 Z17.4703 
N246 G01 X265.1276 Z17.4625 
N247 G01 X265.2229 Z17.4547 
N248 G01 Y2032.8606 Z16.6687 
N249 G01 X265.1276 Z16.6610 
N250 G01 Y2023.2405 Z15.8750 
N251 G01 Y2032.8606 F5080.0
N252 G01 X265.2229
N253 G01 Y2023.2405
N254 G01 X265.1276
N255 G00 Z24.1300
N256 M03 S18000
N257 G00 X5.5245 Y8.3942 Z24.1300
N258 G01 Z19.0500 F3048.0
N259 G01 X43.6245 Z9.5250 
N260 G01 X81.7245 F5080.0
N261 G01 X315.0870
N262 G03 X319.8495 Y13.1568 R4.7625 
N263 G01 Y498.9318 
N264 G03 X315.0870 Y503.6942 R4.7625 
N265 G01 X5.5245 
N266 G03 X0.7620 Y498.9318 R4.7625 
N267 G01 Y13.1568 
N268 G03 X5.5245 Y8.3942 R4.7625 
N269 G01 X43.6245 
N270 G01 X81.7245 Z0.0000 F3048.0
N271 G01 X315.0870 F5080.0
N272 G03 X319.8495 Y13.1568 R4.7625 
N273 G01 Y498.9318 
N274 G03 X315.0870 Y503.6942 R4.7625 
N275 G01 X5.5245 
N276 G03 X0.7620 Y498.9318 R4.7625 
N277 G01 Y13.1568 
N278 G03 X5.5245 Y8.3942 R4.7625 
N279 G01 X43.6245 
N280 G01 X81.7245
N281 G00 Z24.1300
N282 G00 X5.5245 Y518.8942
N283 G01 Z19.0500 F3048.0
N284 G01 X43.6245 Z9.5250 
N285 G01 X81.7245 F5080.0
N286 G01 X315.0870
N287 G03 X319.8495 Y523.6567 R4.7625 
N288 G01 Y1009.4318 
N289 G03 X315.0870 Y1014.1943 R4.7625 
N290 G01 X5.5245 
N291 G03 X0.7620 Y1009.4318 R4.7625 
N292 G01 Y523.6567 
N293 G03 X5.5245 Y518.8942 R4.7625 
N294 G01 X43.6245 
N295 G01 X81.7245 Z0.0000 F3048.0
N296 G01 X315.0870 F5080.0
N297 G03 X319.8495 Y523.6567 R4.7625 
N298 G01 Y1009.4318 
N299 G03 X315.0870 Y1014.1943 R4.7625 
N300 G01 X5.5245 
N301 G03 X0.7620 Y1009.4318 R4.7625 
N302 G01 Y523.6567 
N303 G03 X5.5245 Y518.8942 R4.7625 
N304 G01 X43.6245 
N305 G01 X81.7245
N306 G00 Z24.1300
N307 G00 X5.5245 Y1029.3942
N308 G01 Z19.0500 F3048.0
N309 G01 X43.6245 Z9.5250 
N310 G01 X81.7245 F5080.0
N311 G01 X315.0870
N312 G03 X319.8495 Y1034.1567 R4.7625 
N313 G01 Y1519.9318 
N314 G03 X315.0870 Y1524.6942 R4.7625 
N315 G01 X5.5245 
N316 G03 X0.7620 Y1519.9318 R4.7625 
N317 G01 Y1034.1567 
N318 G03 X5.5245 Y1029.3942 R4.7625 
N319 G01 X43.6245 
N320 G01 X81.7245 Z0.0000 F3048.0
N321 G01 X315.0870 F5080.0
N322 G03 X319.8495 Y1034.1567 R4.7625 
N323 G01 Y1519.9318 
N324 G03 X315.0870 Y1524.6942 R4.7625 
N325 G01 X5.5245 
N326 G03 X0.7620 Y1519.9318 R4.7625 
N327 G01 Y1034.1567 
N328 G03 X5.5245 Y1029.3942 R4.7625 
N329 G01 X43.6245 
N330 G01 X81.7245
N331 G00 Z24.1300
N332 G00 X5.5245 Y1539.8943
N333 G01 Z19.0500 F3048.0
N334 G01 X43.6245 Z9.5250 
N335 G01 X81.7245 F5080.0
N336 G01 X315.0870
N337 G03 X319.8495 Y1544.6567 R4.7625 
N338 G01 Y2030.4316 
N339 G03 X315.0870 Y2035.1942 R4.7625 
N340 G01 X5.5245 
N341 G03 X0.7620 Y2030.4316 R4.7625 
N342 G01 Y1544.6567 
N343 G03 X5.5245 Y1539.8943 R4.7625 
N344 G01 X43.6245 
N345 G01 X81.7245 Z0.0000 F3048.0
N346 G01 X315.0870 F5080.0
N347 G03 X319.8495 Y1544.6567 R4.7625 
N348 G01 Y2030.4316 
N349 G03 X315.0870 Y2035.1942 R4.7625 
N350 G01 X5.5245 
N351 G03 X0.7620 Y2030.4316 R4.7625 
N352 G01 Y1544.6567 
N353 G03 X5.5245 Y1539.8943 R4.7625 
N354 G01 X43.6245 
N355 G01 X81.7245
N356 G00 Z24.1300
N357 G00 G53 G49 Z0
N358 G00 G53 X0.0000 Y0.0000 M05
N359 M30
