(VECTRIC POST REVISION)
(FFCFDDC6601FDE93278A86ECDC292DD1)
 (9.29.25_PreFin08_17-19-Slide Holes)
(CREATED Monday September 29 2025)
( Material Size)
( X= 1231.900, Y= 2451.100, Z= 19.050)
(Tools used in this file: )
(T4 = #46125-K SC UPCUT SPIRAL 1/8" DIA.x1/4" shank Spektra)
(T3 = #46211-K SC DOWNCUT SPIRAL 2 FL 5MMx3/4x1/4" Shank)
(T1 = #46367-K SC MORTISE 2 FL 3/8" DIAx7/8x3/8" Shank Spektra)
N10 G00 G17 G71 G40 G49 G80 G90
N11 G54
N12 G53 Z0
N13 (Tool: #46125-K SC UPCUT SPIRAL 1/8" DIA.x1/4" shank Spektra)
N14 T4 M06
N15 M03 S6000
N16 G43 H4 Z24.1300
N17 G00 X42.8307 Y43.1818
N18 G00 Z24.1300
N19 G01 Z17.0180 F762.0
N20 G00 Z24.1300
N21 G00 X504.7933
N22 G01 Z17.0180 F762.0
N23 G00 Z24.1300
N24 G00 Y325.7567
N25 G01 Z17.0180 F762.0
N26 G00 Z24.1300
N27 G00 X42.8307
N28 G01 Z17.0180 F762.0
N29 G00 Z24.1300
N30 G00 X504.7933 Y608.3317
N31 G01 Z17.0180 F762.0
N32 G00 Z24.1300
N33 G00 X42.8307
N34 G01 Z17.0180 F762.0
N35 G00 Z24.1300
N36 G00 X9.8286 Y712.1078
N37 G01 Z17.0180 F762.0
N38 G00 Z24.1300
N39 G00 X58.7057 Y1329.8317
N40 G01 Z17.0180 F762.0
N41 G00 Z24.1300
N42 G00 X520.6683
N43 G01 Z17.0180 F762.0
N44 G00 Z24.1300
N45 G00 X550.1070 Y1434.2787
N46 G01 Z17.0180 F762.0
N47 G00 Z24.1300
N48 G00 X504.7933 Y2051.3318
N49 G01 Z17.0180 F762.0
N50 G00 Z24.1300
N51 G00 X42.8307
N52 G01 Z17.0180 F762.0
N53 G00 Z24.1300
N54 G00 X13.3920 Y2155.7786
N55 G01 Z17.0180 F762.0
N56 G00 Z24.1300
N57 G00 G53 G49 Z0
N58 M05
N59 (Tool: #46211-K SC DOWNCUT SPIRAL 2 FL 5MMx3/4x1/4" Shank)
N60 T3 M06
N61 G00 G43 H3 Z24.1300
N62 M03 S6000
N63 M03 S6000
N64 G00 X56.3245 Y936.9255
N65 G00 Z24.1300
N66 G01 Z6.3500 F2540.0
N67 G00 Z24.1300
N68 G00 Y975.0255
N69 G01 Z6.3500 F2540.0
N70 G00 Z24.1300
N71 G00 Y1013.1254
N72 G01 Z6.3500 F2540.0
N73 G00 Z24.1300
N74 G00 X507.1745 Y975.0255
N75 G01 Z6.3500 F2540.0
N76 G00 Z24.1300
N77 G00 Y936.9255
N78 G01 Z6.3500 F2540.0
N79 G00 Z24.1300
N80 G00 Y1013.1254
N81 G01 Z6.3500 F2540.0
N82 G00 Z24.1300
N83 G00 X605.8307 Y1923.0004
N84 G01 Z6.3500 F2540.0
N85 G00 Z24.1300
N86 G00 Y1955.0004
N87 G01 Z6.3500 F2540.0
N88 G00 Z24.1300
N89 G00 Y2151.6003
N90 G01 Z6.3500 F2540.0
N91 G00 Z24.1300
N92 G00 Y2168.1245
N93 G01 Z6.3500 F2540.0
N94 G00 Z24.1300
N95 G00 Y2183.6003
N96 G01 Z6.3500 F2540.0
N97 G00 Z24.1300
N98 G00 X940.8245 Y325.1130
N99 G01 Z6.3500 F2540.0
N100 G00 Z24.1300
N101 G00 Y287.0130
N102 G01 Z6.3500 F2540.0
N103 G00 Z24.1300
N104 G00 Y248.9130
N105 G01 Z6.3500 F2540.0
N106 G00 Z24.1300
N107 G00 Y548.9505
N108 G01 Z6.3500 F2540.0
N109 G00 Z24.1300
N110 G00 Y587.0505
N111 G01 Z6.3500 F2540.0
N112 G00 Z24.1300
N113 G00 Y625.1505
N114 G01 Z6.3500 F2540.0
N115 G00 Z24.1300
N116 G00 X1163.8682 Y767.9005
N117 G01 Z6.3500 F2540.0
N118 G00 Z24.1300
N119 G00 Y784.3896
N120 G01 Z6.3500 F2540.0
N121 G00 Z24.1300
N122 G00 Y799.9005
N123 G01 Z6.3500 F2540.0
N124 G00 Z24.1300
N125 G00 X1150.3744 Y625.1505
N126 G01 Z6.3500 F2540.0
N127 G00 Z24.1300
N128 G00 Y587.0505
N129 G01 Z6.3500 F2540.0
N130 G00 Z24.1300
N131 G00 Y548.9505
N132 G01 Z6.3500 F2540.0
N133 G00 Z24.1300
N134 G00 Y325.1130
N135 G01 Z6.3500 F2540.0
N136 G00 Z24.1300
N137 G00 Y287.0130
N138 G01 Z6.3500 F2540.0
N139 G00 Z24.1300
N140 G00 Y248.9130
N141 G01 Z6.3500 F2540.0
N142 G00 Z24.1300
N143 G00 X1163.8682 Y126.8005
N144 G01 Z6.3500 F2540.0
N145 G00 Z24.1300
N146 G00 Y94.8005
N147 G01 Z6.3500 F2540.0
N148 G00 Z24.1300
N149 G00 G53 G49 Z0
N150 M05
N151 (Tool: #46367-K SC MORTISE 2 FL 3/8" DIAx7/8x3/8" Shank Spektra)
N152 T1 M06
N153 G00 G43 H1 Z24.1300
N154 M03 S18000
N155 M03 S18000
N156 G00 X5.5245 Y1.1130
N157 G00 Z24.1300
N158 G01 Z19.0500 F3048.0
N159 G01 X43.6245 Z9.5250 
N160 G01 X81.7245 F5080.0
N161 G01 X557.9745
N162 G03 X562.7370 Y5.8755 R4.7625 
N163 G01 Y717.0755 
N164 G03 X557.9745 Y721.8380 R4.7625 
N165 G01 X5.5245 
N166 G03 X0.7620 Y717.0755 R4.7625 
N167 G01 Y5.8755 
N168 G03 X5.5245 Y1.1130 R4.7625 
N169 G01 X43.6245 
N170 G01 X81.7245 Z0.0000 F3048.0
N171 G01 X557.9745 F5080.0
N172 G03 X562.7370 Y5.8755 R4.7625 
N173 G01 Y717.0755 
N174 G03 X557.9745 Y721.8380 R4.7625 
N175 G01 X5.5245 
N176 G03 X0.7620 Y717.0755 R4.7625 
N177 G01 Y5.8755 
N178 G03 X5.5245 Y1.1130 R4.7625 
N179 G01 X43.6245 
N180 G01 X81.7245
N181 G00 Z24.1300
N182 G00 X5.5245 Y722.6130
N183 G01 Z19.0500 F3048.0
N184 G01 X43.6245 Z9.5250 
N185 G01 X81.7245 F5080.0
N186 G01 X557.9745
N187 G03 X562.7370 Y727.3755 R4.7625 
N188 G01 Y1438.5754 
N189 G03 X557.9745 Y1443.3379 R4.7625 
N190 G01 X5.5245 
N191 G03 X0.7620 Y1438.5754 R4.7625 
N192 G01 Y727.3755 
N193 G03 X5.5245 Y722.6130 R4.7625 
N194 G01 X43.6245 
N195 G01 X81.7245 Z0.0000 F3048.0
N196 G01 X557.9745 F5080.0
N197 G03 X562.7370 Y727.3755 R4.7625 
N198 G01 Y1438.5754 
N199 G03 X557.9745 Y1443.3379 R4.7625 
N200 G01 X5.5245 
N201 G03 X0.7620 Y1438.5754 R4.7625 
N202 G01 Y727.3755 
N203 G03 X5.5245 Y722.6130 R4.7625 
N204 G01 X43.6245 
N205 G01 X81.7245
N206 G00 Z24.1300
N207 G00 X563.7620 Y1063.5754
N208 G01 Z19.0500 F3048.0
N209 G01 Y1025.4755 Z9.5250 
N210 G01 Y987.3755 F5080.0
N211 G01 Y6.3005
N212 G03 X568.5245 Y1.5380 R4.7625 
N213 G01 X879.6745 
N214 G03 X884.4370 Y6.3005 R4.7625 
N215 G01 Y1063.5754 
N216 G03 X879.6745 Y1068.3380 R4.7625 
N217 G01 X568.5245 
N218 G03 X563.7620 Y1063.5754 R4.7625 
N219 G01 Y1025.4755 
N220 G01 Y987.3755 Z0.0000 F3048.0
N221 G01 Y6.3005 F5080.0
N222 G03 X568.5245 Y1.5380 R4.7625 
N223 G01 X879.6745 
N224 G03 X884.4370 Y6.3005 R4.7625 
N225 G01 Y1063.5754 
N226 G03 X879.6745 Y1068.3380 R4.7625 
N227 G01 X568.5245 
N228 G03 X563.7620 Y1063.5754 R4.7625 
N229 G01 Y1025.4755 
N230 G01 Y987.3755
N231 G00 Z24.1300
N232 G00 X557.9745 Y1444.1130
N233 G01 Z19.0500 F3048.0
N234 G01 X558.1484 Y1444.1162 Z19.0020 
N235 G01 X558.3247 Y1444.1259 Z18.9541 
N236 G01 X558.5029 Y1444.1423 Z18.9061 
N237 G01 X558.6827 Y1444.1659 Z18.8582 
N238 G01 X558.8638 Y1444.1967 Z18.8102 
N239 G01 X559.0457 Y1444.2350 Z18.7623 
N240 G01 X559.2280 Y1444.2809 Z18.7143 
N241 G01 X559.4102 Y1444.3345 Z18.6664 
N242 G01 X559.5919 Y1444.3960 Z18.6184 
N243 G01 X559.7726 Y1444.4655 Z18.5705 
N244 G01 X559.9518 Y1444.5428 Z18.5225 
N245 G01 X560.1289 Y1444.6282 Z18.4745 
N246 G01 X560.3035 Y1444.7213 Z18.4266 
N247 G01 X560.4752 Y1444.8223 Z18.3786 
N248 G01 X560.6431 Y1444.9309 Z18.3307 
N249 G01 X560.8071 Y1445.0470 Z18.2827 
N250 G01 X560.9665 Y1445.1702 Z18.2348 
N251 G01 X561.1208 Y1445.3003 Z18.1868 
N252 G01 X561.2698 Y1445.4371 Z18.1389 
N253 G01 X561.4128 Y1445.5802 Z18.0909 
N254 G01 X561.5496 Y1445.7291 Z18.0430 
N255 G01 X561.6798 Y1445.8835 Z17.9950 
N256 G01 X561.8030 Y1446.0430 Z17.9470 
N257 G01 X561.9191 Y1446.2069 Z17.8991 
N258 G01 X562.0276 Y1446.3749 Z17.8511 
N259 G01 X562.1286 Y1446.5464 Z17.8032 
N260 G01 X562.2218 Y1446.7211 Z17.7552 
N261 G01 X562.3071 Y1446.8982 Z17.7073 
N262 G01 X562.3845 Y1447.0774 Z17.6593 
N263 G01 X562.4539 Y1447.2581 Z17.6114 
N264 G01 X562.5154 Y1447.4398 Z17.5634 
N265 G01 X562.5691 Y1447.6219 Z17.5155 
N266 G01 X562.6150 Y1447.8043 Z17.4675 
N267 G01 X562.6533 Y1447.9862 Z17.4195 
N268 G01 X562.6841 Y1448.1674 Z17.3716 
N269 G01 X562.7076 Y1448.3470 Z17.3236 
N270 G01 X562.7241 Y1448.5253 Z17.2757 
N271 G01 X562.7338 Y1448.7015 Z17.2277 
N272 G01 X562.7370 Y1448.8755 Z17.1798 
N273 G01 Y1479.4945 Z9.5250 
N274 G01 Y1517.5946 Z9.5250 F5080.0
N275 G01 Y2160.0754
N276 G03 X557.9745 Y2164.8379 R4.7625 
N277 G01 X5.5245 
N278 G03 X0.7620 Y2160.0754 R4.7625 
N279 G01 Y1448.8755 
N280 G03 X5.5245 Y1444.1130 R4.7625 
N281 G01 X557.9745 
N282 G03 X562.7370 Y1448.8755 R4.7625 
N283 G01 Y1479.4945 
N284 G01 Y1517.5946 Z0.0000 F3048.0
N285 G01 Y2160.0754 F5080.0
N286 G03 X557.9745 Y2164.8379 R4.7625 
N287 G01 X5.5245 
N288 G03 X0.7620 Y2160.0754 R4.7625 
N289 G01 Y1448.8755 
N290 G03 X5.5245 Y1444.1130 R4.7625 
N291 G01 X557.9745 
N292 G03 X562.7370 Y1448.8755 R4.7625 
N293 G01 Y1479.4945 
N294 G01 Y1517.5946
N295 G00 Z24.1300
N296 G00 X568.5245 Y1829.4629
N297 G01 Z19.0500 F3048.0
N298 G01 X606.6245 Z9.5250 
N299 G01 X644.7245 F5080.0
N300 G01 X1146.3745
N301 G03 X1151.1370 Y1834.2255 R4.7625 
N302 G01 Y2285.0754 
N303 G03 X1146.3745 Y2289.8379 R4.7625 
N304 G01 X568.5245 
N305 G03 X563.7620 Y2285.0754 R4.7625 
N306 G01 Y1834.2255 
N307 G03 X568.5245 Y1829.4629 R4.7625 
N308 G01 X606.6245 
N309 G01 X644.7245 Z0.0000 F3048.0
N310 G01 X1146.3745 F5080.0
N311 G03 X1151.1370 Y1834.2255 R4.7625 
N312 G01 Y2285.0754 
N313 G03 X1146.3745 Y2289.8379 R4.7625 
N314 G01 X568.5245 
N315 G03 X563.7620 Y2285.0754 R4.7625 
N316 G01 Y1834.2255 
N317 G03 X568.5245 Y1829.4629 R4.7625 
N318 G01 X606.6245 
N319 G01 X644.7245
N320 G00 Z24.1300
N321 G00 X568.5245 Y1828.3380
N322 G01 Z19.0500 F3048.0
N323 G01 X568.3505 Y1828.3348 Z19.0020 
N324 G01 X568.1743 Y1828.3250 Z18.9541 
N325 G01 X567.9961 Y1828.3085 Z18.9061 
N326 G01 X567.8162 Y1828.2850 Z18.8582 
N327 G01 X567.6352 Y1828.2543 Z18.8102 
N328 G01 X567.4534 Y1828.2159 Z18.7623 
N329 G01 X567.2711 Y1828.1699 Z18.7143 
N330 G01 X567.0888 Y1828.1165 Z18.6664 
N331 G01 X566.9071 Y1828.0548 Z18.6184 
N332 G01 X566.7264 Y1827.9855 Z18.5705 
N333 G01 X566.5472 Y1827.9082 Z18.5225 
N334 G01 X566.3701 Y1827.8228 Z18.4745 
N335 G01 X566.1954 Y1827.7297 Z18.4266 
N336 G01 X566.0239 Y1827.6288 Z18.3786 
N337 G01 X565.8558 Y1827.5200 Z18.3307 
N338 G01 X565.6919 Y1827.4039 Z18.2827 
N339 G01 X565.5325 Y1827.2809 Z18.2348 
N340 G01 X565.3781 Y1827.1506 Z18.1868 
N341 G01 X565.2292 Y1827.0138 Z18.1389 
N342 G01 X565.0861 Y1826.8708 Z18.0909 
N343 G01 X564.9493 Y1826.7218 Z18.0430 
N344 G01 X564.8192 Y1826.5675 Z17.9950 
N345 G01 X564.6959 Y1826.4081 Z17.9470 
N346 G01 X564.5799 Y1826.2441 Z17.8991 
N347 G01 X564.4713 Y1826.0760 Z17.8511 
N348 G01 X564.3704 Y1825.9047 Z17.8032 
N349 G01 X564.2772 Y1825.7300 Z17.7552 
N350 G01 X564.1918 Y1825.5527 Z17.7073 
N351 G01 X564.1145 Y1825.3737 Z17.6593 
N352 G01 X564.0450 Y1825.1929 Z17.6114 
N353 G01 X563.9835 Y1825.0112 Z17.5634 
N354 G01 X563.9299 Y1824.8289 Z17.5155 
N355 G01 X563.8840 Y1824.6467 Z17.4675 
N356 G01 X563.8458 Y1824.4647 Z17.4195 
N357 G01 X563.8149 Y1824.2838 Z17.3716 
N358 G01 X563.7914 Y1824.1039 Z17.3236 
N359 G01 X563.7749 Y1823.9257 Z17.2757 
N360 G01 X563.7652 Y1823.7495 Z17.2277 
N361 G01 X563.7620 Y1823.5754 Z17.1798 
N362 G01 Y1792.9564 Z9.5250 
N363 G01 Y1754.8564 Z9.5250 F5080.0
N364 G01 Y1074.2755
N365 G03 X568.5245 Y1069.5129 R4.7625 
N366 G01 X987.6245 
N367 G03 X992.3870 Y1074.2755 R4.7625 
N368 G01 Y1823.5754 
N369 G03 X987.6245 Y1828.3380 R4.7625 
N370 G01 X568.5245 
N371 G03 X563.7620 Y1823.5754 R4.7625 
N372 G01 Y1792.9564 
N373 G01 Y1754.8564 Z0.0000 F3048.0
N374 G01 Y1074.2755 F5080.0
N375 G03 X568.5245 Y1069.5129 R4.7625 
N376 G01 X987.6245 
N377 G03 X992.3870 Y1074.2755 R4.7625 
N378 G01 Y1823.5754 
N379 G03 X987.6245 Y1828.3380 R4.7625 
N380 G01 X568.5245 
N381 G03 X563.7620 Y1823.5754 R4.7625 
N382 G01 Y1792.9564 
N383 G01 Y1754.8564
N384 G00 Z24.1300
N385 G00 X890.0244 Y918.8380
N386 G01 Z19.0500 F3048.0
N387 G01 X889.8505 Y918.8348 Z19.0020 
N388 G01 X889.6743 Y918.8251 Z18.9541 
N389 G01 X889.4961 Y918.8085 Z18.9061 
N390 G01 X889.3162 Y918.7850 Z18.8582 
N391 G01 X889.1351 Y918.7542 Z18.8102 
N392 G01 X888.9533 Y918.7160 Z18.7623 
N393 G01 X888.7711 Y918.6700 Z18.7143 
N394 G01 X888.5887 Y918.6164 Z18.6664 
N395 G01 X888.4071 Y918.5550 Z18.6184 
N396 G01 X888.2264 Y918.4855 Z18.5705 
N397 G01 X888.0472 Y918.4081 Z18.5225 
N398 G01 X887.8700 Y918.3228 Z18.4745 
N399 G01 X887.6954 Y918.2296 Z18.4266 
N400 G01 X887.5238 Y918.1287 Z18.3786 
N401 G01 X887.3558 Y918.0201 Z18.3307 
N402 G01 X887.1918 Y917.9041 Z18.2827 
N403 G01 X887.0325 Y917.7808 Z18.2348 
N404 G01 X886.8781 Y917.6506 Z18.1868 
N405 G01 X886.7292 Y917.5139 Z18.1389 
N406 G01 X886.5861 Y917.3708 Z18.0909 
N407 G01 X886.4493 Y917.2219 Z18.0430 
N408 G01 X886.3192 Y917.0674 Z17.9950 
N409 G01 X886.1959 Y916.9081 Z17.9470 
N410 G01 X886.0799 Y916.7441 Z17.8991 
N411 G01 X885.9713 Y916.5761 Z17.8511 
N412 G01 X885.8704 Y916.4045 Z17.8032 
N413 G01 X885.7771 Y916.2299 Z17.7552 
N414 G01 X885.6918 Y916.0528 Z17.7073 
N415 G01 X885.6144 Y915.8737 Z17.6593 
N416 G01 X885.5450 Y915.6929 Z17.6114 
N417 G01 X885.4835 Y915.5112 Z17.5634 
N418 G01 X885.4299 Y915.3290 Z17.5155 
N419 G01 X885.3840 Y915.1467 Z17.4675 
N420 G01 X885.3458 Y914.9648 Z17.4195 
N421 G01 X885.3149 Y914.7837 Z17.3716 
N422 G01 X885.2914 Y914.6038 Z17.3236 
N423 G01 X885.2749 Y914.4257 Z17.2757 
N424 G01 X885.2651 Y914.2494 Z17.2277 
N425 G01 X885.2620 Y914.0755 Z17.1798 
N426 G01 Y883.4564 Z9.5250 
N427 G01 Y845.3564 Z9.5250 F5080.0
N428 G01 Y6.0255
N429 G03 X890.0244 Y1.2630 R4.7625 
N430 G01 X1201.1744 
N431 G03 X1205.9369 Y6.0255 R4.7625 
N432 G01 Y914.0755 
N433 G03 X1201.1744 Y918.8380 R4.7625 
N434 G01 X890.0244 
N435 G03 X885.2620 Y914.0755 R4.7625 
N436 G01 Y883.4564 
N437 G01 Y845.3564 Z0.0000 F3048.0
N438 G01 Y6.0255 F5080.0
N439 G03 X890.0244 Y1.2630 R4.7625 
N440 G01 X1201.1744 
N441 G03 X1205.9369 Y6.0255 R4.7625 
N442 G01 Y914.0755 
N443 G03 X1201.1744 Y918.8380 R4.7625 
N444 G01 X890.0244 
N445 G03 X885.2620 Y914.0755 R4.7625 
N446 G01 Y883.4564 
N447 G01 Y845.3564
N448 G00 Z24.1300
N449 G00 G53 G49 Z0
N450 G00 G53 X0.0000 Y0.0000 M05
N451 M30
