(VECTRIC POST REVISION)
(FFCFDDC6601FDE93278A86ECDC292DD1)
 (9.29.25_PreFin05_7-9-Slide Holes)
(CREATED Monday September 29 2025)
( Material Size)
( X= 1231.900, Y= 2451.100, Z= 19.050)
(Tools used in this file: )
(T4 = #46125-K SC UPCUT SPIRAL 1/8" DIA.x1/4" shank Spektra)
(T3 = #46211-K SC DOWNCUT SPIRAL 2 FL 5MMx3/4x1/4" Shank)
(T1 = #46367-K SC MORTISE 2 FL 3/8" DIAx7/8x3/8" Shank Spektra)
N10 G00 G17 G71 G40 G49 G80 G90
N11 G54
N12 G53 Z0
N13 (Tool: #46125-K SC UPCUT SPIRAL 1/8" DIA.x1/4" shank Spektra)
N14 T4 M06
N15 M03 S6000
N16 G43 H4 Z24.1300
N17 G00 X621.7057 Y43.1818
N18 G00 Z24.1300
N19 G01 Z17.0180 F762.0
N20 G00 Z24.1300
N21 G00 Y325.7567
N22 G01 Z17.0180 F762.0
N23 G00 Z24.1300
N24 G00 Y608.3317
N25 G01 Z17.0180 F762.0
N26 G00 Z24.1300
N27 G00 X1083.6682
N28 G01 Z17.0180 F762.0
N29 G00 Z24.1300
N30 G00 X1116.6704 Y712.1078
N31 G01 Z17.0180 F762.0
N32 G00 Z24.1300
N33 G00 X1083.6682 Y325.7567
N34 G01 Z17.0180 F762.0
N35 G00 Z24.1300
N36 G00 Y43.1818
N37 G01 Z17.0180 F762.0
N38 G00 Z24.1300
N39 G00 X1043.7932 Y1314.1816
N40 G01 Z17.0180 F762.0
N41 G00 Z24.1300
N42 G00 Y1596.7567
N43 G01 Z17.0180 F762.0
N44 G00 Z24.1300
N45 G00 Y1879.3318
N46 G01 Z17.0180 F762.0
N47 G00 Z24.1300
N48 G00 X581.8307
N49 G01 Z17.0180 F762.0
N50 G00 Z24.1300
N51 G00 X548.8286 Y1983.1078
N52 G01 Z17.0180 F762.0
N53 G00 Z24.1300
N54 G00 X581.8307 Y1596.7567
N55 G01 Z17.0180 F762.0
N56 G00 Z24.1300
N57 G00 Y1314.1816
N58 G01 Z17.0180 F762.0
N59 G00 Z24.1300
N60 G00 G53 G49 Z0
N61 M05
N62 (Tool: #46211-K SC DOWNCUT SPIRAL 2 FL 5MMx3/4x1/4" Shank)
N63 T3 M06
N64 G00 G43 H3 Z24.1300
N65 M03 S6000
N66 M03 S6000
N67 G00 X1109.0682 Y816.5005
N68 G00 Z24.1300
N69 G01 Z6.3500 F2540.0
N70 G00 Z24.1300
N71 G00 Y848.5004
N72 G01 Z6.3500 F2540.0
N73 G00 Z24.1300
N74 G00 Y1045.1006
N75 G01 Z6.3500 F2540.0
N76 G00 Z24.1300
N77 G00 Y1061.6245
N78 G01 Z6.3500 F2540.0
N79 G00 Z24.1300
N80 G00 Y1077.1005
N81 G01 Z6.3500 F2540.0
N82 G00 Z24.1300
N83 G00 G53 G49 Z0
N84 M05
N85 (Tool: #46367-K SC MORTISE 2 FL 3/8" DIAx7/8x3/8" Shank Spektra)
N86 T1 M06
N87 G00 G43 H1 Z24.1300
N88 M03 S18000
N89 M03 S18000
N90 G00 X563.7620 Y5.8755
N91 G00 Z24.1300
N92 G01 Z19.0500 F3048.0
N93 G01 X563.7652 Y5.7016 Z19.0020 
N94 G01 X563.7749 Y5.5253 Z18.9541 
N95 G01 X563.7914 Y5.3471 Z18.9061 
N96 G01 X563.8149 Y5.1673 Z18.8582 
N97 G01 X563.8458 Y4.9862 Z18.8102 
N98 G01 X563.8840 Y4.8043 Z18.7623 
N99 G01 X563.9299 Y4.6220 Z18.7143 
N100 G01 X563.9835 Y4.4398 Z18.6664 
N101 G01 X564.0450 Y4.2581 Z18.6184 
N102 G01 X564.1145 Y4.0774 Z18.5705 
N103 G01 X564.1918 Y3.8982 Z18.5225 
N104 G01 X564.2772 Y3.7211 Z18.4745 
N105 G01 X564.3704 Y3.5464 Z18.4266 
N106 G01 X564.4713 Y3.3749 Z18.3786 
N107 G01 X564.5799 Y3.2069 Z18.3307 
N108 G01 X564.6959 Y3.0429 Z18.2827 
N109 G01 X564.8192 Y2.8835 Z18.2348 
N110 G01 X564.9493 Y2.7291 Z18.1868 
N111 G01 X565.0861 Y2.5802 Z18.1389 
N112 G01 X565.2292 Y2.4371 Z18.0909 
N113 G01 X565.3781 Y2.3004 Z18.0430 
N114 G01 X565.5325 Y2.1702 Z17.9950 
N115 G01 X565.6919 Y2.0469 Z17.9470 
N116 G01 X565.8558 Y1.9309 Z17.8991 
N117 G01 X566.0239 Y1.8223 Z17.8511 
N118 G01 X566.1954 Y1.7214 Z17.8032 
N119 G01 X566.3701 Y1.6282 Z17.7552 
N120 G01 X566.5472 Y1.5429 Z17.7073 
N121 G01 X566.7264 Y1.4655 Z17.6593 
N122 G01 X566.9071 Y1.3961 Z17.6114 
N123 G01 X567.0888 Y1.3346 Z17.5634 
N124 G01 X567.2711 Y1.2809 Z17.5155 
N125 G01 X567.4534 Y1.2350 Z17.4675 
N126 G01 X567.6352 Y1.1968 Z17.4195 
N127 G01 X567.8162 Y1.1660 Z17.3716 
N128 G01 X567.9961 Y1.1424 Z17.3236 
N129 G01 X568.1743 Y1.1259 Z17.2757 
N130 G01 X568.3505 Y1.1162 Z17.2277 
N131 G01 X568.5245 Y1.1130 Z17.1798 
N132 G01 X599.1436 Z9.5250 
N133 G01 X637.2435 Z9.5250 F5080.0
N134 G01 X1120.9745
N135 G03 X1125.7369 Y5.8755 R4.7625 
N136 G01 Y717.0755 
N137 G03 X1120.9745 Y721.8380 R4.7625 
N138 G01 X568.5245 
N139 G03 X563.7620 Y717.0755 R4.7625 
N140 G01 Y5.8755 
N141 G03 X568.5245 Y1.1130 R4.7625 
N142 G01 X599.1436 
N143 G01 X637.2435 Z0.0000 F3048.0
N144 G01 X1120.9745 F5080.0
N145 G03 X1125.7369 Y5.8755 R4.7625 
N146 G01 Y717.0755 
N147 G03 X1120.9745 Y721.8380 R4.7625 
N148 G01 X568.5245 
N149 G03 X563.7620 Y717.0755 R4.7625 
N150 G01 Y5.8755 
N151 G03 X568.5245 Y1.1130 R4.7625 
N152 G01 X599.1436 
N153 G01 X637.2435
N154 G00 Z24.1300
N155 G00 X568.5245 Y722.9630
N156 G01 Z19.0500 F3048.0
N157 G01 X606.6245 Z9.5250 
N158 G01 X644.7245 F5080.0
N159 G01 X1146.3745
N160 G03 X1151.1370 Y727.7255 R4.7625 
N161 G01 Y1178.5756 
N162 G03 X1146.3745 Y1183.3380 R4.7625 
N163 G01 X568.5245 
N164 G03 X563.7620 Y1178.5756 R4.7625 
N165 G01 Y727.7255 
N166 G03 X568.5245 Y722.9630 R4.7625 
N167 G01 X606.6245 
N168 G01 X644.7245 Z0.0000 F3048.0
N169 G01 X1146.3745 F5080.0
N170 G03 X1151.1370 Y727.7255 R4.7625 
N171 G01 Y1178.5756 
N172 G03 X1146.3745 Y1183.3380 R4.7625 
N173 G01 X568.5245 
N174 G03 X563.7620 Y1178.5756 R4.7625 
N175 G01 Y727.7255 
N176 G03 X568.5245 Y722.9630 R4.7625 
N177 G01 X606.6245 
N178 G01 X644.7245
N179 G00 Z24.1300
N180 G00 X544.5245 Y1272.1129
N181 G01 Z19.0500 F3048.0
N182 G01 X582.6245 Z9.5250 
N183 G01 X620.7245 F5080.0
N184 G01 X1096.9745
N185 G03 X1101.7369 Y1276.8755 R4.7625 
N186 G01 Y1988.0756 
N187 G03 X1096.9745 Y1992.8380 R4.7625 
N188 G01 X544.5245 
N189 G03 X539.7620 Y1988.0756 R4.7625 
N190 G01 Y1276.8755 
N191 G03 X544.5245 Y1272.1129 R4.7625 
N192 G01 X582.6245 
N193 G01 X620.7245 Z0.0000 F3048.0
N194 G01 X1096.9745 F5080.0
N195 G03 X1101.7369 Y1276.8755 R4.7625 
N196 G01 Y1988.0756 
N197 G03 X1096.9745 Y1992.8380 R4.7625 
N198 G01 X544.5245 
N199 G03 X539.7620 Y1988.0756 R4.7625 
N200 G01 Y1276.8755 
N201 G03 X544.5245 Y1272.1129 R4.7625 
N202 G01 X582.6245 
N203 G01 X620.7245
N204 G00 Z24.1300
N205 G00 X557.9745 Y1271.3380
N206 G01 Z19.0500 F3048.0
N207 G01 X519.8745 Z9.5250 
N208 G01 X481.7745 F5080.0
N209 G01 X5.5245
N210 G03 X0.7620 Y1266.5754 R4.7625 
N211 G01 Y6.1005 
N212 G03 X5.5245 Y1.3380 R4.7625 
N213 G01 X557.9745 
N214 G03 X562.7370 Y6.1005 R4.7625 
N215 G01 Y1266.5754 
N216 G03 X557.9745 Y1271.3380 R4.7625 
N217 G01 X519.8745 
N218 G01 X481.7745 Z0.0000 F3048.0
N219 G01 X5.5245 F5080.0
N220 G03 X0.7620 Y1266.5754 R4.7625 
N221 G01 Y6.1005 
N222 G03 X5.5245 Y1.3380 R4.7625 
N223 G01 X557.9745 
N224 G03 X562.7370 Y6.1005 R4.7625 
N225 G01 Y1266.5754 
N226 G03 X557.9745 Y1271.3380 R4.7625 
N227 G01 X519.8745 
N228 G01 X481.7745
N229 G00 Z24.1300
N230 G00 X538.9245 Y1276.9255
N231 G01 Z19.0500 F3048.0
N232 G01 Y1315.0255 Z9.5250 
N233 G01 Y1353.1255 F5080.0
N234 G01 Y2223.0754
N235 G03 X534.1620 Y2227.8381 R4.7625 
N236 G01 X5.5245 
N237 G03 X0.7620 Y2223.0754 R4.7625 
N238 G01 Y1276.9255 
N239 G03 X5.5245 Y1272.1631 R4.7625 
N240 G01 X534.1620 
N241 G03 X538.9245 Y1276.9255 R4.7625 
N242 G01 Y1315.0255 
N243 G01 Y1353.1255 Z0.0000 F3048.0
N244 G01 Y2223.0754 F5080.0
N245 G03 X534.1620 Y2227.8381 R4.7625 
N246 G01 X5.5245 
N247 G03 X0.7620 Y2223.0754 R4.7625 
N248 G01 Y1276.9255 
N249 G03 X5.5245 Y1272.1631 R4.7625 
N250 G01 X534.1620 
N251 G03 X538.9245 Y1276.9255 R4.7625 
N252 G01 Y1315.0255 
N253 G01 Y1353.1255
N254 G00 Z24.1300
N255 G00 X544.5245 Y1993.8130
N256 G01 Z19.0500 F3048.0
N257 G01 X582.6245 Z9.5250 
N258 G01 X620.7245 F5080.0
N259 G01 X1096.9745
N260 G03 X1101.7369 Y1998.5754 R4.7625 
N261 G01 Y2252.5754 
N262 G03 X1096.9745 Y2257.3379 R4.7625 
N263 G01 X544.5245 
N264 G03 X539.7620 Y2252.5754 R4.7625 
N265 G01 Y1998.5754 
N266 G03 X544.5245 Y1993.8130 R4.7625 
N267 G01 X582.6245 
N268 G01 X620.7245 Z0.0000 F3048.0
N269 G01 X1096.9745 F5080.0
N270 G03 X1101.7369 Y1998.5754 R4.7625 
N271 G01 Y2252.5754 
N272 G03 X1096.9745 Y2257.3379 R4.7625 
N273 G01 X544.5245 
N274 G03 X539.7620 Y2252.5754 R4.7625 
N275 G01 Y1998.5754 
N276 G03 X544.5245 Y1993.8130 R4.7625 
N277 G01 X582.6245 
N278 G01 X620.7245
N279 G00 Z24.1300
N280 G00 G53 G49 Z0
N281 G00 G53 X0.0000 Y0.0000 M05
N282 M30
