(VECTRIC POST REVISION)
(FFCFDDC6601FDE93278A86ECDC292DD1)
 (9.29.25_PreFin02_2-Profile 3)
(CREATED Monday September 29 2025)
( Material Size)
( X= 1231.900, Y= 2451.100, Z= 19.050)
(Tools used in this file: )
(T1 = #46367-K SC MORTISE 2 FL 3/8" DIAx7/8x3/8" Shank Spektra)
N8 G00 G17 G71 G40 G49 G80 G90
N9 G54
N10 G53 Z0
N11 (Tool: #46367-K SC MORTISE 2 FL 3/8" DIAx7/8x3/8" Shank Spektra)
N12 T1 M06
N13 M03 S18000
N14 G43 H1 Z24.1300
N15 G00 X563.7620 Y6.2755
N16 G00 Z24.1300
N17 G01 Z19.0500 F3048.0
N18 G01 X563.7652 Y6.1016 Z19.0020 
N19 G01 X563.7749 Y5.9253 Z18.9541 
N20 G01 X563.7914 Y5.7471 Z18.9061 
N21 G01 X563.8149 Y5.5673 Z18.8582 
N22 G01 X563.8458 Y5.3862 Z18.8102 
N23 G01 X563.8840 Y5.2043 Z18.7623 
N24 G01 X563.9299 Y5.0220 Z18.7143 
N25 G01 X563.9835 Y4.8398 Z18.6664 
N26 G01 X564.0450 Y4.6581 Z18.6184 
N27 G01 X564.1145 Y4.4774 Z18.5705 
N28 G01 X564.1918 Y4.2982 Z18.5225 
N29 G01 X564.2772 Y4.1211 Z18.4745 
N30 G01 X564.3704 Y3.9464 Z18.4266 
N31 G01 X564.4713 Y3.7749 Z18.3786 
N32 G01 X564.5799 Y3.6069 Z18.3307 
N33 G01 X564.6959 Y3.4429 Z18.2827 
N34 G01 X564.8192 Y3.2835 Z18.2348 
N35 G01 X564.9493 Y3.1291 Z18.1868 
N36 G01 X565.0861 Y2.9802 Z18.1389 
N37 G01 X565.2292 Y2.8371 Z18.0909 
N38 G01 X565.3781 Y2.7004 Z18.0430 
N39 G01 X565.5325 Y2.5702 Z17.9950 
N40 G01 X565.6919 Y2.4469 Z17.9470 
N41 G01 X565.8558 Y2.3309 Z17.8991 
N42 G01 X566.0239 Y2.2223 Z17.8511 
N43 G01 X566.1954 Y2.1214 Z17.8032 
N44 G01 X566.3701 Y2.0282 Z17.7552 
N45 G01 X566.5472 Y1.9429 Z17.7073 
N46 G01 X566.7264 Y1.8655 Z17.6593 
N47 G01 X566.9071 Y1.7961 Z17.6114 
N48 G01 X567.0888 Y1.7346 Z17.5634 
N49 G01 X567.2711 Y1.6809 Z17.5155 
N50 G01 X567.4534 Y1.6350 Z17.4675 
N51 G01 X567.6352 Y1.5968 Z17.4195 
N52 G01 X567.8162 Y1.5660 Z17.3716 
N53 G01 X567.9961 Y1.5424 Z17.3236 
N54 G01 X568.1743 Y1.5259 Z17.2757 
N55 G01 X568.3505 Y1.5162 Z17.2277 
N56 G01 X568.5245 Y1.5130 Z17.1798 
N57 G01 X599.1436 Z9.5250 
N58 G01 X637.2435 Z9.5250 F5080.0
N59 G01 X974.9245
N60 G03 X979.6870 Y6.2755 R4.7625 
N61 G01 Y2152.5754 
N62 G03 X974.9245 Y2157.3381 R4.7625 
N63 G01 X568.5245 
N64 G03 X563.7620 Y2152.5754 R4.7625 
N65 G01 Y6.2755 
N66 G03 X568.5245 Y1.5130 R4.7625 
N67 G01 X599.1436 
N68 G01 X637.2435 Z0.0000 F3048.0
N69 G01 X974.9245 F5080.0
N70 G03 X979.6870 Y6.2755 R4.7625 
N71 G01 Y2152.5754 
N72 G03 X974.9245 Y2157.3381 R4.7625 
N73 G01 X568.5245 
N74 G03 X563.7620 Y2152.5754 R4.7625 
N75 G01 Y6.2755 
N76 G03 X568.5245 Y1.5130 R4.7625 
N77 G01 X599.1436 
N78 G01 X637.2435
N79 G00 Z24.1300
N80 G00 X568.5245 Y2158.1130
N81 G01 Z19.0500 F3048.0
N82 G01 X606.6245 Z9.5250 
N83 G01 X644.7245 F5080.0
N84 G01 X1120.9745
N85 G03 X1125.7369 Y2162.8755 R4.7625 
N86 G01 Y2190.0339 
N87 G01 Y2205.9089
N88 G01 Y2374.2244
N89 G01 Y2390.0994
N90 G01 Y2429.5754
N91 G03 X1120.9745 Y2434.3379 R4.7625 
N92 G01 X568.5245 
N93 G03 X563.7620 Y2429.5754 R4.7625 
N94 G01 Y2162.8755 
N95 G03 X568.5245 Y2158.1130 R4.7625 
N96 G01 X606.6245 
N97 G01 X644.7245 Z0.0000 F3048.0
N98 G01 X1120.9745 F5080.0
N99 G03 X1125.7369 Y2162.8755 R4.7625 
N100 G01 Y2190.0339 
N101 G01 Z1.1430
N102 G01 Y2205.9089
N103 G01 Z0.0000 F3048.0
N104 G01 Y2374.2244 F5080.0
N105 G01 Z1.1430
N106 G01 Y2390.0994
N107 G01 Z0.0000 F3048.0
N108 G01 Y2429.5754 F5080.0
N109 G03 X1120.9745 Y2434.3379 R4.7625 
N110 G01 X568.5245 
N111 G03 X563.7620 Y2429.5754 R4.7625 
N112 G01 Y2162.8755 
N113 G03 X568.5245 Y2158.1130 R4.7625 
N114 G01 X606.6245 
N115 G01 X644.7245
N116 G00 Z24.1300
N117 G00 X562.7370 Y2381.0754
N118 G01 Z19.0500 F3048.0
N119 G01 X562.7338 Y2381.2493 Z19.0020 
N120 G01 X562.7241 Y2381.4258 Z18.9541 
N121 G01 X562.7076 Y2381.6038 Z18.9061 
N122 G01 X562.6841 Y2381.7837 Z18.8582 
N123 G01 X562.6533 Y2381.9648 Z18.8102 
N124 G01 X562.6150 Y2382.1467 Z18.7623 
N125 G01 X562.5691 Y2382.3289 Z18.7143 
N126 G01 X562.5154 Y2382.5112 Z18.6664 
N127 G01 X562.4539 Y2382.6929 Z18.6184 
N128 G01 X562.3845 Y2382.8735 Z18.5705 
N129 G01 X562.3071 Y2383.0527 Z18.5225 
N130 G01 X562.2218 Y2383.2300 Z18.4745 
N131 G01 X562.1286 Y2383.4045 Z18.4266 
N132 G01 X562.0276 Y2383.5762 Z18.3786 
N133 G01 X561.9191 Y2383.7441 Z18.3307 
N134 G01 X561.8030 Y2383.9082 Z18.2827 
N135 G01 X561.6798 Y2384.0674 Z18.2348 
N136 G01 X561.5496 Y2384.2219 Z18.1868 
N137 G01 X561.4128 Y2384.3706 Z18.1389 
N138 G01 X561.2698 Y2384.5139 Z18.0909 
N139 G01 X561.1208 Y2384.6506 Z18.0430 
N140 G01 X560.9665 Y2384.7808 Z17.9950 
N141 G01 X560.8071 Y2384.9041 Z17.9470 
N142 G01 X560.6431 Y2385.0200 Z17.8991 
N143 G01 X560.4752 Y2385.1287 Z17.8511 
N144 G01 X560.3035 Y2385.2295 Z17.8032 
N145 G01 X560.1289 Y2385.3228 Z17.7552 
N146 G01 X559.9518 Y2385.4080 Z17.7073 
N147 G01 X559.7726 Y2385.4856 Z17.6593 
N148 G01 X559.5919 Y2385.5549 Z17.6114 
N149 G01 X559.4102 Y2385.6165 Z17.5634 
N150 G01 X559.2280 Y2385.6699 Z17.5155 
N151 G01 X559.0457 Y2385.7161 Z17.4675 
N152 G01 X558.8638 Y2385.7542 Z17.4195 
N153 G01 X558.6827 Y2385.7849 Z17.3716 
N154 G01 X558.5029 Y2385.8086 Z17.3236 
N155 G01 X558.3247 Y2385.8250 Z17.2757 
N156 G01 X558.1484 Y2385.8347 Z17.2277 
N157 G01 X557.9745 Y2385.8381 Z17.1798 
N158 G01 X527.3555 Z9.5250 
N159 G01 X489.2555 Z9.5250 F5080.0
N160 G01 X5.5245
N161 G03 X0.7620 Y2381.0754 R4.7625 
N162 G01 Y6.1755 
N163 G03 X5.5245 Y1.4130 R4.7625 
N164 G01 X557.9745 
N165 G03 X562.7370 Y6.1755 R4.7625 
N166 G01 Y2381.0754 
N167 G03 X557.9745 Y2385.8381 R4.7625 
N168 G01 X527.3555 
N169 G01 X489.2555 Z0.0000 F3048.0
N170 G01 X5.5245 F5080.0
N171 G03 X0.7620 Y2381.0754 R4.7625 
N172 G01 Y6.1755 
N173 G03 X5.5245 Y1.4130 R4.7625 
N174 G01 X557.9745 
N175 G03 X562.7370 Y6.1755 R4.7625 
N176 G01 Y2381.0754 
N177 G03 X557.9745 Y2385.8381 R4.7625 
N178 G01 X527.3555 
N179 G01 X489.2555
N180 G00 Z24.1300
N181 G00 G53 G49 Z0
N182 G00 G53 X0.0000 Y0.0000 M05
N183 M30
