(VECTRIC POST REVISION)
(FFCFDDC6601FDE93278A86ECDC292DD1)
 (9.29.25_PreFin09_20-22-Shelf Pins)
(CREATED Monday September 29 2025)
( Material Size)
( X= 1231.900, Y= 2451.100, Z= 19.050)
(Tools used in this file: )
(T3 = #46211-K SC DOWNCUT SPIRAL 2 FL 5MMx3/4x1/4" Shank)
(T1 = #46367-K SC MORTISE 2 FL 3/8" DIAx7/8x3/8" Shank Spektra)
N9 G00 G17 G71 G40 G49 G80 G90
N10 G54
N11 G53 Z0
N12 (Tool: #46211-K SC DOWNCUT SPIRAL 2 FL 5MMx3/4x1/4" Shank)
N13 T3 M06
N14 M03 S6000
N15 G43 H3 Z24.1300
N16 G00 X42.8307 Y94.8005
N17 G00 Z24.1300
N18 G01 Z6.3500 F2540.0
N19 G00 Z24.1300
N20 G00 Y126.8005
N21 G01 Z6.3500 F2540.0
N22 G00 Z24.1300
N23 G00 X56.3245 Y248.9130
N24 G01 Z6.3500 F2540.0
N25 G00 Z24.1300
N26 G00 Y287.0130
N27 G01 Z6.3500 F2540.0
N28 G00 Z24.1300
N29 G00 Y325.1130
N30 G01 Z6.3500 F2540.0
N31 G00 Z24.1300
N32 G00 X265.8745
N33 G01 Z6.3500 F2540.0
N34 G00 Z24.1300
N35 G00 Y287.0130
N36 G01 Z6.3500 F2540.0
N37 G00 Z24.1300
N38 G00 Y248.9130
N39 G01 Z6.3500 F2540.0
N40 G00 Z24.1300
N41 G00 X377.8245
N42 G01 Z6.3500 F2540.0
N43 G00 Z24.1300
N44 G00 Y287.0130
N45 G01 Z6.3500 F2540.0
N46 G00 Z24.1300
N47 G00 Y325.1130
N48 G01 Z6.3500 F2540.0
N49 G00 Z24.1300
N50 G00 X587.3745
N51 G01 Z6.3500 F2540.0
N52 G00 Z24.1300
N53 G00 Y287.0130
N54 G01 Z6.3500 F2540.0
N55 G00 Z24.1300
N56 G00 Y248.9130
N57 G01 Z6.3500 F2540.0
N58 G00 Z24.1300
N59 G00 X699.3245
N60 G01 Z6.3500 F2540.0
N61 G00 Z24.1300
N62 G00 Y287.0130
N63 G01 Z6.3500 F2540.0
N64 G00 Z24.1300
N65 G00 Y325.1130
N66 G01 Z6.3500 F2540.0
N67 G00 Z24.1300
N68 G00 X908.8745
N69 G01 Z6.3500 F2540.0
N70 G00 Z24.1300
N71 G00 Y287.0130
N72 G01 Z6.3500 F2540.0
N73 G00 Z24.1300
N74 G00 Y248.9130
N75 G01 Z6.3500 F2540.0
N76 G00 Z24.1300
N77 G00 X922.3682 Y126.8005
N78 G01 Z6.3500 F2540.0
N79 G00 Z24.1300
N80 G00 Y94.8005
N81 G01 Z6.3500 F2540.0
N82 G00 Z24.1300
N83 G00 X600.8683
N84 G01 Z6.3500 F2540.0
N85 G00 Z24.1300
N86 G00 Y126.8005
N87 G01 Z6.3500 F2540.0
N88 G00 Z24.1300
N89 G00 X587.3745 Y548.9505
N90 G01 Z6.3500 F2540.0
N91 G00 Z24.1300
N92 G00 Y587.0505
N93 G01 Z6.3500 F2540.0
N94 G00 Z24.1300
N95 G00 Y625.1505
N96 G01 Z6.3500 F2540.0
N97 G00 Z24.1300
N98 G00 X699.3245
N99 G01 Z6.3500 F2540.0
N100 G00 Z24.1300
N101 G00 Y587.0505
N102 G01 Z6.3500 F2540.0
N103 G00 Z24.1300
N104 G00 Y548.9505
N105 G01 Z6.3500 F2540.0
N106 G00 Z24.1300
N107 G00 X908.8745
N108 G01 Z6.3500 F2540.0
N109 G00 Z24.1300
N110 G00 Y587.0505
N111 G01 Z6.3500 F2540.0
N112 G00 Z24.1300
N113 G00 Y625.1505
N114 G01 Z6.3500 F2540.0
N115 G00 Z24.1300
N116 G00 X922.3682 Y767.9005
N117 G01 Z6.3500 F2540.0
N118 G00 Z24.1300
N119 G00 Y784.3896
N120 G01 Z6.3500 F2540.0
N121 G00 Z24.1300
N122 G00 Y799.9005
N123 G01 Z6.3500 F2540.0
N124 G00 Z24.1300
N125 G00 X600.8683
N126 G01 Z6.3500 F2540.0
N127 G00 Z24.1300
N128 G00 Y784.3896
N129 G01 Z6.3500 F2540.0
N130 G00 Z24.1300
N131 G00 Y767.9005
N132 G01 Z6.3500 F2540.0
N133 G00 Z24.1300
N134 G00 X377.8245 Y625.1505
N135 G01 Z6.3500 F2540.0
N136 G00 Z24.1300
N137 G00 Y587.0505
N138 G01 Z6.3500 F2540.0
N139 G00 Z24.1300
N140 G00 Y548.9505
N141 G01 Z6.3500 F2540.0
N142 G00 Z24.1300
N143 G00 X265.8745
N144 G01 Z6.3500 F2540.0
N145 G00 Z24.1300
N146 G00 Y587.0505
N147 G01 Z6.3500 F2540.0
N148 G00 Z24.1300
N149 G00 Y625.1505
N150 G01 Z6.3500 F2540.0
N151 G00 Z24.1300
N152 G00 X56.3245
N153 G01 Z6.3500 F2540.0
N154 G00 Z24.1300
N155 G00 Y587.0505
N156 G01 Z6.3500 F2540.0
N157 G00 Z24.1300
N158 G00 Y548.9505
N159 G01 Z6.3500 F2540.0
N160 G00 Z24.1300
N161 G00 X42.8307 Y767.9005
N162 G01 Z6.3500 F2540.0
N163 G00 Z24.1300
N164 G00 Y784.3896
N165 G01 Z6.3500 F2540.0
N166 G00 Z24.1300
N167 G00 Y799.9005
N168 G01 Z6.3500 F2540.0
N169 G00 Z24.1300
N170 G00 Y1013.3005
N171 G01 Z6.3500 F2540.0
N172 G00 Z24.1300
N173 G00 Y1045.3004
N174 G01 Z6.3500 F2540.0
N175 G00 Z24.1300
N176 G00 X56.3245 Y1167.4131
N177 G01 Z6.3500 F2540.0
N178 G00 Z24.1300
N179 G00 Y1205.5131
N180 G01 Z6.3500 F2540.0
N181 G00 Z24.1300
N182 G00 Y1243.6130
N183 G01 Z6.3500 F2540.0
N184 G00 Z24.1300
N185 G00 X265.8745
N186 G01 Z6.3500 F2540.0
N187 G00 Z24.1300
N188 G00 Y1205.5131
N189 G01 Z6.3500 F2540.0
N190 G00 Z24.1300
N191 G00 Y1167.4131
N192 G01 Z6.3500 F2540.0
N193 G00 Z24.1300
N194 G00 X377.8245
N195 G01 Z6.3500 F2540.0
N196 G00 Z24.1300
N197 G00 Y1205.5131
N198 G01 Z6.3500 F2540.0
N199 G00 Z24.1300
N200 G00 Y1243.6130
N201 G01 Z6.3500 F2540.0
N202 G00 Z24.1300
N203 G00 X364.3307 Y1045.3004
N204 G01 Z6.3500 F2540.0
N205 G00 Z24.1300
N206 G00 Y1013.3005
N207 G01 Z6.3500 F2540.0
N208 G00 Z24.1300
N209 G00 X587.3745 Y1167.4131
N210 G01 Z6.3500 F2540.0
N211 G00 Z24.1300
N212 G00 Y1205.5131
N213 G01 Z6.3500 F2540.0
N214 G00 Z24.1300
N215 G00 Y1243.6130
N216 G01 Z6.3500 F2540.0
N217 G00 Z24.1300
N218 G00 Y1467.4506
N219 G01 Z6.3500 F2540.0
N220 G00 Z24.1300
N221 G00 Y1505.5505
N222 G01 Z6.3500 F2540.0
N223 G00 Z24.1300
N224 G00 Y1543.6505
N225 G01 Z6.3500 F2540.0
N226 G00 Z24.1300
N227 G00 X377.8245
N228 G01 Z6.3500 F2540.0
N229 G00 Z24.1300
N230 G00 Y1505.5505
N231 G01 Z6.3500 F2540.0
N232 G00 Z24.1300
N233 G00 Y1467.4506
N234 G01 Z6.3500 F2540.0
N235 G00 Z24.1300
N236 G00 X265.8745
N237 G01 Z6.3500 F2540.0
N238 G00 Z24.1300
N239 G00 Y1505.5505
N240 G01 Z6.3500 F2540.0
N241 G00 Z24.1300
N242 G00 Y1543.6505
N243 G01 Z6.3500 F2540.0
N244 G00 Z24.1300
N245 G00 X364.3307 Y1686.4005
N246 G01 Z6.3500 F2540.0
N247 G00 Z24.1300
N248 G00 Y1702.8896
N249 G01 Z6.3500 F2540.0
N250 G00 Z24.1300
N251 G00 Y1718.4005
N252 G01 Z6.3500 F2540.0
N253 G00 Z24.1300
N254 G00 X42.8307
N255 G01 Z6.3500 F2540.0
N256 G00 Z24.1300
N257 G00 Y1702.8896
N258 G01 Z6.3500 F2540.0
N259 G00 Z24.1300
N260 G00 Y1686.4005
N261 G01 Z6.3500 F2540.0
N262 G00 Z24.1300
N263 G00 X56.3245 Y1543.6505
N264 G01 Z6.3500 F2540.0
N265 G00 Z24.1300
N266 G00 Y1505.5505
N267 G01 Z6.3500 F2540.0
N268 G00 Z24.1300
N269 G00 Y1467.4506
N270 G01 Z6.3500 F2540.0
N271 G00 Z24.1300
N272 G00 G53 G49 Z0
N273 M05
N274 (Tool: #46367-K SC MORTISE 2 FL 3/8" DIAx7/8x3/8" Shank Spektra)
N275 T1 M06
N276 G00 G43 H1 Z24.1300
N277 M03 S18000
N278 M03 S18000
N279 G00 X377.0933 Y1847.7279
N280 G00 Z24.1300
N281 G01 Z19.0500 F3048.0
N282 G01 Y1857.3480 Z18.2640 
N283 G01 X377.1885 Z18.2563 
N284 G01 Y1847.7279 Z17.4703 
N285 G01 X377.0933 Z17.4625 
N286 G01 X377.1885 Z17.4547 
N287 G01 Y1857.3480 Z16.6687 
N288 G01 X377.0933 Z16.6610 
N289 G01 Y1847.7279 Z15.8750 
N290 G01 Y1857.3480 F5080.0
N291 G01 X377.1885
N292 G01 Y1847.7279
N293 G01 X377.0933
N294 G00 Z24.1300
N295 G00 X586.4230
N296 G01 Z19.0500 F3048.0
N297 G01 Y1857.3480 Z18.2640 
N298 G01 X586.5182 Z18.2563 
N299 G01 Y1847.7279 Z17.4703 
N300 G01 X586.4230 Z17.4625 
N301 G01 X586.5182 Z17.4547 
N302 G01 Y1857.3480 Z16.6687 
N303 G01 X586.4230 Z16.6610 
N304 G01 Y1847.7279 Z15.8750 
N305 G01 Y1857.3480 F5080.0
N306 G01 X586.5182
N307 G01 Y1847.7279
N308 G01 X586.4230
N309 G00 Z24.1300
N310 G00 X963.0933 Y1682.2279
N311 G01 Z19.0500 F3048.0
N312 G01 Y1691.8480 Z18.2640 
N313 G01 X963.1885 Z18.2563 
N314 G01 Y1682.2279 Z17.4703 
N315 G01 X963.0933 Z17.4625 
N316 G01 X963.1885 Z17.4547 
N317 G01 Y1691.8480 Z16.6687 
N318 G01 X963.0933 Z16.6610 
N319 G01 Y1682.2279 Z15.8750 
N320 G01 Y1691.8480 F5080.0
N321 G01 X963.1885
N322 G01 Y1682.2279
N323 G01 X963.0933
N324 G00 Z24.1300
N325 G00 X1172.4230
N326 G01 Z19.0500 F3048.0
N327 G01 Y1691.8480 Z18.2640 
N328 G01 X1172.5182 Z18.2563 
N329 G01 Y1682.2279 Z17.4703 
N330 G01 X1172.4230 Z17.4625 
N331 G01 X1172.5182 Z17.4547 
N332 G01 Y1691.8480 Z16.6687 
N333 G01 X1172.4230 Z16.6610 
N334 G01 Y1682.2279 Z15.8750 
N335 G01 Y1691.8480 F5080.0
N336 G01 X1172.5182
N337 G01 Y1682.2279
N338 G01 X1172.4230
N339 G00 Z24.1300
N340 G00 Y2163.2405
N341 G01 Z19.0500 F3048.0
N342 G01 Y2172.8606 Z18.2640 
N343 G01 X1172.5182 Z18.2563 
N344 G01 Y2163.2405 Z17.4703 
N345 G01 X1172.4230 Z17.4625 
N346 G01 X1172.5182 Z17.4547 
N347 G01 Y2172.8606 Z16.6687 
N348 G01 X1172.4230 Z16.6610 
N349 G01 Y2163.2405 Z15.8750 
N350 G01 Y2172.8606 F5080.0
N351 G01 X1172.5182
N352 G01 Y2163.2405
N353 G01 X1172.4230
N354 G00 Z24.1300
N355 G00 X963.0933
N356 G01 Z19.0500 F3048.0
N357 G01 Y2172.8606 Z18.2640 
N358 G01 X963.1885 Z18.2563 
N359 G01 Y2163.2405 Z17.4703 
N360 G01 X963.0933 Z17.4625 
N361 G01 X963.1885 Z17.4547 
N362 G01 Y2172.8606 Z16.6687 
N363 G01 X963.0933 Z16.6610 
N364 G01 Y2163.2405 Z15.8750 
N365 G01 Y2172.8606 F5080.0
N366 G01 X963.1885
N367 G01 Y2163.2405
N368 G01 X963.0933
N369 G00 Z24.1300
N370 G00 X586.4230 Y2328.7405
N371 G01 Z19.0500 F3048.0
N372 G01 Y2338.3606 Z18.2640 
N373 G01 X586.5182 Z18.2563 
N374 G01 Y2328.7405 Z17.4703 
N375 G01 X586.4230 Z17.4625 
N376 G01 X586.5182 Z17.4547 
N377 G01 Y2338.3606 Z16.6687 
N378 G01 X586.4230 Z16.6610 
N379 G01 Y2328.7405 Z15.8750 
N380 G01 Y2338.3606 F5080.0
N381 G01 X586.5182
N382 G01 Y2328.7405
N383 G01 X586.4230
N384 G00 Z24.1300
N385 G00 X377.0933
N386 G01 Z19.0500 F3048.0
N387 G01 Y2338.3606 Z18.2640 
N388 G01 X377.1885 Z18.2563 
N389 G01 Y2328.7405 Z17.4703 
N390 G01 X377.0933 Z17.4625 
N391 G01 X377.1885 Z17.4547 
N392 G01 Y2338.3606 Z16.6687 
N393 G01 X377.0933 Z16.6610 
N394 G01 Y2328.7405 Z15.8750 
N395 G01 Y2338.3606 F5080.0
N396 G01 X377.1885
N397 G01 Y2328.7405
N398 G01 X377.0933
N399 G00 Z24.1300
N400 M03 S18000
N401 G00 X5.5245 Y1.2630 Z24.1300
N402 G01 Z19.0500 F3048.0
N403 G01 X43.6245 Z9.5250 
N404 G01 X81.7245 F5080.0
N405 G01 X316.6745
N406 G03 X321.4370 Y6.0255 R4.7625 
N407 G01 Y914.0755 
N408 G03 X316.6745 Y918.8380 R4.7625 
N409 G01 X5.5245 
N410 G03 X0.7620 Y914.0755 R4.7625 
N411 G01 Y6.0255 
N412 G03 X5.5245 Y1.2630 R4.7625 
N413 G01 X43.6245 
N414 G01 X81.7245 Z0.0000 F3048.0
N415 G01 X316.6745 F5080.0
N416 G03 X321.4370 Y6.0255 R4.7625 
N417 G01 Y914.0755 
N418 G03 X316.6745 Y918.8380 R4.7625 
N419 G01 X5.5245 
N420 G03 X0.7620 Y914.0755 R4.7625 
N421 G01 Y6.0255 
N422 G03 X5.5245 Y1.2630 R4.7625 
N423 G01 X43.6245 
N424 G01 X81.7245
N425 G00 Z24.1300
N426 G00 X322.2620 Y6.0255
N427 G01 Z19.0500 F3048.0
N428 G01 X322.2652 Y5.8516 Z19.0020 
N429 G01 X322.2749 Y5.6753 Z18.9541 
N430 G01 X322.2914 Y5.4971 Z18.9061 
N431 G01 X322.3149 Y5.3173 Z18.8582 
N432 G01 X322.3458 Y5.1362 Z18.8102 
N433 G01 X322.3840 Y4.9543 Z18.7623 
N434 G01 X322.4299 Y4.7720 Z18.7143 
N435 G01 X322.4836 Y4.5898 Z18.6664 
N436 G01 X322.5451 Y4.4081 Z18.6184 
N437 G01 X322.6145 Y4.2274 Z18.5705 
N438 G01 X322.6919 Y4.0482 Z18.5225 
N439 G01 X322.7772 Y3.8711 Z18.4745 
N440 G01 X322.8704 Y3.6964 Z18.4266 
N441 G01 X322.9713 Y3.5249 Z18.3786 
N442 G01 X323.0799 Y3.3569 Z18.3307 
N443 G01 X323.1960 Y3.1929 Z18.2827 
N444 G01 X323.3192 Y3.0335 Z18.2348 
N445 G01 X323.4493 Y2.8791 Z18.1868 
N446 G01 X323.5861 Y2.7302 Z18.1389 
N447 G01 X323.7292 Y2.5871 Z18.0909 
N448 G01 X323.8781 Y2.4504 Z18.0430 
N449 G01 X324.0325 Y2.3202 Z17.9950 
N450 G01 X324.1919 Y2.1969 Z17.9470 
N451 G01 X324.3559 Y2.0809 Z17.8991 
N452 G01 X324.5239 Y1.9723 Z17.8511 
N453 G01 X324.6954 Y1.8714 Z17.8032 
N454 G01 X324.8701 Y1.7782 Z17.7552 
N455 G01 X325.0472 Y1.6929 Z17.7073 
N456 G01 X325.2264 Y1.6155 Z17.6593 
N457 G01 X325.4071 Y1.5461 Z17.6114 
N458 G01 X325.5888 Y1.4846 Z17.5634 
N459 G01 X325.7710 Y1.4309 Z17.5155 
N460 G01 X325.9533 Y1.3850 Z17.4675 
N461 G01 X326.1352 Y1.3468 Z17.4195 
N462 G01 X326.3163 Y1.3160 Z17.3716 
N463 G01 X326.4961 Y1.2924 Z17.3236 
N464 G01 X326.6743 Y1.2759 Z17.2757 
N465 G01 X326.8505 Y1.2662 Z17.2277 
N466 G01 X327.0245 Y1.2630 Z17.1798 
N467 G01 X357.6436 Z9.5250 
N468 G01 X395.7436 F5080.0
N469 G01 X638.1745
N470 G03 X642.9370 Y6.0255 R4.7625 
N471 G01 Y914.0755 
N472 G03 X638.1745 Y918.8380 R4.7625 
N473 G01 X327.0245 
N474 G03 X322.2620 Y914.0755 R4.7625 
N475 G01 Y6.0255 
N476 G03 X327.0245 Y1.2630 R4.7625 
N477 G01 X357.6436 
N478 G01 X395.7436 Z0.0000 F3048.0
N479 G01 X638.1745 F5080.0
N480 G03 X642.9370 Y6.0255 R4.7625 
N481 G01 Y914.0755 
N482 G03 X638.1745 Y918.8380 R4.7625 
N483 G01 X327.0245 
N484 G03 X322.2620 Y914.0755 R4.7625 
N485 G01 Y6.0255 
N486 G03 X327.0245 Y1.2630 R4.7625 
N487 G01 X357.6436 
N488 G01 X395.7436
N489 G00 Z24.1300
N490 G00 X643.7620 Y6.0255
N491 G01 Z19.0500 F3048.0
N492 G01 X643.7651 Y5.8516 Z19.0020 
N493 G01 X643.7749 Y5.6753 Z18.9541 
N494 G01 X643.7914 Y5.4971 Z18.9061 
N495 G01 X643.8149 Y5.3173 Z18.8582 
N496 G01 X643.8458 Y5.1362 Z18.8102 
N497 G01 X643.8840 Y4.9543 Z18.7623 
N498 G01 X643.9299 Y4.7720 Z18.7143 
N499 G01 X643.9835 Y4.5898 Z18.6664 
N500 G01 X644.0450 Y4.4081 Z18.6184 
N501 G01 X644.1144 Y4.2274 Z18.5705 
N502 G01 X644.1919 Y4.0482 Z18.5225 
N503 G01 X644.2772 Y3.8711 Z18.4745 
N504 G01 X644.3704 Y3.6964 Z18.4266 
N505 G01 X644.4713 Y3.5249 Z18.3786 
N506 G01 X644.5799 Y3.3569 Z18.3307 
N507 G01 X644.6960 Y3.1929 Z18.2827 
N508 G01 X644.8192 Y3.0335 Z18.2348 
N509 G01 X644.9493 Y2.8791 Z18.1868 
N510 G01 X645.0861 Y2.7302 Z18.1389 
N511 G01 X645.2292 Y2.5871 Z18.0909 
N512 G01 X645.3781 Y2.4504 Z18.0430 
N513 G01 X645.5325 Y2.3202 Z17.9950 
N514 G01 X645.6919 Y2.1969 Z17.9470 
N515 G01 X645.8559 Y2.0809 Z17.8991 
N516 G01 X646.0239 Y1.9723 Z17.8511 
N517 G01 X646.1954 Y1.8714 Z17.8032 
N518 G01 X646.3701 Y1.7782 Z17.7552 
N519 G01 X646.5472 Y1.6929 Z17.7073 
N520 G01 X646.7264 Y1.6155 Z17.6593 
N521 G01 X646.9070 Y1.5461 Z17.6114 
N522 G01 X647.0888 Y1.4846 Z17.5634 
N523 G01 X647.2711 Y1.4309 Z17.5155 
N524 G01 X647.4533 Y1.3850 Z17.4675 
N525 G01 X647.6352 Y1.3468 Z17.4195 
N526 G01 X647.8163 Y1.3160 Z17.3716 
N527 G01 X647.9961 Y1.2924 Z17.3236 
N528 G01 X648.1743 Y1.2759 Z17.2757 
N529 G01 X648.3505 Y1.2662 Z17.2277 
N530 G01 X648.5245 Y1.2630 Z17.1798 
N531 G01 X679.1436 Z9.5250 
N532 G01 X717.2436 Z9.5250 F5080.0
N533 G01 X959.6744
N534 G03 X964.4370 Y6.0255 R4.7625 
N535 G01 Y914.0755 
N536 G03 X959.6744 Y918.8380 R4.7625 
N537 G01 X648.5245 
N538 G03 X643.7620 Y914.0755 R4.7625 
N539 G01 Y6.0255 
N540 G03 X648.5245 Y1.2630 R4.7625 
N541 G01 X679.1436 
N542 G01 X717.2436 Z0.0000 F3048.0
N543 G01 X959.6744 F5080.0
N544 G03 X964.4370 Y6.0255 R4.7625 
N545 G01 Y914.0755 
N546 G03 X959.6744 Y918.8380 R4.7625 
N547 G01 X648.5245 
N548 G03 X643.7620 Y914.0755 R4.7625 
N549 G01 Y6.0255 
N550 G03 X648.5245 Y1.2630 R4.7625 
N551 G01 X679.1436 
N552 G01 X717.2436
N553 G00 Z24.1300
N554 G00 X316.6745 Y919.7630
N555 G01 Z19.0500 F3048.0
N556 G01 X316.8484 Y919.7661 Z19.0020 
N557 G01 X317.0247 Y919.7759 Z18.9541 
N558 G01 X317.2029 Y919.7924 Z18.9061 
N559 G01 X317.3827 Y919.8159 Z18.8582 
N560 G01 X317.5638 Y919.8467 Z18.8102 
N561 G01 X317.7457 Y919.8850 Z18.7623 
N562 G01 X317.9279 Y919.9310 Z18.7143 
N563 G01 X318.1102 Y919.9846 Z18.6664 
N564 G01 X318.2919 Y920.0461 Z18.6184 
N565 G01 X318.4726 Y920.1154 Z18.5705 
N566 G01 X318.6518 Y920.1929 Z18.5225 
N567 G01 X318.8289 Y920.2781 Z18.4745 
N568 G01 X319.0036 Y920.3713 Z18.4266 
N569 G01 X319.1751 Y920.4723 Z18.3786 
N570 G01 X319.3431 Y920.5809 Z18.3307 
N571 G01 X319.5071 Y920.6969 Z18.2827 
N572 G01 X319.6665 Y920.8201 Z18.2348 
N573 G01 X319.8209 Y920.9504 Z18.1868 
N574 G01 X319.9698 Y921.0871 Z18.1389 
N575 G01 X320.1129 Y921.2302 Z18.0909 
N576 G01 X320.2496 Y921.3791 Z18.0430 
N577 G01 X320.3798 Y921.5334 Z17.9950 
N578 G01 X320.5031 Y921.6929 Z17.9470 
N579 G01 X320.6191 Y921.8568 Z17.8991 
N580 G01 X320.7277 Y922.0248 Z17.8511 
N581 G01 X320.8286 Y922.1964 Z17.8032 
N582 G01 X320.9218 Y922.3710 Z17.7552 
N583 G01 X321.0071 Y922.5482 Z17.7073 
N584 G01 X321.0845 Y922.7274 Z17.6593 
N585 G01 X321.1539 Y922.9081 Z17.6114 
N586 G01 X321.2155 Y923.0898 Z17.5634 
N587 G01 X321.2691 Y923.2720 Z17.5155 
N588 G01 X321.3150 Y923.4543 Z17.4675 
N589 G01 X321.3532 Y923.6362 Z17.4195 
N590 G01 X321.3840 Y923.8173 Z17.3716 
N591 G01 X321.4076 Y923.9971 Z17.3236 
N592 G01 X321.4241 Y924.1752 Z17.2757 
N593 G01 X321.4338 Y924.3515 Z17.2277 
N594 G01 X321.4370 Y924.5255 Z17.1798 
N595 G01 Y955.1446 Z9.5250 
N596 G01 Y993.2446 Z9.5250 F5080.0
N597 G01 Y1832.5756
N598 G03 X316.6745 Y1837.3380 R4.7625 
N599 G01 X5.5245 
N600 G03 X0.7620 Y1832.5756 R4.7625 
N601 G01 Y924.5255 
N602 G03 X5.5245 Y919.7630 R4.7625 
N603 G01 X316.6745 
N604 G03 X321.4370 Y924.5255 R4.7625 
N605 G01 Y955.1446 
N606 G01 Y993.2446 Z0.0000 F3048.0
N607 G01 Y1832.5756 F5080.0
N608 G03 X316.6745 Y1837.3380 R4.7625 
N609 G01 X5.5245 
N610 G03 X0.7620 Y1832.5756 R4.7625 
N611 G01 Y924.5255 
N612 G03 X5.5245 Y919.7630 R4.7625 
N613 G01 X316.6745 
N614 G03 X321.4370 Y924.5255 R4.7625 
N615 G01 Y955.1446 
N616 G01 Y993.2446
N617 G00 Z24.1300
N618 G00 X322.2620 Y924.5255
N619 G01 Z19.0500 F3048.0
N620 G01 X322.2652 Y924.3515 Z19.0020 
N621 G01 X322.2749 Y924.1752 Z18.9541 
N622 G01 X322.2914 Y923.9971 Z18.9061 
N623 G01 X322.3149 Y923.8173 Z18.8582 
N624 G01 X322.3458 Y923.6362 Z18.8102 
N625 G01 X322.3840 Y923.4543 Z18.7623 
N626 G01 X322.4299 Y923.2720 Z18.7143 
N627 G01 X322.4836 Y923.0898 Z18.6664 
N628 G01 X322.5451 Y922.9081 Z18.6184 
N629 G01 X322.6145 Y922.7274 Z18.5705 
N630 G01 X322.6919 Y922.5482 Z18.5225 
N631 G01 X322.7772 Y922.3710 Z18.4745 
N632 G01 X322.8704 Y922.1964 Z18.4266 
N633 G01 X322.9713 Y922.0248 Z18.3786 
N634 G01 X323.0799 Y921.8568 Z18.3307 
N635 G01 X323.1960 Y921.6929 Z18.2827 
N636 G01 X323.3192 Y921.5334 Z18.2348 
N637 G01 X323.4493 Y921.3791 Z18.1868 
N638 G01 X323.5861 Y921.2302 Z18.1389 
N639 G01 X323.7292 Y921.0871 Z18.0909 
N640 G01 X323.8781 Y920.9504 Z18.0430 
N641 G01 X324.0325 Y920.8201 Z17.9950 
N642 G01 X324.1919 Y920.6969 Z17.9470 
N643 G01 X324.3559 Y920.5809 Z17.8991 
N644 G01 X324.5239 Y920.4723 Z17.8511 
N645 G01 X324.6954 Y920.3713 Z17.8032 
N646 G01 X324.8701 Y920.2781 Z17.7552 
N647 G01 X325.0472 Y920.1929 Z17.7073 
N648 G01 X325.2264 Y920.1154 Z17.6593 
N649 G01 X325.4071 Y920.0461 Z17.6114 
N650 G01 X325.5888 Y919.9846 Z17.5634 
N651 G01 X325.7710 Y919.9310 Z17.5155 
N652 G01 X325.9533 Y919.8850 Z17.4675 
N653 G01 X326.1352 Y919.8467 Z17.4195 
N654 G01 X326.3163 Y919.8159 Z17.3716 
N655 G01 X326.4961 Y919.7924 Z17.3236 
N656 G01 X326.6743 Y919.7759 Z17.2757 
N657 G01 X326.8505 Y919.7661 Z17.2277 
N658 G01 X327.0245 Y919.7630 Z17.1798 
N659 G01 X357.6436 Z9.5250 
N660 G01 X395.7436 F5080.0
N661 G01 X638.1745
N662 G03 X642.9370 Y924.5255 R4.7625 
N663 G01 Y1832.5756 
N664 G03 X638.1745 Y1837.3380 R4.7625 
N665 G01 X327.0245 
N666 G03 X322.2620 Y1832.5756 R4.7625 
N667 G01 Y924.5255 
N668 G03 X327.0245 Y919.7630 R4.7625 
N669 G01 X357.6436 
N670 G01 X395.7436 Z0.0000 F3048.0
N671 G01 X638.1745 F5080.0
N672 G03 X642.9370 Y924.5255 R4.7625 
N673 G01 Y1832.5756 
N674 G03 X638.1745 Y1837.3380 R4.7625 
N675 G01 X327.0245 
N676 G03 X322.2620 Y1832.5756 R4.7625 
N677 G01 Y924.5255 
N678 G03 X327.0245 Y919.7630 R4.7625 
N679 G01 X357.6436 
N680 G01 X395.7436
N681 G00 Z24.1300
N682 G00 X643.7620 Y924.7755
N683 G01 Z19.0500 F3048.0
N684 G01 X643.7651 Y924.6015 Z19.0020 
N685 G01 X643.7749 Y924.4254 Z18.9541 
N686 G01 X643.7914 Y924.2471 Z18.9061 
N687 G01 X643.8149 Y924.0672 Z18.8582 
N688 G01 X643.8458 Y923.8862 Z18.8102 
N689 G01 X643.8840 Y923.7043 Z18.7623 
N690 G01 X643.9299 Y923.5220 Z18.7143 
N691 G01 X643.9835 Y923.3397 Z18.6664 
N692 G01 X644.0450 Y923.1581 Z18.6184 
N693 G01 X644.1144 Y922.9774 Z18.5705 
N694 G01 X644.1919 Y922.7982 Z18.5225 
N695 G01 X644.2772 Y922.6211 Z18.4745 
N696 G01 X644.3704 Y922.4464 Z18.4266 
N697 G01 X644.4713 Y922.2749 Z18.3786 
N698 G01 X644.5799 Y922.1069 Z18.3307 
N699 G01 X644.6960 Y921.9429 Z18.2827 
N700 G01 X644.8192 Y921.7834 Z18.2348 
N701 G01 X644.9493 Y921.6291 Z18.1868 
N702 G01 X645.0861 Y921.4802 Z18.1389 
N703 G01 X645.2292 Y921.3372 Z18.0909 
N704 G01 X645.3781 Y921.2003 Z18.0430 
N705 G01 X645.5325 Y921.0701 Z17.9950 
N706 G01 X645.6919 Y920.9470 Z17.9470 
N707 G01 X645.8559 Y920.8309 Z17.8991 
N708 G01 X646.0239 Y920.7223 Z17.8511 
N709 G01 X646.1954 Y920.6213 Z17.8032 
N710 G01 X646.3701 Y920.5282 Z17.7552 
N711 G01 X646.5472 Y920.4428 Z17.7073 
N712 G01 X646.7264 Y920.3655 Z17.6593 
N713 G01 X646.9070 Y920.2960 Z17.6114 
N714 G01 X647.0888 Y920.2345 Z17.5634 
N715 G01 X647.2711 Y920.1809 Z17.5155 
N716 G01 X647.4533 Y920.1350 Z17.4675 
N717 G01 X647.6352 Y920.0967 Z17.4195 
N718 G01 X647.8163 Y920.0659 Z17.3716 
N719 G01 X647.9961 Y920.0424 Z17.3236 
N720 G01 X648.1743 Y920.0259 Z17.2757 
N721 G01 X648.3505 Y920.0161 Z17.2277 
N722 G01 X648.5245 Y920.0130 Z17.1798 
N723 G01 X679.1436 Z9.5250 
N724 G01 X717.2436 Z9.5250 F5080.0
N725 G01 X915.2244
N726 G03 X919.9869 Y924.7755 R4.7625 
N727 G01 Y1674.0756 
N728 G03 X915.2244 Y1678.8380 R4.7625 
N729 G01 X648.5245 
N730 G03 X643.7620 Y1674.0756 R4.7625 
N731 G01 Y924.7755 
N732 G03 X648.5245 Y920.0130 R4.7625 
N733 G01 X679.1436 
N734 G01 X717.2436 Z0.0000 F3048.0
N735 G01 X915.2244 F5080.0
N736 G03 X919.9869 Y924.7755 R4.7625 
N737 G01 Y1674.0756 
N738 G03 X915.2244 Y1678.8380 R4.7625 
N739 G01 X648.5245 
N740 G03 X643.7620 Y1674.0756 R4.7625 
N741 G01 Y924.7755 
N742 G03 X648.5245 Y920.0130 R4.7625 
N743 G01 X679.1436 
N744 G01 X717.2436
N745 G00 Z24.1300
N746 G00 X648.5245 Y1680.0129
N747 G01 Z19.0500 F3048.0
N748 G01 X686.6245 Z9.5250 
N749 G01 X724.7245 F5080.0
N750 G01 X902.5245
N751 G03 X907.2869 Y1684.7754 R4.7625 
N752 G01 Y2434.0754 
N753 G03 X902.5245 Y2438.8379 R4.7625 
N754 G01 X648.5245 
N755 G03 X643.7620 Y2434.0754 R4.7625 
N756 G01 Y1684.7754 
N757 G03 X648.5245 Y1680.0129 R4.7625 
N758 G01 X686.6245 
N759 G01 X724.7245 Z0.0000 F3048.0
N760 G01 X902.5245 F5080.0
N761 G03 X907.2869 Y1684.7754 R4.7625 
N762 G01 Y2434.0754 
N763 G03 X902.5245 Y2438.8379 R4.7625 
N764 G01 X648.5245 
N765 G03 X643.7620 Y2434.0754 R4.7625 
N766 G01 Y1684.7754 
N767 G03 X648.5245 Y1680.0129 R4.7625 
N768 G01 X686.6245 
N769 G01 X724.7245
N770 G00 Z24.1300
N771 G00 X908.2620 Y1684.6566
N772 G01 Z19.0500 F3048.0
N773 G01 X908.2652 Y1684.4828 Z19.0020 
N774 G01 X908.2749 Y1684.3065 Z18.9541 
N775 G01 X908.2913 Y1684.1284 Z18.9061 
N776 G01 X908.3149 Y1683.9485 Z18.8582 
N777 G01 X908.3457 Y1683.7673 Z18.8102 
N778 G01 X908.3840 Y1683.5856 Z18.7623 
N779 G01 X908.4299 Y1683.4032 Z18.7143 
N780 G01 X908.4836 Y1683.2211 Z18.6664 
N781 G01 X908.5450 Y1683.0393 Z18.6184 
N782 G01 X908.6145 Y1682.8586 Z18.5705 
N783 G01 X908.6918 Y1682.6794 Z18.5225 
N784 G01 X908.7772 Y1682.5023 Z18.4745 
N785 G01 X908.8704 Y1682.3278 Z18.4266 
N786 G01 X908.9714 Y1682.1560 Z18.3786 
N787 G01 X909.0799 Y1681.9880 Z18.3307 
N788 G01 X909.1959 Y1681.8241 Z18.2827 
N789 G01 X909.3192 Y1681.6648 Z18.2348 
N790 G01 X909.4493 Y1681.5104 Z18.1868 
N791 G01 X909.5861 Y1681.3615 Z18.1389 
N792 G01 X909.7291 Y1681.2183 Z18.0909 
N793 G01 X909.8781 Y1681.0817 Z18.0430 
N794 G01 X910.0325 Y1680.9514 Z17.9950 
N795 G01 X910.1919 Y1680.8282 Z17.9470 
N796 G01 X910.3558 Y1680.7122 Z17.8991 
N797 G01 X910.5239 Y1680.6036 Z17.8511 
N798 G01 X910.6954 Y1680.5027 Z17.8032 
N799 G01 X910.8701 Y1680.4094 Z17.7552 
N800 G01 X911.0472 Y1680.3241 Z17.7073 
N801 G01 X911.2263 Y1680.2466 Z17.6593 
N802 G01 X911.4070 Y1680.1772 Z17.6114 
N803 G01 X911.5888 Y1680.1158 Z17.5634 
N804 G01 X911.7710 Y1680.0621 Z17.5155 
N805 G01 X911.9533 Y1680.0162 Z17.4675 
N806 G01 X912.1352 Y1679.9780 Z17.4195 
N807 G01 X912.3163 Y1679.9473 Z17.3716 
N808 G01 X912.4962 Y1679.9236 Z17.3236 
N809 G01 X912.6743 Y1679.9071 Z17.2757 
N810 G01 X912.8506 Y1679.8975 Z17.2277 
N811 G01 X913.0245 Y1679.8942 Z17.1798 
N812 G01 X943.6436 Z9.5250 
N813 G01 X981.7435 Z9.5250 F5080.0
N814 G01 X1222.5870
N815 G03 X1227.3495 Y1684.6566 R4.7625 
N816 G01 Y2170.4316 
N817 G03 X1222.5870 Y2175.1941 R4.7625 
N818 G01 X913.0245 
N819 G03 X908.2620 Y2170.4316 R4.7625 
N820 G01 Y1684.6566 
N821 G03 X913.0245 Y1679.8942 R4.7625 
N822 G01 X943.6436 
N823 G01 X981.7435 Z0.0000 F3048.0
N824 G01 X1222.5870 F5080.0
N825 G03 X1227.3495 Y1684.6566 R4.7625 
N826 G01 Y2170.4316 
N827 G03 X1222.5870 Y2175.1941 R4.7625 
N828 G01 X913.0245 
N829 G03 X908.2620 Y2170.4316 R4.7625 
N830 G01 Y1684.6566 
N831 G03 X913.0245 Y1679.8942 R4.7625 
N832 G01 X943.6436 
N833 G01 X981.7435
N834 G00 Z24.1300
N835 G00 X641.3495 Y1850.1569
N836 G01 Z19.0500 F3048.0
N837 G01 Y1888.2568 Z9.5250 
N838 G01 Y1926.3568 F5080.0
N839 G01 Y2335.9319
N840 G03 X636.5870 Y2340.6943 R4.7625 
N841 G01 X327.0245 
N842 G03 X322.2620 Y2335.9319 R4.7625 
N843 G01 Y1850.1569 
N844 G03 X327.0245 Y1845.3943 R4.7625 
N845 G01 X636.5870 
N846 G03 X641.3495 Y1850.1569 R4.7625 
N847 G01 Y1888.2568 
N848 G01 Y1926.3568 Z0.0000 F3048.0
N849 G01 Y2335.9319 F5080.0
N850 G03 X636.5870 Y2340.6943 R4.7625 
N851 G01 X327.0245 
N852 G03 X322.2620 Y2335.9319 R4.7625 
N853 G01 Y1850.1569 
N854 G03 X327.0245 Y1845.3943 R4.7625 
N855 G01 X636.5870 
N856 G03 X641.3495 Y1850.1569 R4.7625 
N857 G01 Y1888.2568 
N858 G01 Y1926.3568
N859 G00 Z24.1300
N860 G00 X321.4370 Y1843.1130
N861 G01 Z19.0500 F3048.0
N862 G01 Y1881.2130 Z9.5250 
N863 G01 Y1919.3131 F5080.0
N864 G01 Y2368.5754
N865 G03 X316.6745 Y2373.3381 R4.7625 
N866 G01 X5.5245 
N867 G03 X0.7620 Y2368.5754 R4.7625 
N868 G01 Y1843.1130 
N869 G03 X5.5245 Y1838.3506 R4.7625 
N870 G01 X316.6745 
N871 G03 X321.4370 Y1843.1130 R4.7625 
N872 G01 Y1881.2130 
N873 G01 Y1919.3131 Z0.0000 F3048.0
N874 G01 Y2368.5754 F5080.0
N875 G03 X316.6745 Y2373.3381 R4.7625 
N876 G01 X5.5245 
N877 G03 X0.7620 Y2368.5754 R4.7625 
N878 G01 Y1843.1130 
N879 G03 X5.5245 Y1838.3506 R4.7625 
N880 G01 X316.6745 
N881 G03 X321.4370 Y1843.1130 R4.7625 
N882 G01 Y1881.2130 
N883 G01 Y1919.3131
N884 G00 Z24.1300
N885 G00 G53 G49 Z0
N886 G00 G53 X0.0000 Y0.0000 M05
N887 M30
