(VECTRIC POST REVISION)
(FFCFDDC6601FDE93278A86ECDC292DD1)
 (9.29.25_PreFin03_3-4-Slide Holes)
(CREATED Monday September 29 2025)
( Material Size)
( X= 1231.900, Y= 2451.100, Z= 19.050)
(Tools used in this file: )
(T4 = #46125-K SC UPCUT SPIRAL 1/8" DIA.x1/4" shank Spektra)
(T1 = #46367-K SC MORTISE 2 FL 3/8" DIAx7/8x3/8" Shank Spektra)
N9 G00 G17 G71 G40 G49 G80 G90
N10 G54
N11 G53 Z0
N12 (Tool: #46125-K SC UPCUT SPIRAL 1/8" DIA.x1/4" shank Spektra)
N13 T4 M06
N14 M03 S6000
N15 G43 H4 Z24.1300
N16 G00 X605.8307 Y1644.1818
N17 G00 Z24.1300
N18 G01 Z17.0180 F762.0
N19 G00 Z24.1300
N20 G00 Y1926.7568
N21 G01 Z17.0180 F762.0
N22 G00 Z24.1300
N23 G00 Y2209.3318
N24 G01 Z17.0180 F762.0
N25 G00 Z24.1300
N26 G00 X572.8286 Y2313.1079
N27 G01 Z17.0180 F762.0
N28 G00 Z24.1300
N29 G00 X1067.7932 Y2209.3318
N30 G01 Z17.0180 F762.0
N31 G00 Z24.1300
N32 G00 Y1926.7568
N33 G01 Z17.0180 F762.0
N34 G00 Z24.1300
N35 G00 Y1644.1818
N36 G01 Z17.0180 F762.0
N37 G00 Z24.1300
N38 G00 G53 G49 Z0
N39 M05
N40 (Tool: #46367-K SC MORTISE 2 FL 3/8" DIAx7/8x3/8" Shank Spektra)
N41 T1 M06
N42 G00 G43 H1 Z24.1300
N43 M03 S18000
N44 M03 S18000
N45 G00 X760.7620 Y6.0755
N46 G00 Z24.1300
N47 G01 Z19.0500 F3048.0
N48 G01 X760.7652 Y5.9016 Z19.0020 
N49 G01 X760.7748 Y5.7253 Z18.9541 
N50 G01 X760.7914 Y5.5471 Z18.9061 
N51 G01 X760.8149 Y5.3673 Z18.8582 
N52 G01 X760.8458 Y5.1862 Z18.8102 
N53 G01 X760.8840 Y5.0043 Z18.7623 
N54 G01 X760.9299 Y4.8220 Z18.7143 
N55 G01 X760.9835 Y4.6398 Z18.6664 
N56 G01 X761.0450 Y4.4581 Z18.6184 
N57 G01 X761.1145 Y4.2774 Z18.5705 
N58 G01 X761.1918 Y4.0982 Z18.5225 
N59 G01 X761.2772 Y3.9211 Z18.4745 
N60 G01 X761.3703 Y3.7464 Z18.4266 
N61 G01 X761.4713 Y3.5749 Z18.3786 
N62 G01 X761.5799 Y3.4069 Z18.3307 
N63 G01 X761.6959 Y3.2429 Z18.2827 
N64 G01 X761.8192 Y3.0835 Z18.2348 
N65 G01 X761.9493 Y2.9291 Z18.1868 
N66 G01 X762.0861 Y2.7802 Z18.1389 
N67 G01 X762.2292 Y2.6371 Z18.0909 
N68 G01 X762.3781 Y2.5004 Z18.0430 
N69 G01 X762.5325 Y2.3702 Z17.9950 
N70 G01 X762.6919 Y2.2469 Z17.9470 
N71 G01 X762.8558 Y2.1309 Z17.8991 
N72 G01 X763.0239 Y2.0223 Z17.8511 
N73 G01 X763.1954 Y1.9214 Z17.8032 
N74 G01 X763.3701 Y1.8282 Z17.7552 
N75 G01 X763.5472 Y1.7429 Z17.7073 
N76 G01 X763.7264 Y1.6655 Z17.6593 
N77 G01 X763.9071 Y1.5961 Z17.6114 
N78 G01 X764.0887 Y1.5346 Z17.5634 
N79 G01 X764.2710 Y1.4809 Z17.5155 
N80 G01 X764.4533 Y1.4350 Z17.4675 
N81 G01 X764.6352 Y1.3968 Z17.4195 
N82 G01 X764.8162 Y1.3660 Z17.3716 
N83 G01 X764.9961 Y1.3424 Z17.3236 
N84 G01 X765.1743 Y1.3259 Z17.2757 
N85 G01 X765.3506 Y1.3162 Z17.2277 
N86 G01 X765.5245 Y1.3130 Z17.1798 
N87 G01 X796.1436 Z9.5250 
N88 G01 X834.2435 Z9.5250 F5080.0
N89 G01 X1171.9244
N90 G03 X1176.6870 Y6.0755 R4.7625 
N91 G01 Y958.5755 
N92 G03 X1171.9244 Y963.3380 R4.7625 
N93 G01 X765.5245 
N94 G03 X760.7620 Y958.5755 R4.7625 
N95 G01 Y6.0755 
N96 G03 X765.5245 Y1.3130 R4.7625 
N97 G01 X796.1436 
N98 G01 X834.2435 Z0.0000 F3048.0
N99 G01 X1171.9244 F5080.0
N100 G03 X1176.6870 Y6.0755 R4.7625 
N101 G01 Y958.5755 
N102 G03 X1171.9244 Y963.3380 R4.7625 
N103 G01 X765.5245 
N104 G03 X760.7620 Y958.5755 R4.7625 
N105 G01 Y6.0755 
N106 G03 X765.5245 Y1.3130 R4.7625 
N107 G01 X796.1436 
N108 G01 X834.2435
N109 G00 Z24.1300
N110 G00 X568.5245 Y1602.1129
N111 G01 Z19.0500 F3048.0
N112 G01 X606.6245 Z9.5250 
N113 G01 X644.7245 F5080.0
N114 G01 X1120.9745
N115 G03 X1125.7369 Y1606.8755 R4.7625 
N116 G01 Y2318.0754 
N117 G03 X1120.9745 Y2322.8381 R4.7625 
N118 G01 X568.5245 
N119 G03 X563.7620 Y2318.0754 R4.7625 
N120 G01 Y1606.8755 
N121 G03 X568.5245 Y1602.1129 R4.7625 
N122 G01 X606.6245 
N123 G01 X644.7245 Z0.0000 F3048.0
N124 G01 X1120.9745 F5080.0
N125 G03 X1125.7369 Y1606.8755 R4.7625 
N126 G01 Y2318.0754 
N127 G03 X1120.9745 Y2322.8381 R4.7625 
N128 G01 X568.5245 
N129 G03 X563.7620 Y2318.0754 R4.7625 
N130 G01 Y1606.8755 
N131 G03 X568.5245 Y1602.1129 R4.7625 
N132 G01 X606.6245 
N133 G01 X644.7245
N134 G00 Z24.1300
N135 G00 X760.7620 Y1494.5756
N136 G01 Z19.0500 F3048.0
N137 G01 Y1456.4755 Z9.5250 
N138 G01 Y1418.3755 F5080.0
N139 G01 Y969.1130
N140 G03 X765.5245 Y964.3505 R4.7625 
N141 G01 X1076.6744 
N142 G03 X1081.4370 Y969.1130 R4.7625 
N143 G01 Y1494.5756 
N144 G03 X1076.6744 Y1499.3380 R4.7625 
N145 G01 X765.5245 
N146 G03 X760.7620 Y1494.5756 R4.7625 
N147 G01 Y1456.4755 
N148 G01 Y1418.3755 Z0.0000 F3048.0
N149 G01 Y969.1130 F5080.0
N150 G03 X765.5245 Y964.3505 R4.7625 
N151 G01 X1076.6744 
N152 G03 X1081.4370 Y969.1130 R4.7625 
N153 G01 Y1494.5756 
N154 G03 X1076.6744 Y1499.3380 R4.7625 
N155 G01 X765.5245 
N156 G03 X760.7620 Y1494.5756 R4.7625 
N157 G01 Y1456.4755 
N158 G01 Y1418.3755
N159 G00 Z24.1300
N160 G00 X759.5870 Y1596.5754
N161 G01 Z19.0500 F3048.0
N162 G01 X759.5838 Y1596.7494 Z19.0020 
N163 G01 X759.5741 Y1596.9257 Z18.9541 
N164 G01 X759.5576 Y1597.1039 Z18.9061 
N165 G01 X759.5341 Y1597.2837 Z18.8582 
N166 G01 X759.5032 Y1597.4647 Z18.8102 
N167 G01 X759.4650 Y1597.6466 Z18.7623 
N168 G01 X759.4191 Y1597.8289 Z18.7143 
N169 G01 X759.3654 Y1598.0111 Z18.6664 
N170 G01 X759.3040 Y1598.1929 Z18.6184 
N171 G01 X759.2345 Y1598.3735 Z18.5705 
N172 G01 X759.1572 Y1598.5527 Z18.5225 
N173 G01 X759.0718 Y1598.7299 Z18.4745 
N174 G01 X758.9786 Y1598.9045 Z18.4266 
N175 G01 X758.8776 Y1599.0760 Z18.3786 
N176 G01 X758.7691 Y1599.2441 Z18.3307 
N177 G01 X758.6531 Y1599.4081 Z18.2827 
N178 G01 X758.5298 Y1599.5675 Z18.2348 
N179 G01 X758.3996 Y1599.7219 Z18.1868 
N180 G01 X758.2629 Y1599.8708 Z18.1389 
N181 G01 X758.1198 Y1600.0138 Z18.0909 
N182 G01 X757.9709 Y1600.1506 Z18.0430 
N183 G01 X757.8165 Y1600.2808 Z17.9950 
N184 G01 X757.6571 Y1600.4041 Z17.9470 
N185 G01 X757.4932 Y1600.5200 Z17.8991 
N186 G01 X757.3251 Y1600.6287 Z17.8511 
N187 G01 X757.1535 Y1600.7296 Z17.8032 
N188 G01 X756.9789 Y1600.8228 Z17.7552 
N189 G01 X756.8018 Y1600.9081 Z17.7073 
N190 G01 X756.6226 Y1600.9855 Z17.6593 
N191 G01 X756.4419 Y1601.0549 Z17.6114 
N192 G01 X756.2602 Y1601.1163 Z17.5634 
N193 G01 X756.0779 Y1601.1700 Z17.5155 
N194 G01 X755.8957 Y1601.2159 Z17.4675 
N195 G01 X755.7138 Y1601.2542 Z17.4195 
N196 G01 X755.5327 Y1601.2850 Z17.3716 
N197 G01 X755.3528 Y1601.3085 Z17.3236 
N198 G01 X755.1747 Y1601.3251 Z17.2757 
N199 G01 X754.9984 Y1601.3348 Z17.2277 
N200 G01 X754.8245 Y1601.3380 Z17.1798 
N201 G01 X724.2054 Z9.5250 
N202 G01 X686.1055 Z9.5250 F5080.0
N203 G01 X5.5245
N204 G03 X0.7620 Y1596.5754 R4.7625 
N205 G01 Y5.9005 
N206 G03 X5.5245 Y1.1380 R4.7625 
N207 G01 X754.8245 
N208 G03 X759.5870 Y5.9005 R4.7625 
N209 G01 Y1596.5754 
N210 G03 X754.8245 Y1601.3380 R4.7625 
N211 G01 X724.2054 
N212 G01 X686.1055 Z0.0000 F3048.0
N213 G01 X5.5245 F5080.0
N214 G03 X0.7620 Y1596.5754 R4.7625 
N215 G01 Y5.9005 
N216 G03 X5.5245 Y1.1380 R4.7625 
N217 G01 X754.8245 
N218 G03 X759.5870 Y5.9005 R4.7625 
N219 G01 Y1596.5754 
N220 G03 X754.8245 Y1601.3380 R4.7625 
N221 G01 X724.2054 
N222 G01 X686.1055
N223 G00 Z24.1300
N224 G00 X562.7370 Y1607.3256
N225 G01 Z19.0500 F3048.0
N226 G01 Y1645.4255 Z9.5250 
N227 G01 Y1683.5255 F5080.0
N228 G01 Y2401.0754
N229 G03 X557.9745 Y2405.8379 R4.7625 
N230 G01 X5.5245 
N231 G03 X0.7620 Y2401.0754 R4.7625 
N232 G01 Y1607.3256 
N233 G03 X5.5245 Y1602.5630 R4.7625 
N234 G01 X557.9745 
N235 G03 X562.7370 Y1607.3256 R4.7625 
N236 G01 Y1645.4255 
N237 G01 Y1683.5255 Z0.0000 F3048.0
N238 G01 Y2401.0754 F5080.0
N239 G03 X557.9745 Y2405.8379 R4.7625 
N240 G01 X5.5245 
N241 G03 X0.7620 Y2401.0754 R4.7625 
N242 G01 Y1607.3256 
N243 G03 X5.5245 Y1602.5630 R4.7625 
N244 G01 X557.9745 
N245 G03 X562.7370 Y1607.3256 R4.7625 
N246 G01 Y1645.4255 
N247 G01 Y1683.5255
N248 G00 Z24.1300
N249 G00 G53 G49 Z0
N250 G00 G53 X0.0000 Y0.0000 M05
N251 M30
