(VECTRIC POST REVISION)
(FFCFDDC6601FDE93278A86ECDC292DD1)
 (9.29.25_PreFin01_1-Profile 3)
(CREATED Monday September 29 2025)
( Material Size)
( X= 1231.900, Y= 2451.100, Z= 19.050)
(Tools used in this file: )
(T1 = #46367-K SC MORTISE 2 FL 3/8" DIAx7/8x3/8" Shank Spektra)
N8 G00 G17 G71 G40 G49 G80 G90
N9 G54
N10 G53 Z0
N11 (Tool: #46367-K SC MORTISE 2 FL 3/8" DIAx7/8x3/8" Shank Spektra)
N12 T1 M06
N13 M03 S18000
N14 G43 H1 Z24.1300
N15 G00 X760.7620 Y6.2755
N16 G00 Z24.1300
N17 G01 Z19.0500 F3048.0
N18 G01 X760.7652 Y6.1016 Z19.0020 
N19 G01 X760.7748 Y5.9253 Z18.9541 
N20 G01 X760.7914 Y5.7471 Z18.9061 
N21 G01 X760.8149 Y5.5673 Z18.8582 
N22 G01 X760.8458 Y5.3862 Z18.8102 
N23 G01 X760.8840 Y5.2043 Z18.7623 
N24 G01 X760.9299 Y5.0220 Z18.7143 
N25 G01 X760.9835 Y4.8398 Z18.6664 
N26 G01 X761.0450 Y4.6581 Z18.6184 
N27 G01 X761.1145 Y4.4774 Z18.5705 
N28 G01 X761.1918 Y4.2982 Z18.5225 
N29 G01 X761.2772 Y4.1211 Z18.4745 
N30 G01 X761.3703 Y3.9464 Z18.4266 
N31 G01 X761.4713 Y3.7749 Z18.3786 
N32 G01 X761.5799 Y3.6069 Z18.3307 
N33 G01 X761.6959 Y3.4429 Z18.2827 
N34 G01 X761.8192 Y3.2835 Z18.2348 
N35 G01 X761.9493 Y3.1291 Z18.1868 
N36 G01 X762.0861 Y2.9802 Z18.1389 
N37 G01 X762.2292 Y2.8371 Z18.0909 
N38 G01 X762.3781 Y2.7004 Z18.0430 
N39 G01 X762.5325 Y2.5702 Z17.9950 
N40 G01 X762.6919 Y2.4469 Z17.9470 
N41 G01 X762.8558 Y2.3309 Z17.8991 
N42 G01 X763.0239 Y2.2223 Z17.8511 
N43 G01 X763.1954 Y2.1214 Z17.8032 
N44 G01 X763.3701 Y2.0282 Z17.7552 
N45 G01 X763.5472 Y1.9429 Z17.7073 
N46 G01 X763.7264 Y1.8655 Z17.6593 
N47 G01 X763.9071 Y1.7961 Z17.6114 
N48 G01 X764.0887 Y1.7346 Z17.5634 
N49 G01 X764.2710 Y1.6809 Z17.5155 
N50 G01 X764.4533 Y1.6350 Z17.4675 
N51 G01 X764.6352 Y1.5968 Z17.4195 
N52 G01 X764.8162 Y1.5660 Z17.3716 
N53 G01 X764.9961 Y1.5424 Z17.3236 
N54 G01 X765.1743 Y1.5259 Z17.2757 
N55 G01 X765.3506 Y1.5162 Z17.2277 
N56 G01 X765.5245 Y1.5130 Z17.1798 
N57 G01 X796.1436 Z9.5250 
N58 G01 X834.2435 Z9.5250 F5080.0
N59 G01 X1171.9244
N60 G03 X1176.6870 Y6.2755 R4.7625 
N61 G01 Y2152.5754 
N62 G03 X1171.9244 Y2157.3381 R4.7625 
N63 G01 X765.5245 
N64 G03 X760.7620 Y2152.5754 R4.7625 
N65 G01 Y6.2755 
N66 G03 X765.5245 Y1.5130 R4.7625 
N67 G01 X796.1436 
N68 G01 X834.2435 Z0.0000 F3048.0
N69 G01 X1171.9244 F5080.0
N70 G03 X1176.6870 Y6.2755 R4.7625 
N71 G01 Y2152.5754 
N72 G03 X1171.9244 Y2157.3381 R4.7625 
N73 G01 X765.5245 
N74 G03 X760.7620 Y2152.5754 R4.7625 
N75 G01 Y6.2755 
N76 G03 X765.5245 Y1.5130 R4.7625 
N77 G01 X796.1436 
N78 G01 X834.2435
N79 G00 Z24.1300
N80 G00 X759.5870 Y6.1755
N81 G01 Z19.0500 F3048.0
N82 G01 Y44.2755 Z9.5250 
N83 G01 Y82.3755 F5080.0
N84 G01 Y2381.0754
N85 G03 X754.8245 Y2385.8381 R4.7625 
N86 G01 X5.5245 
N87 G03 X0.7620 Y2381.0754 R4.7625 
N88 G01 Y6.1755 
N89 G03 X5.5245 Y1.4130 R4.7625 
N90 G01 X754.8245 
N91 G03 X759.5870 Y6.1755 R4.7625 
N92 G01 Y44.2755 
N93 G01 Y82.3755 Z0.0000 F3048.0
N94 G01 Y2381.0754 F5080.0
N95 G03 X754.8245 Y2385.8381 R4.7625 
N96 G01 X5.5245 
N97 G03 X0.7620 Y2381.0754 R4.7625 
N98 G01 Y6.1755 
N99 G03 X5.5245 Y1.4130 R4.7625 
N100 G01 X754.8245 
N101 G03 X759.5870 Y6.1755 R4.7625 
N102 G01 Y44.2755 
N103 G01 Y82.3755
N104 G00 Z24.1300
N105 G00 G53 G49 Z0
N106 G00 G53 X0.0000 Y0.0000 M05
N107 M30
